<?xml version='1.0' encoding='UTF-8'?>
<map version="1.10" tiledversion="1.12.2" orientation="isometric" renderorder="right-down" width="24" height="24" tilewidth="128" tileheight="64" infinite="0" nextlayerid="6" nextobjectid="24">
  <tileset firstgid="1" source="fantasy_ground.tsx" />
  <tileset firstgid="455" source="fantasy_walls.tsx" />
  <tileset firstgid="871" source="fantasy_roofs.tsx" />
  <tileset firstgid="1099" source="fantasy_doors.tsx" />
  <tileset firstgid="1131" source="fantasy_vegetation.tsx" />
  <tileset firstgid="1313" source="fantasy_stone.tsx" />
  <tileset firstgid="1389" source="fantasy_props.tsx" />
  <tileset firstgid="1813" source="fantasy_animated_objects.tsx" />
  <tileset firstgid="1921" source="fantasy_portals.tsx" />
  <tileset firstgid="1965" source="fantasy_effects.tsx" />
  <objectgroup id="1" name="Labels">
    <object id="1" name="Arena" x="832" y="768" />
    <object id="2" name="West camp" x="320" y="192" />
    <object id="3" name="East camp" x="1344" y="1344" />
  </objectgroup>
  <layer id="2" name="Floor" width="24" height="24" offsetx="0.0" offsety="0.0">
    <data encoding="csv">
6,6,6,6,6,6,6,6,6,6,6,2,2,2,6,6,6,6,6,6,6,6,6,6,
6,6,6,6,6,6,6,6,6,6,6,2,2,2,6,6,6,6,6,6,6,6,6,6,
6,6,6,6,6,6,6,6,6,6,6,2,2,2,6,6,6,6,6,6,6,6,6,6,
6,6,6,6,6,6,6,6,6,6,6,2,2,2,6,6,6,6,6,6,6,6,6,6,
6,6,6,6,6,6,6,6,6,6,6,2,2,2,6,6,6,6,6,6,6,6,6,6,
6,6,6,6,6,6,6,6,6,6,6,2,2,2,6,6,6,6,6,6,6,6,6,6,
6,6,6,6,6,6,6,6,6,6,6,2,2,2,6,6,6,6,6,6,6,6,6,6,
6,6,6,6,6,6,6,6,6,6,6,2,2,2,6,6,6,6,6,6,6,6,6,6,
6,6,6,6,6,6,6,6,2,2,2,2,2,2,2,2,6,6,6,6,6,6,6,6,
6,6,6,6,6,6,6,6,2,2,2,2,2,2,2,2,6,6,6,6,6,6,6,6,
6,6,6,6,6,6,6,6,2,2,2,2,2,2,2,2,6,6,6,6,6,6,6,6,
2,2,2,2,2,2,2,2,2,2,2,2,2,2,2,2,2,2,2,2,2,2,2,2,
2,2,2,2,2,2,2,2,2,2,2,2,2,2,2,2,2,2,2,2,2,2,2,2,
2,2,2,2,2,2,2,2,2,2,2,2,2,2,2,2,2,2,2,2,2,2,2,2,
6,6,6,6,6,6,6,6,2,2,2,2,2,2,2,2,6,6,6,6,6,6,6,6,
6,6,6,6,6,6,6,6,2,2,2,2,2,2,2,2,6,6,6,6,6,6,6,6,
6,6,6,6,6,6,6,6,6,6,6,2,2,2,6,6,6,6,6,6,6,6,6,6,
6,6,6,6,6,6,6,6,6,6,6,2,2,2,6,6,6,6,6,6,6,6,6,6,
6,6,6,6,6,6,6,6,6,6,6,2,2,2,6,6,6,6,6,6,6,6,6,6,
6,6,6,6,6,6,6,6,6,6,6,2,2,2,6,6,6,6,6,6,6,6,6,6,
6,6,6,6,6,6,6,6,6,6,6,2,2,2,6,6,6,6,6,6,6,6,6,6,
6,6,6,6,6,6,6,6,6,6,6,2,2,2,6,6,6,6,6,6,6,6,6,6,
6,6,6,6,6,6,6,6,6,6,6,2,2,2,6,6,6,6,6,6,6,6,6,6,
6,6,6,6,6,6,6,6,6,6,6,2,2,2,6,6,6,6,6,6,6,6,6,6
</data>
  </layer>
  <layer id="3" name="Walls" width="24" height="24" offsetx="0.0" offsety="0.0">
    <data encoding="csv">
1183,0,0,1183,0,0,1183,0,0,1183,0,0,1183,0,0,1183,0,0,1183,0,0,1183,0,1183,
0,0,0,0,0,0,0,0,0,0,0,0,0,0,0,0,0,0,0,0,0,0,0,0,
0,0,0,0,0,0,0,0,0,0,0,0,0,0,0,0,0,0,0,0,0,0,0,0,
1183,0,0,0,0,0,0,0,0,0,0,0,0,0,0,0,0,0,0,0,0,0,0,1183,
0,0,0,0,0,0,0,0,0,0,0,0,0,0,0,0,0,0,0,0,0,0,0,0,
0,0,0,0,0,0,0,0,0,0,0,0,0,0,0,0,0,0,1183,0,0,0,0,0,
1183,0,0,0,0,1183,1389,0,0,0,0,0,0,0,0,0,0,0,0,0,0,0,0,1183,
0,0,0,0,0,0,0,0,0,0,0,0,0,0,0,0,0,0,0,0,0,0,0,0,
0,0,0,0,0,0,0,0,456,456,456,0,0,456,456,456,0,0,0,0,0,0,0,0,
1183,0,0,0,0,0,0,0,455,0,0,0,0,0,0,0,455,0,0,0,0,0,0,1183,
0,0,0,0,0,0,0,0,455,0,0,0,0,0,0,0,455,0,0,0,0,0,0,0,
0,0,0,0,0,0,0,0,0,0,0,0,0,0,0,0,0,0,0,0,0,0,0,0,
1183,0,0,0,0,0,0,0,0,0,0,0,0,0,0,0,0,0,0,0,0,0,0,1183,
0,0,0,0,0,0,0,0,455,0,0,0,0,0,0,0,455,0,0,0,0,0,0,0,
0,0,0,0,0,0,0,0,455,0,0,0,0,0,0,0,455,0,0,0,0,0,0,0,
1183,0,0,0,0,0,0,0,455,0,0,0,0,0,0,0,455,0,0,0,0,0,0,1183,
0,0,0,0,0,0,0,0,0,456,456,456,0,0,456,456,456,0,0,0,0,0,0,0,
0,0,0,0,0,1183,0,0,0,0,0,0,0,0,0,0,0,0,0,0,0,0,0,0,
1183,0,0,0,0,0,0,0,0,0,0,0,0,0,0,0,0,0,1389,1183,0,0,0,1183,
0,0,0,0,0,0,0,0,0,0,0,0,0,0,0,0,0,0,0,0,0,0,0,0,
0,0,0,0,0,0,0,0,0,0,0,0,0,0,0,0,0,0,0,0,0,0,0,0,
1183,0,0,0,0,0,0,0,0,0,0,0,0,0,0,0,0,0,0,0,0,0,0,1183,
0,0,0,0,0,0,0,0,0,0,0,0,0,0,0,0,0,0,0,0,0,0,0,0,
1183,0,0,1183,0,0,1183,0,0,1183,0,0,1183,0,0,1183,0,0,1183,0,0,1183,0,0
</data>
  </layer>
  <objectgroup id="4" name="Spawns">
    <object id="4" name="Spawn 1" x="192" y="128">
      <point />
    </object>
    <object id="5" name="Spawn 2" x="256" y="128">
      <point />
    </object>
    <object id="6" name="Spawn 3" x="320" y="128">
      <point />
    </object>
    <object id="7" name="Spawn 4" x="384" y="128">
      <point />
    </object>
    <object id="8" name="Spawn 5" x="448" y="128">
      <point />
    </object>
    <object id="9" name="Spawn 6" x="192" y="192">
      <point />
    </object>
    <object id="10" name="Spawn 7" x="256" y="192">
      <point />
    </object>
    <object id="11" name="Spawn 8" x="320" y="192">
      <point />
    </object>
    <object id="12" name="Spawn 9" x="384" y="192">
      <point />
    </object>
    <object id="13" name="Spawn 10" x="448" y="192">
      <point />
    </object>
    <object id="14" name="Spawn 11" x="1152" y="1280">
      <point />
    </object>
    <object id="15" name="Spawn 12" x="1216" y="1280">
      <point />
    </object>
    <object id="16" name="Spawn 13" x="1280" y="1280">
      <point />
    </object>
    <object id="17" name="Spawn 14" x="1344" y="1280">
      <point />
    </object>
    <object id="18" name="Spawn 15" x="1408" y="1280">
      <point />
    </object>
    <object id="19" name="Spawn 16" x="1152" y="1344">
      <point />
    </object>
    <object id="20" name="Spawn 17" x="1216" y="1344">
      <point />
    </object>
    <object id="21" name="Spawn 18" x="1280" y="1344">
      <point />
    </object>
    <object id="22" name="Spawn 19" x="1344" y="1344">
      <point />
    </object>
    <object id="23" name="Spawn 20" x="1408" y="1344">
      <point />
    </object>
  </objectgroup>
</map>