<?xml version="1.0" encoding="UTF-8"?>
<map version="1.10" tiledversion="1.12.2" orientation="isometric" renderorder="right-down" width="12" height="12" tilewidth="256" tileheight="128" infinite="0" nextlayerid="6" nextobjectid="46">
 <tileset firstgid="1" source="Demo.tsx"/>
 <objectgroup id="1" name="Labels">
  <object id="1" name="Wall" x="474" y="346"/>
  <object id="2" name="Doorway" x="858" y="346"/>
  <object id="3" name="Window" x="1242" y="346"/>
  <object id="4" name="Fence" x="474" y="730"/>
  <object id="5" name="Crate" x="858" y="730"/>
  <object id="6" name="Curved wall" x="1242" y="730"/>
  <object id="7" name="Stairs E" x="474" y="1114"/>
  <object id="8" name="Outer corner stairs" x="858" y="1114"/>
  <object id="9" name="Stairs S" x="1242" y="1114"/>
  <object id="10" name="Floor switch" x="858" y="1370"/>
  <object id="38" x="1214.01" y="1180.63"/>
  <object id="41" name="Human Pen" x="1528.77" y="1528.89">
   <point/>
  </object>
 </objectgroup>
 <layer id="2" name="Floor" width="12" height="12">
  <data encoding="csv">
16,16,16,16,16,16,16,16,16,16,16,16,
16,16,16,16,16,16,16,16,16,16,16,16,
16,16,16,16,16,16,16,16,16,16,16,16,
16,16,16,16,16,16,16,16,16,16,16,16,
16,16,16,16,16,16,16,16,16,16,16,16,
16,16,16,16,16,16,16,16,16,16,16,16,
16,16,16,16,16,16,16,16,16,16,16,16,
16,16,16,16,16,16,16,16,16,16,16,16,
16,16,16,16,16,16,16,16,16,16,16,16,
16,16,16,16,16,16,16,16,16,16,16,16,
16,16,16,16,16,16,16,16,16,16,16,16,
16,16,16,16,16,16,16,16,16,16,16,16
</data>
 </layer>
 <layer id="3" name="Walls" width="12" height="12">
  <data encoding="csv">
0,0,0,0,0,0,0,0,0,0,0,0,
0,0,0,0,0,0,0,0,0,0,0,0,
0,0,21,0,0,14,0,0,23,0,0,0,
0,0,0,0,0,0,0,0,0,0,0,0,
0,0,0,0,0,0,0,0,0,0,0,0,
0,0,15,0,0,13,0,0,22,0,0,0,
0,0,0,0,0,0,0,0,0,0,0,0,
0,0,0,0,0,0,0,0,0,0,0,0,
0,0,17,0,0,19,0,0,18,0,0,0,
0,0,0,0,0,0,0,0,0,0,2147483663,2147483663,
0,0,0,0,0,20,0,0,0,15,0,0,
0,0,0,0,0,0,0,0,0,15,0,0
</data>
 </layer>
 <objectgroup color="#55cc88" id="5" name="Spawns">
  <object id="12" name="Spawn 01" type="Spawn" x="230.4" y="102.4">
   <point/>
  </object>
  <object id="13" name="Spawn 02" type="Spawn" x="563.2" y="102.4">
   <point/>
  </object>
  <object id="14" name="Spawn 03" type="Spawn" x="896" y="102.4">
   <point/>
  </object>
  <object id="15" name="Spawn 04" type="Spawn" x="1228.8" y="102.4">
   <point/>
  </object>
  <object id="16" name="Spawn 05" type="Spawn" x="1561.6" y="102.4">
   <point/>
  </object>
  <object id="17" name="Spawn 06" type="Spawn" x="230.4" y="546.133">
   <point/>
  </object>
  <object id="18" name="Spawn 07" type="Spawn" x="563.2" y="546.133">
   <point/>
  </object>
  <object id="19" name="Spawn 08" type="Spawn" x="896" y="546.133">
   <point/>
  </object>
  <object id="20" name="Spawn 09" type="Spawn" x="1228.8" y="546.133">
   <point/>
  </object>
  <object id="21" name="Spawn 10" type="Spawn" x="1506.94" y="547.897">
   <point/>
  </object>
  <object id="22" name="Spawn 11" type="Spawn" x="230.4" y="989.867">
   <point/>
  </object>
  <object id="23" name="Spawn 12" type="Spawn" x="563.2" y="989.867">
   <point/>
  </object>
  <object id="24" name="Spawn 13" type="Spawn" x="896" y="989.867">
   <point/>
  </object>
  <object id="25" name="Spawn 14" type="Spawn" x="1228.8" y="989.867">
   <point/>
  </object>
  <object id="26" name="Spawn 15" type="Spawn" x="1514.87" y="976.641">
   <point/>
  </object>
  <object id="27" name="Spawn 16" type="Spawn" x="230.4" y="1433.6">
   <point/>
  </object>
  <object id="28" name="Spawn 17" type="Spawn" x="563.2" y="1433.6">
   <point/>
  </object>
  <object id="29" name="Spawn 18" type="Spawn" x="1052.06" y="1425.66">
   <point/>
  </object>
  <object id="42" name="Spawn" type="Spawn" x="207.309" y="740.84">
   <point/>
  </object>
  <object id="43" name="Spawn" type="Spawn" x="378.914" y="188.988">
   <point/>
  </object>
  <object id="44" name="Spawn" type="Spawn" x="997.432" y="340.84">
   <point/>
  </object>
  <object id="45" name="Spawn" type="Spawn" x="733.235" y="160.593">
   <point/>
  </object>
 </objectgroup>
</map>
