<?xml version="1.0" encoding="UTF-8"?>
<map version="1.10" tiledversion="1.12.2" orientation="isometric" renderorder="right-down" width="128" height="353" tilewidth="128" tileheight="64" infinite="0" nextlayerid="6" nextobjectid="2169">
 <tileset firstgid="1" source="gallery_floor.tsx"/>
 <tileset firstgid="2" source="pack_gallery.tsx"/>
 <tileset firstgid="2782" source="gallery/Enemy_1_-_Attack1.tsx"/>
 <tileset firstgid="2902" source="gallery/Enemy_1_-_Attack2.tsx"/>
 <tileset firstgid="3022" source="gallery/Enemy_1_-_Attack3.tsx"/>
 <tileset firstgid="3142" source="gallery/Enemy_1_-_Attack4.tsx"/>
 <tileset firstgid="3262" source="gallery/Enemy_1_-_Attack5.tsx"/>
 <tileset firstgid="3382" source="gallery/Enemy_1_-_AttackRun2.tsx"/>
 <tileset firstgid="3502" source="gallery/Enemy_1_-_AttackRun.tsx"/>
 <tileset firstgid="3622" source="gallery/Enemy_1_-_CrouchIdle.tsx"/>
 <tileset firstgid="3742" source="gallery/Enemy_1_-_CrouchRun.tsx"/>
 <tileset firstgid="3862" source="gallery/Enemy_1_-_Die.tsx"/>
 <tileset firstgid="3982" source="gallery/Enemy_1_-_Idle2.tsx"/>
 <tileset firstgid="4102" source="gallery/Enemy_1_-_Idle3.tsx"/>
 <tileset firstgid="4222" source="gallery/Enemy_1_-_Idle4.tsx"/>
 <tileset firstgid="4342" source="gallery/Enemy_1_-_Idle.tsx"/>
 <tileset firstgid="4462" source="gallery/Enemy_1_-_RideIdle.tsx"/>
 <tileset firstgid="4582" source="gallery/Enemy_1_-_RideRun.tsx"/>
 <tileset firstgid="4702" source="gallery/Enemy_1_-_Run.tsx"/>
 <tileset firstgid="4822" source="gallery/Enemy_1_-_RunBackwards.tsx"/>
 <tileset firstgid="4942" source="gallery/Enemy_1_-_Special1.tsx"/>
 <tileset firstgid="5062" source="gallery/Enemy_1_-_StrafeLeft.tsx"/>
 <tileset firstgid="5182" source="gallery/Enemy_1_-_StrafeRight.tsx"/>
 <tileset firstgid="5302" source="gallery/Enemy_1_-_TakeDamage.tsx"/>
 <tileset firstgid="5422" source="gallery/Enemy_1_-_Taunt.tsx"/>
 <tileset firstgid="5542" source="gallery/Enemy_1_-_Walk.tsx"/>
 <tileset firstgid="5662" source="gallery/Enemy_2_-_Attack1.tsx"/>
 <tileset firstgid="5782" source="gallery/Enemy_2_-_Attack2.tsx"/>
 <tileset firstgid="5902" source="gallery/Enemy_2_-_Attack3.tsx"/>
 <tileset firstgid="6022" source="gallery/Enemy_2_-_Attack4.tsx"/>
 <tileset firstgid="6142" source="gallery/Enemy_2_-_Attack5.tsx"/>
 <tileset firstgid="6262" source="gallery/Enemy_2_-_AttackRun2.tsx"/>
 <tileset firstgid="6382" source="gallery/Enemy_2_-_AttackRun.tsx"/>
 <tileset firstgid="6502" source="gallery/Enemy_2_-_CrouchIdle.tsx"/>
 <tileset firstgid="6622" source="gallery/Enemy_2_-_CrouchRun.tsx"/>
 <tileset firstgid="6742" source="gallery/Enemy_2_-_Die.tsx"/>
 <tileset firstgid="6862" source="gallery/Enemy_2_-_Idle2.tsx"/>
 <tileset firstgid="6982" source="gallery/Enemy_2_-_Idle3.tsx"/>
 <tileset firstgid="7102" source="gallery/Enemy_2_-_Idle4.tsx"/>
 <tileset firstgid="7222" source="gallery/Enemy_2_-_Idle.tsx"/>
 <tileset firstgid="7342" source="gallery/Enemy_2_-_RideIdle.tsx"/>
 <tileset firstgid="7462" source="gallery/Enemy_2_-_RideRun.tsx"/>
 <tileset firstgid="7582" source="gallery/Enemy_2_-_Run.tsx"/>
 <tileset firstgid="7702" source="gallery/Enemy_2_-_RunBackwards.tsx"/>
 <tileset firstgid="7822" source="gallery/Enemy_2_-_Special1.tsx"/>
 <tileset firstgid="7942" source="gallery/Enemy_2_-_StrafeLeft.tsx"/>
 <tileset firstgid="8062" source="gallery/Enemy_2_-_StrafeRight.tsx"/>
 <tileset firstgid="8182" source="gallery/Enemy_2_-_TakeDamage.tsx"/>
 <tileset firstgid="8302" source="gallery/Enemy_2_-_Taunt.tsx"/>
 <tileset firstgid="8422" source="gallery/Enemy_2_-_Walk.tsx"/>
 <tileset firstgid="8542" source="gallery/Enemy_3_-_Attack1.tsx"/>
 <tileset firstgid="8662" source="gallery/Enemy_3_-_Attack2.tsx"/>
 <tileset firstgid="8782" source="gallery/Enemy_3_-_Attack3.tsx"/>
 <tileset firstgid="8902" source="gallery/Enemy_3_-_Attack4.tsx"/>
 <tileset firstgid="9022" source="gallery/Enemy_3_-_Attack5.tsx"/>
 <tileset firstgid="9142" source="gallery/Enemy_3_-_AttackRun2.tsx"/>
 <tileset firstgid="9262" source="gallery/Enemy_3_-_AttackRun.tsx"/>
 <tileset firstgid="9382" source="gallery/Enemy_3_-_CrouchIdle.tsx"/>
 <tileset firstgid="9502" source="gallery/Enemy_3_-_CrouchRun.tsx"/>
 <tileset firstgid="9622" source="gallery/Enemy_3_-_Die.tsx"/>
 <tileset firstgid="9742" source="gallery/Enemy_3_-_Idle2.tsx"/>
 <tileset firstgid="9862" source="gallery/Enemy_3_-_Idle3.tsx"/>
 <tileset firstgid="9982" source="gallery/Enemy_3_-_Idle4.tsx"/>
 <tileset firstgid="10102" source="gallery/Enemy_3_-_Idle.tsx"/>
 <tileset firstgid="10222" source="gallery/Enemy_3_-_RideIdle.tsx"/>
 <tileset firstgid="10342" source="gallery/Enemy_3_-_RideRun.tsx"/>
 <tileset firstgid="10462" source="gallery/Enemy_3_-_Run.tsx"/>
 <tileset firstgid="10582" source="gallery/Enemy_3_-_RunBackwards.tsx"/>
 <tileset firstgid="10702" source="gallery/Enemy_3_-_Special1.tsx"/>
 <tileset firstgid="10822" source="gallery/Enemy_3_-_StrafeLeft.tsx"/>
 <tileset firstgid="10942" source="gallery/Enemy_3_-_StrafeRight.tsx"/>
 <tileset firstgid="11062" source="gallery/Enemy_3_-_TakeDamage.tsx"/>
 <tileset firstgid="11182" source="gallery/Enemy_3_-_Taunt.tsx"/>
 <tileset firstgid="11302" source="gallery/Enemy_3_-_Walk.tsx"/>
 <tileset firstgid="11422" source="gallery/NPC1_-_Attack1.tsx"/>
 <tileset firstgid="11542" source="gallery/NPC1_-_Attack2.tsx"/>
 <tileset firstgid="11662" source="gallery/NPC1_-_Attack3.tsx"/>
 <tileset firstgid="11782" source="gallery/NPC1_-_Attack4.tsx"/>
 <tileset firstgid="11902" source="gallery/NPC1_-_Attack5.tsx"/>
 <tileset firstgid="12022" source="gallery/NPC1_-_AttackRun2.tsx"/>
 <tileset firstgid="12142" source="gallery/NPC1_-_AttackRun.tsx"/>
 <tileset firstgid="12262" source="gallery/NPC1_-_CrouchIdle.tsx"/>
 <tileset firstgid="12382" source="gallery/NPC1_-_CrouchRun.tsx"/>
 <tileset firstgid="12502" source="gallery/NPC1_-_Die.tsx"/>
 <tileset firstgid="12622" source="gallery/NPC1_-_Idle2.tsx"/>
 <tileset firstgid="12742" source="gallery/NPC1_-_Idle3.tsx"/>
 <tileset firstgid="12862" source="gallery/NPC1_-_Idle4.tsx"/>
 <tileset firstgid="12982" source="gallery/NPC1_-_Idle.tsx"/>
 <tileset firstgid="13102" source="gallery/NPC1_-_RideIdle.tsx"/>
 <tileset firstgid="13222" source="gallery/NPC1_-_RideRun.tsx"/>
 <tileset firstgid="13342" source="gallery/NPC1_-_Run.tsx"/>
 <tileset firstgid="13462" source="gallery/NPC1_-_RunBackwards.tsx"/>
 <tileset firstgid="13582" source="gallery/NPC1_-_Special1.tsx"/>
 <tileset firstgid="13702" source="gallery/NPC1_-_StrafeLeft.tsx"/>
 <tileset firstgid="13822" source="gallery/NPC1_-_StrafeRight.tsx"/>
 <tileset firstgid="13942" source="gallery/NPC1_-_TakeDamage.tsx"/>
 <tileset firstgid="14062" source="gallery/NPC1_-_Taunt.tsx"/>
 <tileset firstgid="14182" source="gallery/NPC1_-_Walk.tsx"/>
 <tileset firstgid="14302" source="gallery/NPC2_-_Attack1.tsx"/>
 <tileset firstgid="14422" source="gallery/NPC2_-_Attack2.tsx"/>
 <tileset firstgid="14542" source="gallery/NPC2_-_Attack3.tsx"/>
 <tileset firstgid="14662" source="gallery/NPC2_-_Attack4.tsx"/>
 <tileset firstgid="14782" source="gallery/NPC2_-_Attack5.tsx"/>
 <tileset firstgid="14902" source="gallery/NPC2_-_AttackRun2.tsx"/>
 <tileset firstgid="15022" source="gallery/NPC2_-_AttackRun.tsx"/>
 <tileset firstgid="15142" source="gallery/NPC2_-_CrouchIdle.tsx"/>
 <tileset firstgid="15262" source="gallery/NPC2_-_CrouchRun.tsx"/>
 <tileset firstgid="15382" source="gallery/NPC2_-_Die.tsx"/>
 <tileset firstgid="15502" source="gallery/NPC2_-_Idle2.tsx"/>
 <tileset firstgid="15622" source="gallery/NPC2_-_Idle3.tsx"/>
 <tileset firstgid="15742" source="gallery/NPC2_-_Idle4.tsx"/>
 <tileset firstgid="15862" source="gallery/NPC2_-_Idle.tsx"/>
 <tileset firstgid="15982" source="gallery/NPC2_-_RideIdle.tsx"/>
 <tileset firstgid="16102" source="gallery/NPC2_-_RideRun.tsx"/>
 <tileset firstgid="16222" source="gallery/NPC2_-_Run.tsx"/>
 <tileset firstgid="16342" source="gallery/NPC2_-_RunBackwards.tsx"/>
 <tileset firstgid="16462" source="gallery/NPC2_-_Special1.tsx"/>
 <tileset firstgid="16582" source="gallery/NPC2_-_StrafeLeft.tsx"/>
 <tileset firstgid="16702" source="gallery/NPC2_-_StrafeRight.tsx"/>
 <tileset firstgid="16822" source="gallery/NPC2_-_TakeDamage.tsx"/>
 <tileset firstgid="16942" source="gallery/NPC2_-_Taunt.tsx"/>
 <tileset firstgid="17062" source="gallery/NPC2_-_Walk.tsx"/>
 <tileset firstgid="17182" source="gallery/NPC3_-_Attack1.tsx"/>
 <tileset firstgid="17302" source="gallery/NPC3_-_Attack2.tsx"/>
 <tileset firstgid="17422" source="gallery/NPC3_-_Attack3.tsx"/>
 <tileset firstgid="17542" source="gallery/NPC3_-_Attack4.tsx"/>
 <tileset firstgid="17662" source="gallery/NPC3_-_Attack5.tsx"/>
 <tileset firstgid="17782" source="gallery/NPC3_-_AttackRun2.tsx"/>
 <tileset firstgid="17902" source="gallery/NPC3_-_AttackRun.tsx"/>
 <tileset firstgid="18022" source="gallery/NPC3_-_CrouchIdle.tsx"/>
 <tileset firstgid="18142" source="gallery/NPC3_-_CrouchRun.tsx"/>
 <tileset firstgid="18262" source="gallery/NPC3_-_Die.tsx"/>
 <tileset firstgid="18382" source="gallery/NPC3_-_Idle2.tsx"/>
 <tileset firstgid="18502" source="gallery/NPC3_-_Idle3.tsx"/>
 <tileset firstgid="18622" source="gallery/NPC3_-_Idle4.tsx"/>
 <tileset firstgid="18742" source="gallery/NPC3_-_Idle.tsx"/>
 <tileset firstgid="18862" source="gallery/NPC3_-_RideIdle.tsx"/>
 <tileset firstgid="18982" source="gallery/NPC3_-_RideRun.tsx"/>
 <tileset firstgid="19102" source="gallery/NPC3_-_Run.tsx"/>
 <tileset firstgid="19222" source="gallery/NPC3_-_RunBackwards.tsx"/>
 <tileset firstgid="19342" source="gallery/NPC3_-_Special1.tsx"/>
 <tileset firstgid="19462" source="gallery/NPC3_-_StrafeLeft.tsx"/>
 <tileset firstgid="19582" source="gallery/NPC3_-_StrafeRight.tsx"/>
 <tileset firstgid="19702" source="gallery/NPC3_-_TakeDamage.tsx"/>
 <tileset firstgid="19822" source="gallery/NPC3_-_Taunt.tsx"/>
 <tileset firstgid="19942" source="gallery/NPC3_-_Walk.tsx"/>
 <tileset firstgid="20062" source="gallery/Player_-_Attack1.tsx"/>
 <tileset firstgid="20182" source="gallery/Player_-_Attack2.tsx"/>
 <tileset firstgid="20302" source="gallery/Player_-_Attack3.tsx"/>
 <tileset firstgid="20422" source="gallery/Player_-_Attack4.tsx"/>
 <tileset firstgid="20542" source="gallery/Player_-_Attack5.tsx"/>
 <tileset firstgid="20662" source="gallery/Player_-_AttackRun2.tsx"/>
 <tileset firstgid="20782" source="gallery/Player_-_AttackRun.tsx"/>
 <tileset firstgid="20902" source="gallery/Player_-_CrouchIdle.tsx"/>
 <tileset firstgid="21022" source="gallery/Player_-_CrouchRun.tsx"/>
 <tileset firstgid="21142" source="gallery/Player_-_Die.tsx"/>
 <tileset firstgid="21262" source="gallery/Player_-_Idle2.tsx"/>
 <tileset firstgid="21382" source="gallery/Player_-_Idle3.tsx"/>
 <tileset firstgid="21502" source="gallery/Player_-_Idle4.tsx"/>
 <tileset firstgid="21622" source="gallery/Player_-_Idle.tsx"/>
 <tileset firstgid="21742" source="gallery/Player_-_RideIdle.tsx"/>
 <tileset firstgid="21862" source="gallery/Player_-_RideRun.tsx"/>
 <tileset firstgid="21982" source="gallery/Player_-_Run.tsx"/>
 <tileset firstgid="22102" source="gallery/Player_-_RunBackwards.tsx"/>
 <tileset firstgid="22222" source="gallery/Player_-_Special1.tsx"/>
 <tileset firstgid="22342" source="gallery/Player_-_StrafeLeft.tsx"/>
 <tileset firstgid="22462" source="gallery/Player_-_StrafeRight.tsx"/>
 <tileset firstgid="22582" source="gallery/Player_-_TakeDamage.tsx"/>
 <tileset firstgid="22702" source="gallery/Player_-_Taunt.tsx"/>
 <tileset firstgid="22822" source="gallery/Player_-_Walk.tsx"/>
 <objectgroup id="1" name="Labels">
  <object id="1" name="FANTASY PACK COMPLETE GALLERY" x="384" y="128"/>
  <object id="3" name="ENVIRONMENT / OTHER ENVIRONMENT" x="256" y="640"/>
  <object id="4" name="BLACK TILE" x="320" y="896"/>
  <object id="5" name="FirePlace" x="512" y="896"/>
  <object id="6" name="Shadow1_E" x="704" y="896"/>
  <object id="7" name="Shadow1_N" x="896" y="896"/>
  <object id="8" name="Shadow1_S" x="1088" y="896"/>
  <object id="9" name="Shadow1_W" x="1280" y="896"/>
  <object id="10" name="Shadow2_E" x="1472" y="896"/>
  <object id="11" name="Shadow2_N" x="1664" y="896"/>
  <object id="12" name="Shadow2_S" x="1856" y="896"/>
  <object id="13" name="Shadow2_W" x="2048" y="896"/>
  <object id="14" name="Shadow3_E" x="2240" y="896"/>
  <object id="15" name="Shadow3_N" x="2432" y="896"/>
  <object id="16" name="Shadow3_S" x="2624" y="896"/>
  <object id="17" name="Shadow3_W" x="2816" y="896"/>
  <object id="18" name="Shadow4_E" x="3008" y="896"/>
  <object id="19" name="Shadow4_N" x="3200" y="896"/>
  <object id="20" name="Shadow4_S" x="3392" y="896"/>
  <object id="21" name="Shadow4_W" x="3584" y="896"/>
  <object id="22" name="Shadow5_E" x="3776" y="896"/>
  <object id="23" name="Shadow5_N" x="3968" y="896"/>
  <object id="24" name="Shadow5_S" x="4160" y="896"/>
  <object id="25" name="Shadow5_W" x="4352" y="896"/>
  <object id="26" name="Shadow6_E" x="4544" y="896"/>
  <object id="27" name="Shadow6_N" x="4736" y="896"/>
  <object id="28" name="Shadow6_S" x="4928" y="896"/>
  <object id="29" name="Shadow6_W" x="5120" y="896"/>
  <object id="30" name="Shadow7_E" x="5312" y="896"/>
  <object id="31" name="Shadow7_N" x="5504" y="896"/>
  <object id="32" name="Shadow7_S" x="5696" y="896"/>
  <object id="33" name="Shadow7_W" x="5888" y="896"/>
  <object id="34" name="Shadow8_E" x="6080" y="896"/>
  <object id="35" name="Shadow8_N" x="6272" y="896"/>
  <object id="36" name="Shadow8_S" x="6464" y="896"/>
  <object id="37" name="Shadow8_W" x="6656" y="896"/>
  <object id="38" name="Shadow9_E" x="6848" y="896"/>
  <object id="39" name="Shadow9_N" x="7040" y="896"/>
  <object id="40" name="Shadow9_S" x="7232" y="896"/>
  <object id="41" name="Shadow9_W" x="7424" y="896"/>
  <object id="42" name="Shadow10_E" x="7616" y="896"/>
  <object id="43" name="Shadow10_N" x="7808" y="896"/>
  <object id="44" name="Shadow10_S" x="320" y="1088"/>
  <object id="45" name="Shadow10_W" x="512" y="1088"/>
  <object id="46" name="Shadow11_E" x="704" y="1088"/>
  <object id="47" name="Shadow11_N" x="896" y="1088"/>
  <object id="48" name="Shadow11_S" x="1088" y="1088"/>
  <object id="49" name="Shadow11_W" x="1280" y="1088"/>
  <object id="50" name="Shadow12_E" x="1472" y="1088"/>
  <object id="51" name="Shadow12_N" x="1664" y="1088"/>
  <object id="52" name="Shadow12_S" x="1856" y="1088"/>
  <object id="53" name="Shadow12_W" x="2048" y="1088"/>
  <object id="54" name="Shadow13_E" x="2240" y="1088"/>
  <object id="55" name="Shadow13_N" x="2432" y="1088"/>
  <object id="56" name="Shadow13_S" x="2624" y="1088"/>
  <object id="57" name="Shadow13_W" x="2816" y="1088"/>
  <object id="58" name="TilePreview" x="3008" y="1088"/>
  <object id="59" name="Torch2" x="3200" y="1088"/>
  <object id="60" name="TreeTrunkBroken" x="3392" y="1088"/>
  <object id="61" name="ENVIRONMENT / CHEST" x="256" y="1408"/>
  <object id="62" name="Chest A1_E" x="320" y="1664"/>
  <object id="63" name="Chest A1_N" x="512" y="1664"/>
  <object id="64" name="Chest A1_S" x="704" y="1664"/>
  <object id="65" name="Chest A1_W" x="896" y="1664"/>
  <object id="66" name="Chest A2_E" x="1088" y="1664"/>
  <object id="67" name="Chest A2_N" x="1280" y="1664"/>
  <object id="68" name="Chest A2_S" x="1472" y="1664"/>
  <object id="69" name="Chest A2_W" x="1664" y="1664"/>
  <object id="70" name="Chest A3_E" x="1856" y="1664"/>
  <object id="71" name="Chest A3_N" x="2048" y="1664"/>
  <object id="72" name="Chest A3_S" x="2240" y="1664"/>
  <object id="73" name="Chest A3_W" x="2432" y="1664"/>
  <object id="74" name="Chest A4_E" x="2624" y="1664"/>
  <object id="75" name="Chest A4_N" x="2816" y="1664"/>
  <object id="76" name="Chest A4_S" x="3008" y="1664"/>
  <object id="77" name="Chest A4_W" x="3200" y="1664"/>
  <object id="78" name="Chest B1_E" x="3392" y="1664"/>
  <object id="79" name="Chest B1_N" x="3584" y="1664"/>
  <object id="80" name="Chest B1_S" x="3776" y="1664"/>
  <object id="81" name="Chest B1_W" x="3968" y="1664"/>
  <object id="82" name="Chest B2_E" x="4160" y="1664"/>
  <object id="83" name="Chest B2_N" x="4352" y="1664"/>
  <object id="84" name="Chest B2_S" x="4544" y="1664"/>
  <object id="85" name="Chest B2_W" x="4736" y="1664"/>
  <object id="86" name="ENVIRONMENT / DOOR" x="256" y="1984"/>
  <object id="87" name="Door A1_E" x="320" y="2240"/>
  <object id="88" name="Door A1_N" x="512" y="2240"/>
  <object id="89" name="Door A1_S" x="704" y="2240"/>
  <object id="90" name="Door A1_W" x="896" y="2240"/>
  <object id="91" name="Door A2_E" x="1088" y="2240"/>
  <object id="92" name="Door A2_N" x="1280" y="2240"/>
  <object id="93" name="Door A2_S" x="1472" y="2240"/>
  <object id="94" name="Door A2_W" x="1664" y="2240"/>
  <object id="95" name="Door C1_E" x="1856" y="2240"/>
  <object id="96" name="Door C1_N" x="2048" y="2240"/>
  <object id="97" name="Door C1_S" x="2240" y="2240"/>
  <object id="98" name="Door C1_W" x="2432" y="2240"/>
  <object id="99" name="Door C2_E" x="2624" y="2240"/>
  <object id="100" name="Door C2_N" x="2816" y="2240"/>
  <object id="101" name="Door C2_S" x="3008" y="2240"/>
  <object id="102" name="Door C2_W" x="3200" y="2240"/>
  <object id="103" name="Door C3_E" x="3392" y="2240"/>
  <object id="104" name="Door C3_N" x="3584" y="2240"/>
  <object id="105" name="Door C3_S" x="3776" y="2240"/>
  <object id="106" name="Door C3_W" x="3968" y="2240"/>
  <object id="107" name="Door C4_E" x="4160" y="2240"/>
  <object id="108" name="Door C4_N" x="4352" y="2240"/>
  <object id="109" name="Door C4_S" x="4544" y="2240"/>
  <object id="110" name="Door C4_W" x="4736" y="2240"/>
  <object id="111" name="Door C5_E" x="4928" y="2240"/>
  <object id="112" name="Door C5_N" x="5120" y="2240"/>
  <object id="113" name="Door C5_S" x="5312" y="2240"/>
  <object id="114" name="Door C5_W" x="5504" y="2240"/>
  <object id="115" name="Door C6_E" x="5696" y="2240"/>
  <object id="116" name="Door C6_N" x="5888" y="2240"/>
  <object id="117" name="Door C6_S" x="6080" y="2240"/>
  <object id="118" name="Door C6_W" x="6272" y="2240"/>
  <object id="119" name="ENVIRONMENT / FLORA" x="256" y="2560"/>
  <object id="120" name="Flora A1_E" x="320" y="2816"/>
  <object id="121" name="Flora A1_N" x="512" y="2816"/>
  <object id="122" name="Flora A1_S" x="704" y="2816"/>
  <object id="123" name="Flora A1_W" x="896" y="2816"/>
  <object id="124" name="Flora A2_E" x="1088" y="2816"/>
  <object id="125" name="Flora A2_N" x="1280" y="2816"/>
  <object id="126" name="Flora A2_S" x="1472" y="2816"/>
  <object id="127" name="Flora A2_W" x="1664" y="2816"/>
  <object id="128" name="Flora A3_E" x="1856" y="2816"/>
  <object id="129" name="Flora A3_N" x="2048" y="2816"/>
  <object id="130" name="Flora A3_S" x="2240" y="2816"/>
  <object id="131" name="Flora A3_W" x="2432" y="2816"/>
  <object id="132" name="Flora A4_E" x="2624" y="2816"/>
  <object id="133" name="Flora A4_N" x="2816" y="2816"/>
  <object id="134" name="Flora A4_S" x="3008" y="2816"/>
  <object id="135" name="Flora A4_W" x="3200" y="2816"/>
  <object id="136" name="Flora A5_E" x="3392" y="2816"/>
  <object id="137" name="Flora A5_N" x="3584" y="2816"/>
  <object id="138" name="Flora A5_S" x="3776" y="2816"/>
  <object id="139" name="Flora A5_W" x="3968" y="2816"/>
  <object id="140" name="Flora A6_E" x="4160" y="2816"/>
  <object id="141" name="Flora A6_N" x="4352" y="2816"/>
  <object id="142" name="Flora A6_S" x="4544" y="2816"/>
  <object id="143" name="Flora A6_W" x="4736" y="2816"/>
  <object id="144" name="Flora A7_E" x="4928" y="2816"/>
  <object id="145" name="Flora A7_N" x="5120" y="2816"/>
  <object id="146" name="Flora A7_S" x="5312" y="2816"/>
  <object id="147" name="Flora A7_W" x="5504" y="2816"/>
  <object id="148" name="Flora B1_E" x="5696" y="2816"/>
  <object id="149" name="Flora B1_N" x="5888" y="2816"/>
  <object id="150" name="Flora B1_S" x="6080" y="2816"/>
  <object id="151" name="Flora B1_W" x="6272" y="2816"/>
  <object id="152" name="Flora B2_E" x="6464" y="2816"/>
  <object id="153" name="Flora B2_N" x="6656" y="2816"/>
  <object id="154" name="Flora B2_S" x="6848" y="2816"/>
  <object id="155" name="Flora B2_W" x="7040" y="2816"/>
  <object id="156" name="Flora B3_E" x="7232" y="2816"/>
  <object id="157" name="Flora B3_N" x="7424" y="2816"/>
  <object id="158" name="Flora B3_S" x="7616" y="2816"/>
  <object id="159" name="Flora B3_W" x="7808" y="2816"/>
  <object id="160" name="Flora B4_E" x="320" y="3008"/>
  <object id="161" name="Flora B4_N" x="512" y="3008"/>
  <object id="162" name="Flora B4_S" x="704" y="3008"/>
  <object id="163" name="Flora B4_W" x="896" y="3008"/>
  <object id="164" name="Flora B5_E" x="1088" y="3008"/>
  <object id="165" name="Flora B5_N" x="1280" y="3008"/>
  <object id="166" name="Flora B5_S" x="1472" y="3008"/>
  <object id="167" name="Flora B5_W" x="1664" y="3008"/>
  <object id="168" name="Flora B6_E" x="1856" y="3008"/>
  <object id="169" name="Flora B6_N" x="2048" y="3008"/>
  <object id="170" name="Flora B6_S" x="2240" y="3008"/>
  <object id="171" name="Flora B6_W" x="2432" y="3008"/>
  <object id="172" name="ENVIRONMENT / GROUND" x="256" y="3328"/>
  <object id="173" name="Ground A1_E" x="320" y="3584"/>
  <object id="174" name="Ground A1_N" x="512" y="3584"/>
  <object id="175" name="Ground A1_S" x="704" y="3584"/>
  <object id="176" name="Ground A1_W" x="896" y="3584"/>
  <object id="177" name="Ground A2_E" x="1088" y="3584"/>
  <object id="178" name="Ground A2_N" x="1280" y="3584"/>
  <object id="179" name="Ground A2_S" x="1472" y="3584"/>
  <object id="180" name="Ground A2_W" x="1664" y="3584"/>
  <object id="181" name="Ground A3_E" x="1856" y="3584"/>
  <object id="182" name="Ground A3_N" x="2048" y="3584"/>
  <object id="183" name="Ground A3_S" x="2240" y="3584"/>
  <object id="184" name="Ground A3_W" x="2432" y="3584"/>
  <object id="185" name="Ground A4_E" x="2624" y="3584"/>
  <object id="186" name="Ground A4_N" x="2816" y="3584"/>
  <object id="187" name="Ground A4_S" x="3008" y="3584"/>
  <object id="188" name="Ground A4_W" x="3200" y="3584"/>
  <object id="189" name="Ground A5_E" x="3392" y="3584"/>
  <object id="190" name="Ground A5_N" x="3584" y="3584"/>
  <object id="191" name="Ground A5_S" x="3776" y="3584"/>
  <object id="192" name="Ground A5_W" x="3968" y="3584"/>
  <object id="193" name="Ground A6_E" x="4160" y="3584"/>
  <object id="194" name="Ground A6_N" x="4352" y="3584"/>
  <object id="195" name="Ground A6_S" x="4544" y="3584"/>
  <object id="196" name="Ground A6_W" x="4736" y="3584"/>
  <object id="197" name="Ground A7_E" x="4928" y="3584"/>
  <object id="198" name="Ground A7_N" x="5120" y="3584"/>
  <object id="199" name="Ground A7_S" x="5312" y="3584"/>
  <object id="200" name="Ground A7_W" x="5504" y="3584"/>
  <object id="201" name="Ground A8_E" x="5696" y="3584"/>
  <object id="202" name="Ground A8_N" x="5888" y="3584"/>
  <object id="203" name="Ground A8_S" x="6080" y="3584"/>
  <object id="204" name="Ground A8_W" x="6272" y="3584"/>
  <object id="205" name="Ground A9_E" x="6464" y="3584"/>
  <object id="206" name="Ground A9_N" x="6656" y="3584"/>
  <object id="207" name="Ground A9_S" x="6848" y="3584"/>
  <object id="208" name="Ground A9_W" x="7040" y="3584"/>
  <object id="209" name="Ground A10_E" x="7232" y="3584"/>
  <object id="210" name="Ground A10_N" x="7424" y="3584"/>
  <object id="211" name="Ground A10_S" x="7616" y="3584"/>
  <object id="212" name="Ground A10_W" x="7808" y="3584"/>
  <object id="213" name="Ground A11_E" x="320" y="3776"/>
  <object id="214" name="Ground A11_N" x="512" y="3776"/>
  <object id="215" name="Ground A11_S" x="704" y="3776"/>
  <object id="216" name="Ground A11_W" x="896" y="3776"/>
  <object id="217" name="Ground A12_E" x="1088" y="3776"/>
  <object id="218" name="Ground A12_N" x="1280" y="3776"/>
  <object id="219" name="Ground A12_S" x="1472" y="3776"/>
  <object id="220" name="Ground A12_W" x="1664" y="3776"/>
  <object id="221" name="Ground A14_E" x="1856" y="3776"/>
  <object id="222" name="Ground A14_N" x="2048" y="3776"/>
  <object id="223" name="Ground A14_S" x="2240" y="3776"/>
  <object id="224" name="Ground A14_W" x="2432" y="3776"/>
  <object id="225" name="Ground A15_E" x="2624" y="3776"/>
  <object id="226" name="Ground A15_N" x="2816" y="3776"/>
  <object id="227" name="Ground A15_S" x="3008" y="3776"/>
  <object id="228" name="Ground A15_W" x="3200" y="3776"/>
  <object id="229" name="Ground A16_E" x="3392" y="3776"/>
  <object id="230" name="Ground A16_N" x="3584" y="3776"/>
  <object id="231" name="Ground A16_S" x="3776" y="3776"/>
  <object id="232" name="Ground A16_W" x="3968" y="3776"/>
  <object id="233" name="Ground A17_E" x="4160" y="3776"/>
  <object id="234" name="Ground A17_N" x="4352" y="3776"/>
  <object id="235" name="Ground A17_S" x="4544" y="3776"/>
  <object id="236" name="Ground A17_W" x="4736" y="3776"/>
  <object id="237" name="Ground A18_E" x="4928" y="3776"/>
  <object id="238" name="Ground A18_N" x="5120" y="3776"/>
  <object id="239" name="Ground A18_S" x="5312" y="3776"/>
  <object id="240" name="Ground A18_W" x="5504" y="3776"/>
  <object id="241" name="Ground A19_E" x="5696" y="3776"/>
  <object id="242" name="Ground A19_N" x="5888" y="3776"/>
  <object id="243" name="Ground A19_S" x="6080" y="3776"/>
  <object id="244" name="Ground A19_W" x="6272" y="3776"/>
  <object id="245" name="Ground A20_E" x="6464" y="3776"/>
  <object id="246" name="Ground A20_N" x="6656" y="3776"/>
  <object id="247" name="Ground A20_S" x="6848" y="3776"/>
  <object id="248" name="Ground A20_W" x="7040" y="3776"/>
  <object id="249" name="Ground A21_E" x="7232" y="3776"/>
  <object id="250" name="Ground A21_N" x="7424" y="3776"/>
  <object id="251" name="Ground A21_S" x="7616" y="3776"/>
  <object id="252" name="Ground A21_W" x="7808" y="3776"/>
  <object id="253" name="Ground A22_E" x="320" y="3968"/>
  <object id="254" name="Ground A22_N" x="512" y="3968"/>
  <object id="255" name="Ground A22_S" x="704" y="3968"/>
  <object id="256" name="Ground A22_W" x="896" y="3968"/>
  <object id="257" name="Ground A23_E" x="1088" y="3968"/>
  <object id="258" name="Ground A23_N" x="1280" y="3968"/>
  <object id="259" name="Ground A23_S" x="1472" y="3968"/>
  <object id="260" name="Ground A23_W" x="1664" y="3968"/>
  <object id="261" name="Ground A24_E" x="1856" y="3968"/>
  <object id="262" name="Ground A24_N" x="2048" y="3968"/>
  <object id="263" name="Ground A24_S" x="2240" y="3968"/>
  <object id="264" name="Ground A24_W" x="2432" y="3968"/>
  <object id="265" name="Ground B1_E" x="2624" y="3968"/>
  <object id="266" name="Ground B1_N" x="2816" y="3968"/>
  <object id="267" name="Ground B1_S" x="3008" y="3968"/>
  <object id="268" name="Ground B1_W" x="3200" y="3968"/>
  <object id="269" name="Ground B2_E" x="3392" y="3968"/>
  <object id="270" name="Ground B2_N" x="3584" y="3968"/>
  <object id="271" name="Ground B2_S" x="3776" y="3968"/>
  <object id="272" name="Ground B2_W" x="3968" y="3968"/>
  <object id="273" name="Ground B3_E" x="4160" y="3968"/>
  <object id="274" name="Ground B3_N" x="4352" y="3968"/>
  <object id="275" name="Ground B3_S" x="4544" y="3968"/>
  <object id="276" name="Ground B3_W" x="4736" y="3968"/>
  <object id="277" name="Ground B4_E" x="4928" y="3968"/>
  <object id="278" name="Ground B4_N" x="5120" y="3968"/>
  <object id="279" name="Ground B4_S" x="5312" y="3968"/>
  <object id="280" name="Ground B4_W" x="5504" y="3968"/>
  <object id="281" name="Ground B5_E" x="5696" y="3968"/>
  <object id="282" name="Ground B5_N" x="5888" y="3968"/>
  <object id="283" name="Ground B5_S" x="6080" y="3968"/>
  <object id="284" name="Ground B5_W" x="6272" y="3968"/>
  <object id="285" name="Ground B6_E" x="6464" y="3968"/>
  <object id="286" name="Ground B6_N" x="6656" y="3968"/>
  <object id="287" name="Ground B6_S" x="6848" y="3968"/>
  <object id="288" name="Ground B6_W" x="7040" y="3968"/>
  <object id="289" name="Ground C1_E" x="7232" y="3968"/>
  <object id="290" name="Ground C1_N" x="7424" y="3968"/>
  <object id="291" name="Ground C1_S" x="7616" y="3968"/>
  <object id="292" name="Ground C1_W" x="7808" y="3968"/>
  <object id="293" name="Ground C2_E" x="320" y="4160"/>
  <object id="294" name="Ground C2_N" x="512" y="4160"/>
  <object id="295" name="Ground C2_S" x="704" y="4160"/>
  <object id="296" name="Ground C2_W" x="896" y="4160"/>
  <object id="297" name="Ground C3_E" x="1088" y="4160"/>
  <object id="298" name="Ground C3_N" x="1280" y="4160"/>
  <object id="299" name="Ground C3_S" x="1472" y="4160"/>
  <object id="300" name="Ground C3_W" x="1664" y="4160"/>
  <object id="301" name="Ground C4_E" x="1856" y="4160"/>
  <object id="302" name="Ground C4_N" x="2048" y="4160"/>
  <object id="303" name="Ground C4_S" x="2240" y="4160"/>
  <object id="304" name="Ground C4_W" x="2432" y="4160"/>
  <object id="305" name="Ground C5_E" x="2624" y="4160"/>
  <object id="306" name="Ground C5_N" x="2816" y="4160"/>
  <object id="307" name="Ground C5_S" x="3008" y="4160"/>
  <object id="308" name="Ground C5_W" x="3200" y="4160"/>
  <object id="309" name="Ground C6_E" x="3392" y="4160"/>
  <object id="310" name="Ground C6_N" x="3584" y="4160"/>
  <object id="311" name="Ground C6_S" x="3776" y="4160"/>
  <object id="312" name="Ground C6_W" x="3968" y="4160"/>
  <object id="313" name="Ground D1_E" x="4160" y="4160"/>
  <object id="314" name="Ground D1_N" x="4352" y="4160"/>
  <object id="315" name="Ground D1_S" x="4544" y="4160"/>
  <object id="316" name="Ground D1_W" x="4736" y="4160"/>
  <object id="317" name="Ground D2_E" x="4928" y="4160"/>
  <object id="318" name="Ground D2_N" x="5120" y="4160"/>
  <object id="319" name="Ground D2_S" x="5312" y="4160"/>
  <object id="320" name="Ground D2_W" x="5504" y="4160"/>
  <object id="321" name="Ground D3_E" x="5696" y="4160"/>
  <object id="322" name="Ground D3_N" x="5888" y="4160"/>
  <object id="323" name="Ground D3_S" x="6080" y="4160"/>
  <object id="324" name="Ground D3_W" x="6272" y="4160"/>
  <object id="325" name="Ground D4_E" x="6464" y="4160"/>
  <object id="326" name="Ground D4_N" x="6656" y="4160"/>
  <object id="327" name="Ground D4_S" x="6848" y="4160"/>
  <object id="328" name="Ground D4_W" x="7040" y="4160"/>
  <object id="329" name="Ground E1_E" x="7232" y="4160"/>
  <object id="330" name="Ground E1_N" x="7424" y="4160"/>
  <object id="331" name="Ground E1_S" x="7616" y="4160"/>
  <object id="332" name="Ground E1_W" x="7808" y="4160"/>
  <object id="333" name="Ground E2_E" x="320" y="4352"/>
  <object id="334" name="Ground E2_N" x="512" y="4352"/>
  <object id="335" name="Ground E2_S" x="704" y="4352"/>
  <object id="336" name="Ground E2_W" x="896" y="4352"/>
  <object id="337" name="Ground E3_E" x="1088" y="4352"/>
  <object id="338" name="Ground E3_N" x="1280" y="4352"/>
  <object id="339" name="Ground E3_S" x="1472" y="4352"/>
  <object id="340" name="Ground E3_W" x="1664" y="4352"/>
  <object id="341" name="Ground E4_E" x="1856" y="4352"/>
  <object id="342" name="Ground E4_N" x="2048" y="4352"/>
  <object id="343" name="Ground E4_S" x="2240" y="4352"/>
  <object id="344" name="Ground E4_W" x="2432" y="4352"/>
  <object id="345" name="Ground E5_E" x="2624" y="4352"/>
  <object id="346" name="Ground E5_N" x="2816" y="4352"/>
  <object id="347" name="Ground E5_S" x="3008" y="4352"/>
  <object id="348" name="Ground E5_W" x="3200" y="4352"/>
  <object id="349" name="Ground E6_E" x="3392" y="4352"/>
  <object id="350" name="Ground E6_N" x="3584" y="4352"/>
  <object id="351" name="Ground E6_S" x="3776" y="4352"/>
  <object id="352" name="Ground E6_W" x="3968" y="4352"/>
  <object id="353" name="Ground E7_E" x="4160" y="4352"/>
  <object id="354" name="Ground E7_N" x="4352" y="4352"/>
  <object id="355" name="Ground E7_S" x="4544" y="4352"/>
  <object id="356" name="Ground E7_W" x="4736" y="4352"/>
  <object id="357" name="Ground E8_E" x="4928" y="4352"/>
  <object id="358" name="Ground E8_N" x="5120" y="4352"/>
  <object id="359" name="Ground E8_S" x="5312" y="4352"/>
  <object id="360" name="Ground E8_W" x="5504" y="4352"/>
  <object id="361" name="Ground E9_E" x="5696" y="4352"/>
  <object id="362" name="Ground E9_N" x="5888" y="4352"/>
  <object id="363" name="Ground E9_S" x="6080" y="4352"/>
  <object id="364" name="Ground E9_W" x="6272" y="4352"/>
  <object id="365" name="Ground E10_E" x="6464" y="4352"/>
  <object id="366" name="Ground E10_N" x="6656" y="4352"/>
  <object id="367" name="Ground E10_S" x="6848" y="4352"/>
  <object id="368" name="Ground E10_W" x="7040" y="4352"/>
  <object id="369" name="Ground E11_E" x="7232" y="4352"/>
  <object id="370" name="Ground E11_N" x="7424" y="4352"/>
  <object id="371" name="Ground E11_S" x="7616" y="4352"/>
  <object id="372" name="Ground E11_W" x="7808" y="4352"/>
  <object id="373" name="Ground E12_E" x="320" y="4544"/>
  <object id="374" name="Ground E12_N" x="512" y="4544"/>
  <object id="375" name="Ground E12_S" x="704" y="4544"/>
  <object id="376" name="Ground E12_W" x="896" y="4544"/>
  <object id="377" name="Ground E13_E" x="1088" y="4544"/>
  <object id="378" name="Ground E13_N" x="1280" y="4544"/>
  <object id="379" name="Ground E13_S" x="1472" y="4544"/>
  <object id="380" name="Ground E13_W" x="1664" y="4544"/>
  <object id="381" name="Ground E14_E" x="1856" y="4544"/>
  <object id="382" name="Ground E14_N" x="2048" y="4544"/>
  <object id="383" name="Ground E14_S" x="2240" y="4544"/>
  <object id="384" name="Ground E14_W" x="2432" y="4544"/>
  <object id="385" name="Ground E15_E" x="2624" y="4544"/>
  <object id="386" name="Ground E15_N" x="2816" y="4544"/>
  <object id="387" name="Ground E15_S" x="3008" y="4544"/>
  <object id="388" name="Ground E15_W" x="3200" y="4544"/>
  <object id="389" name="Ground F1_E" x="3392" y="4544"/>
  <object id="390" name="Ground F1_N" x="3584" y="4544"/>
  <object id="391" name="Ground F1_S" x="3776" y="4544"/>
  <object id="392" name="Ground F1_W" x="3968" y="4544"/>
  <object id="393" name="Ground F2_E" x="4160" y="4544"/>
  <object id="394" name="Ground F2_N" x="4352" y="4544"/>
  <object id="395" name="Ground F2_S" x="4544" y="4544"/>
  <object id="396" name="Ground F2_W" x="4736" y="4544"/>
  <object id="397" name="Ground F3_E" x="4928" y="4544"/>
  <object id="398" name="Ground F3_N" x="5120" y="4544"/>
  <object id="399" name="Ground F3_S" x="5312" y="4544"/>
  <object id="400" name="Ground F3_W" x="5504" y="4544"/>
  <object id="401" name="Ground F4_E" x="5696" y="4544"/>
  <object id="402" name="Ground F4_N" x="5888" y="4544"/>
  <object id="403" name="Ground F4_S" x="6080" y="4544"/>
  <object id="404" name="Ground F4_W" x="6272" y="4544"/>
  <object id="405" name="Ground F5_E" x="6464" y="4544"/>
  <object id="406" name="Ground F5_N" x="6656" y="4544"/>
  <object id="407" name="Ground F5_S" x="6848" y="4544"/>
  <object id="408" name="Ground F5_W" x="7040" y="4544"/>
  <object id="409" name="Ground F6_E" x="7232" y="4544"/>
  <object id="410" name="Ground F6_N" x="7424" y="4544"/>
  <object id="411" name="Ground F6_S" x="7616" y="4544"/>
  <object id="412" name="Ground F6_W" x="7808" y="4544"/>
  <object id="413" name="Ground G1_E" x="320" y="4736"/>
  <object id="414" name="Ground G1_N" x="512" y="4736"/>
  <object id="415" name="Ground G1_S" x="704" y="4736"/>
  <object id="416" name="Ground G1_W" x="896" y="4736"/>
  <object id="417" name="Ground G2_E" x="1088" y="4736"/>
  <object id="418" name="Ground G2_N" x="1280" y="4736"/>
  <object id="419" name="Ground G2_S" x="1472" y="4736"/>
  <object id="420" name="Ground G2_W" x="1664" y="4736"/>
  <object id="421" name="Ground G3_E" x="1856" y="4736"/>
  <object id="422" name="Ground G3_N" x="2048" y="4736"/>
  <object id="423" name="Ground G3_S" x="2240" y="4736"/>
  <object id="424" name="Ground G3_W" x="2432" y="4736"/>
  <object id="425" name="Ground G4_E" x="2624" y="4736"/>
  <object id="426" name="Ground G4_N" x="2816" y="4736"/>
  <object id="427" name="Ground G4_S" x="3008" y="4736"/>
  <object id="428" name="Ground G4_W" x="3200" y="4736"/>
  <object id="429" name="Ground G5_E" x="3392" y="4736"/>
  <object id="430" name="Ground G5_N" x="3584" y="4736"/>
  <object id="431" name="Ground G5_S" x="3776" y="4736"/>
  <object id="432" name="Ground G5_W" x="3968" y="4736"/>
  <object id="433" name="Ground G6_E" x="4160" y="4736"/>
  <object id="434" name="Ground G6_N" x="4352" y="4736"/>
  <object id="435" name="Ground G6_S" x="4544" y="4736"/>
  <object id="436" name="Ground G6_W" x="4736" y="4736"/>
  <object id="437" name="Ground G7_E" x="4928" y="4736"/>
  <object id="438" name="Ground G7_N" x="5120" y="4736"/>
  <object id="439" name="Ground G7_S" x="5312" y="4736"/>
  <object id="440" name="Ground G7_W" x="5504" y="4736"/>
  <object id="441" name="Ground G8_E" x="5696" y="4736"/>
  <object id="442" name="Ground G8_N" x="5888" y="4736"/>
  <object id="443" name="Ground G8_S" x="6080" y="4736"/>
  <object id="444" name="Ground G8_W" x="6272" y="4736"/>
  <object id="445" name="Ground G9_E" x="6464" y="4736"/>
  <object id="446" name="Ground G9_N" x="6656" y="4736"/>
  <object id="447" name="Ground G9_S" x="6848" y="4736"/>
  <object id="448" name="Ground G9_W" x="7040" y="4736"/>
  <object id="449" name="Ground G10_E" x="7232" y="4736"/>
  <object id="450" name="Ground G10_N" x="7424" y="4736"/>
  <object id="451" name="Ground G10_S" x="7616" y="4736"/>
  <object id="452" name="Ground G10_W" x="7808" y="4736"/>
  <object id="453" name="Ground G11_E" x="320" y="4928"/>
  <object id="454" name="Ground G11_N" x="512" y="4928"/>
  <object id="455" name="Ground G11_S" x="704" y="4928"/>
  <object id="456" name="Ground G11_W" x="896" y="4928"/>
  <object id="457" name="Ground G12_E" x="1088" y="4928"/>
  <object id="458" name="Ground G12_N" x="1280" y="4928"/>
  <object id="459" name="Ground G12_S" x="1472" y="4928"/>
  <object id="460" name="Ground G12_W" x="1664" y="4928"/>
  <object id="461" name="Ground G13_E" x="1856" y="4928"/>
  <object id="462" name="Ground G13_N" x="2048" y="4928"/>
  <object id="463" name="Ground G13_S" x="2240" y="4928"/>
  <object id="464" name="Ground G13_W" x="2432" y="4928"/>
  <object id="465" name="Ground G14_E" x="2624" y="4928"/>
  <object id="466" name="Ground G14_N" x="2816" y="4928"/>
  <object id="467" name="Ground G14_S" x="3008" y="4928"/>
  <object id="468" name="Ground G14_W" x="3200" y="4928"/>
  <object id="469" name="Ground G15_E" x="3392" y="4928"/>
  <object id="470" name="Ground G15_N" x="3584" y="4928"/>
  <object id="471" name="Ground G15_S" x="3776" y="4928"/>
  <object id="472" name="Ground G15_W" x="3968" y="4928"/>
  <object id="473" name="Ground G16_E" x="4160" y="4928"/>
  <object id="474" name="Ground G16_N" x="4352" y="4928"/>
  <object id="475" name="Ground G16_S" x="4544" y="4928"/>
  <object id="476" name="Ground G16_W" x="4736" y="4928"/>
  <object id="477" name="Ground G17_E" x="4928" y="4928"/>
  <object id="478" name="Ground G17_N" x="5120" y="4928"/>
  <object id="479" name="Ground G17_S" x="5312" y="4928"/>
  <object id="480" name="Ground G17_W" x="5504" y="4928"/>
  <object id="481" name="Ground G18_E" x="5696" y="4928"/>
  <object id="482" name="Ground G18_N" x="5888" y="4928"/>
  <object id="483" name="Ground G18_S" x="6080" y="4928"/>
  <object id="484" name="Ground G18_W" x="6272" y="4928"/>
  <object id="485" name="Ground G19_E" x="6464" y="4928"/>
  <object id="486" name="Ground G19_N" x="6656" y="4928"/>
  <object id="487" name="Ground G19_S" x="6848" y="4928"/>
  <object id="488" name="Ground G19_W" x="7040" y="4928"/>
  <object id="489" name="Ground G20_E" x="7232" y="4928"/>
  <object id="490" name="Ground G20_N" x="7424" y="4928"/>
  <object id="491" name="Ground G20_S" x="7616" y="4928"/>
  <object id="492" name="Ground G20_W" x="7808" y="4928"/>
  <object id="493" name="Ground G21_E" x="320" y="5120"/>
  <object id="494" name="Ground G21_N" x="512" y="5120"/>
  <object id="495" name="Ground G21_S" x="704" y="5120"/>
  <object id="496" name="Ground G21_W" x="896" y="5120"/>
  <object id="497" name="Ground G22_E" x="1088" y="5120"/>
  <object id="498" name="Ground G22_N" x="1280" y="5120"/>
  <object id="499" name="Ground G22_S" x="1472" y="5120"/>
  <object id="500" name="Ground G22_W" x="1664" y="5120"/>
  <object id="501" name="Ground H1_E" x="1856" y="5120"/>
  <object id="502" name="Ground H1_N" x="2048" y="5120"/>
  <object id="503" name="Ground H1_S" x="2240" y="5120"/>
  <object id="504" name="Ground H1_W" x="2432" y="5120"/>
  <object id="505" name="Ground H2_E" x="2624" y="5120"/>
  <object id="506" name="Ground H2_N" x="2816" y="5120"/>
  <object id="507" name="Ground H2_S" x="3008" y="5120"/>
  <object id="508" name="Ground H2_W" x="3200" y="5120"/>
  <object id="509" name="Ground H3_E" x="3392" y="5120"/>
  <object id="510" name="Ground H3_N" x="3584" y="5120"/>
  <object id="511" name="Ground H3_S" x="3776" y="5120"/>
  <object id="512" name="Ground H3_W" x="3968" y="5120"/>
  <object id="513" name="Ground H4_E" x="4160" y="5120"/>
  <object id="514" name="Ground H4_N" x="4352" y="5120"/>
  <object id="515" name="Ground H4_S" x="4544" y="5120"/>
  <object id="516" name="Ground H4_W" x="4736" y="5120"/>
  <object id="517" name="Ground H5_E" x="4928" y="5120"/>
  <object id="518" name="Ground H5_N" x="5120" y="5120"/>
  <object id="519" name="Ground H5_S" x="5312" y="5120"/>
  <object id="520" name="Ground H5_W" x="5504" y="5120"/>
  <object id="521" name="Ground H6_E" x="5696" y="5120"/>
  <object id="522" name="Ground H6_N" x="5888" y="5120"/>
  <object id="523" name="Ground H6_S" x="6080" y="5120"/>
  <object id="524" name="Ground H6_W" x="6272" y="5120"/>
  <object id="525" name="Ground H7_E" x="6464" y="5120"/>
  <object id="526" name="Ground H7_N" x="6656" y="5120"/>
  <object id="527" name="Ground H7_S" x="6848" y="5120"/>
  <object id="528" name="Ground H7_W" x="7040" y="5120"/>
  <object id="529" name="Ground H8_E" x="7232" y="5120"/>
  <object id="530" name="Ground H8_N" x="7424" y="5120"/>
  <object id="531" name="Ground H8_S" x="7616" y="5120"/>
  <object id="532" name="Ground H8_W" x="7808" y="5120"/>
  <object id="533" name="Ground H9_E" x="320" y="5312"/>
  <object id="534" name="Ground H9_N" x="512" y="5312"/>
  <object id="535" name="Ground H9_S" x="704" y="5312"/>
  <object id="536" name="Ground H9_W" x="896" y="5312"/>
  <object id="537" name="Ground H10_E" x="1088" y="5312"/>
  <object id="538" name="Ground H10_N" x="1280" y="5312"/>
  <object id="539" name="Ground H10_S" x="1472" y="5312"/>
  <object id="540" name="Ground H10_W" x="1664" y="5312"/>
  <object id="541" name="Ground H11_E" x="1856" y="5312"/>
  <object id="542" name="Ground H11_N" x="2048" y="5312"/>
  <object id="543" name="Ground H11_S" x="2240" y="5312"/>
  <object id="544" name="Ground H11_W" x="2432" y="5312"/>
  <object id="545" name="Ground I1_E" x="2624" y="5312"/>
  <object id="546" name="Ground I1_N" x="2816" y="5312"/>
  <object id="547" name="Ground I1_S" x="3008" y="5312"/>
  <object id="548" name="Ground I1_W" x="3200" y="5312"/>
  <object id="549" name="Ground I2_E" x="3392" y="5312"/>
  <object id="550" name="Ground I2_N" x="3584" y="5312"/>
  <object id="551" name="Ground I2_S" x="3776" y="5312"/>
  <object id="552" name="Ground I2_W" x="3968" y="5312"/>
  <object id="553" name="Ground I3_E" x="4160" y="5312"/>
  <object id="554" name="Ground I3_N" x="4352" y="5312"/>
  <object id="555" name="Ground I3_S" x="4544" y="5312"/>
  <object id="556" name="Ground I3_W" x="4736" y="5312"/>
  <object id="557" name="Ground I4_E" x="4928" y="5312"/>
  <object id="558" name="Ground I4_N" x="5120" y="5312"/>
  <object id="559" name="Ground I4_S" x="5312" y="5312"/>
  <object id="560" name="Ground I4_W" x="5504" y="5312"/>
  <object id="561" name="Ground I5_E" x="5696" y="5312"/>
  <object id="562" name="Ground I5_N" x="5888" y="5312"/>
  <object id="563" name="Ground I5_S" x="6080" y="5312"/>
  <object id="564" name="Ground I5_W" x="6272" y="5312"/>
  <object id="565" name="Ground I6_E" x="6464" y="5312"/>
  <object id="566" name="Ground I6_N" x="6656" y="5312"/>
  <object id="567" name="Ground I6_S" x="6848" y="5312"/>
  <object id="568" name="Ground I6_W" x="7040" y="5312"/>
  <object id="569" name="Ground I7_E" x="7232" y="5312"/>
  <object id="570" name="Ground I7_N" x="7424" y="5312"/>
  <object id="571" name="Ground I7_S" x="7616" y="5312"/>
  <object id="572" name="Ground I7_W" x="7808" y="5312"/>
  <object id="573" name="Ground I8_E" x="320" y="5504"/>
  <object id="574" name="Ground I8_N" x="512" y="5504"/>
  <object id="575" name="Ground I8_S" x="704" y="5504"/>
  <object id="576" name="Ground I8_W" x="896" y="5504"/>
  <object id="577" name="Ground I9_E" x="1088" y="5504"/>
  <object id="578" name="Ground I9_N" x="1280" y="5504"/>
  <object id="579" name="Ground I9_S" x="1472" y="5504"/>
  <object id="580" name="Ground I9_W" x="1664" y="5504"/>
  <object id="581" name="Ground I10_E" x="1856" y="5504"/>
  <object id="582" name="Ground I10_N" x="2048" y="5504"/>
  <object id="583" name="Ground I10_S" x="2240" y="5504"/>
  <object id="584" name="Ground I10_W" x="2432" y="5504"/>
  <object id="585" name="Ground J1_E" x="2624" y="5504"/>
  <object id="586" name="Ground J1_N" x="2816" y="5504"/>
  <object id="587" name="Ground J1_S" x="3008" y="5504"/>
  <object id="588" name="Ground J1_W" x="3200" y="5504"/>
  <object id="589" name="Ground J2_E" x="3392" y="5504"/>
  <object id="590" name="Ground J2_N" x="3584" y="5504"/>
  <object id="591" name="Ground J2_S" x="3776" y="5504"/>
  <object id="592" name="Ground J2_W" x="3968" y="5504"/>
  <object id="593" name="Ground J3_E" x="4160" y="5504"/>
  <object id="594" name="Ground J3_N" x="4352" y="5504"/>
  <object id="595" name="Ground J3_S" x="4544" y="5504"/>
  <object id="596" name="Ground J3_W" x="4736" y="5504"/>
  <object id="597" name="Ground J4_E" x="4928" y="5504"/>
  <object id="598" name="Ground J4_N" x="5120" y="5504"/>
  <object id="599" name="Ground J4_S" x="5312" y="5504"/>
  <object id="600" name="Ground J4_W" x="5504" y="5504"/>
  <object id="601" name="Ground J5_E" x="5696" y="5504"/>
  <object id="602" name="Ground J5_N" x="5888" y="5504"/>
  <object id="603" name="Ground J5_S" x="6080" y="5504"/>
  <object id="604" name="Ground J5_W" x="6272" y="5504"/>
  <object id="605" name="Ground J6_E" x="6464" y="5504"/>
  <object id="606" name="Ground J6_N" x="6656" y="5504"/>
  <object id="607" name="Ground J6_S" x="6848" y="5504"/>
  <object id="608" name="Ground J6_W" x="7040" y="5504"/>
  <object id="609" name="Ground J7_E" x="7232" y="5504"/>
  <object id="610" name="Ground J7_N" x="7424" y="5504"/>
  <object id="611" name="Ground J7_S" x="7616" y="5504"/>
  <object id="612" name="Ground J7_W" x="7808" y="5504"/>
  <object id="613" name="Ground J8_E" x="320" y="5696"/>
  <object id="614" name="Ground J8_N" x="512" y="5696"/>
  <object id="615" name="Ground J8_S" x="704" y="5696"/>
  <object id="616" name="Ground J8_W" x="896" y="5696"/>
  <object id="617" name="Ground J9_E" x="1088" y="5696"/>
  <object id="618" name="Ground J9_N" x="1280" y="5696"/>
  <object id="619" name="Ground J9_S" x="1472" y="5696"/>
  <object id="620" name="Ground J9_W" x="1664" y="5696"/>
  <object id="621" name="Ground J10_E" x="1856" y="5696"/>
  <object id="622" name="Ground J10_N" x="2048" y="5696"/>
  <object id="623" name="Ground J10_S" x="2240" y="5696"/>
  <object id="624" name="Ground J10_W" x="2432" y="5696"/>
  <object id="625" name="ENVIRONMENT / MISC" x="256" y="6016"/>
  <object id="626" name="Misc A1_E" x="320" y="6272"/>
  <object id="627" name="Misc A1_N" x="512" y="6272"/>
  <object id="628" name="Misc A1_S" x="704" y="6272"/>
  <object id="629" name="Misc A1_W" x="896" y="6272"/>
  <object id="630" name="Misc A2_E" x="1088" y="6272"/>
  <object id="631" name="Misc A2_N" x="1280" y="6272"/>
  <object id="632" name="Misc A2_S" x="1472" y="6272"/>
  <object id="633" name="Misc A2_W" x="1664" y="6272"/>
  <object id="634" name="Misc A3_E" x="1856" y="6272"/>
  <object id="635" name="Misc A3_N" x="2048" y="6272"/>
  <object id="636" name="Misc A3_S" x="2240" y="6272"/>
  <object id="637" name="Misc A3_W" x="2432" y="6272"/>
  <object id="638" name="Misc A4_E" x="2624" y="6272"/>
  <object id="639" name="Misc A4_N" x="2816" y="6272"/>
  <object id="640" name="Misc A4_S" x="3008" y="6272"/>
  <object id="641" name="Misc A4_W" x="3200" y="6272"/>
  <object id="642" name="Misc A5_E" x="3392" y="6272"/>
  <object id="643" name="Misc A5_N" x="3584" y="6272"/>
  <object id="644" name="Misc A5_S" x="3776" y="6272"/>
  <object id="645" name="Misc A5_W" x="3968" y="6272"/>
  <object id="646" name="Misc A6_E" x="4160" y="6272"/>
  <object id="647" name="Misc A6_N" x="4352" y="6272"/>
  <object id="648" name="Misc A6_S" x="4544" y="6272"/>
  <object id="649" name="Misc A6_W" x="4736" y="6272"/>
  <object id="650" name="Misc A7_E" x="4928" y="6272"/>
  <object id="651" name="Misc A7_N" x="5120" y="6272"/>
  <object id="652" name="Misc A7_S" x="5312" y="6272"/>
  <object id="653" name="Misc A7_W" x="5504" y="6272"/>
  <object id="654" name="Misc A8_E" x="5696" y="6272"/>
  <object id="655" name="Misc A8_N" x="5888" y="6272"/>
  <object id="656" name="Misc A8_S" x="6080" y="6272"/>
  <object id="657" name="Misc A8_W" x="6272" y="6272"/>
  <object id="658" name="Misc A9_E" x="6464" y="6272"/>
  <object id="659" name="Misc A9_N" x="6656" y="6272"/>
  <object id="660" name="Misc A9_S" x="6848" y="6272"/>
  <object id="661" name="Misc A9_W" x="7040" y="6272"/>
  <object id="662" name="Misc B1_E" x="7232" y="6272"/>
  <object id="663" name="Misc B1_N" x="7424" y="6272"/>
  <object id="664" name="Misc B1_S" x="7616" y="6272"/>
  <object id="665" name="Misc B1_W" x="7808" y="6272"/>
  <object id="666" name="Misc B2_E" x="320" y="6464"/>
  <object id="667" name="Misc B2_N" x="512" y="6464"/>
  <object id="668" name="Misc B2_S" x="704" y="6464"/>
  <object id="669" name="Misc B2_W" x="896" y="6464"/>
  <object id="670" name="Misc B3_E" x="1088" y="6464"/>
  <object id="671" name="Misc B3_N" x="1280" y="6464"/>
  <object id="672" name="Misc B3_S" x="1472" y="6464"/>
  <object id="673" name="Misc B3_W" x="1664" y="6464"/>
  <object id="674" name="Misc B5_E" x="1856" y="6464"/>
  <object id="675" name="Misc B5_N" x="2048" y="6464"/>
  <object id="676" name="Misc B5_S" x="2240" y="6464"/>
  <object id="677" name="Misc B5_W" x="2432" y="6464"/>
  <object id="678" name="Misc B6_E" x="2624" y="6464"/>
  <object id="679" name="Misc B6_N" x="2816" y="6464"/>
  <object id="680" name="Misc B6_S" x="3008" y="6464"/>
  <object id="681" name="Misc B6_W" x="3200" y="6464"/>
  <object id="682" name="Misc B7_E" x="3392" y="6464"/>
  <object id="683" name="Misc B7_N" x="3584" y="6464"/>
  <object id="684" name="Misc B7_S" x="3776" y="6464"/>
  <object id="685" name="Misc B7_W" x="3968" y="6464"/>
  <object id="686" name="Misc B8_E" x="4160" y="6464"/>
  <object id="687" name="Misc B8_N" x="4352" y="6464"/>
  <object id="688" name="Misc B8_S" x="4544" y="6464"/>
  <object id="689" name="Misc B8_W" x="4736" y="6464"/>
  <object id="690" name="Misc B9_E" x="4928" y="6464"/>
  <object id="691" name="Misc B9_N" x="5120" y="6464"/>
  <object id="692" name="Misc B9_S" x="5312" y="6464"/>
  <object id="693" name="Misc B9_W" x="5504" y="6464"/>
  <object id="694" name="Misc B10_E" x="5696" y="6464"/>
  <object id="695" name="Misc B10_N" x="5888" y="6464"/>
  <object id="696" name="Misc B10_S" x="6080" y="6464"/>
  <object id="697" name="Misc B10_W" x="6272" y="6464"/>
  <object id="698" name="Misc B11_E" x="6464" y="6464"/>
  <object id="699" name="Misc B11_N" x="6656" y="6464"/>
  <object id="700" name="Misc B11_S" x="6848" y="6464"/>
  <object id="701" name="Misc B11_W" x="7040" y="6464"/>
  <object id="702" name="Misc B12_E" x="7232" y="6464"/>
  <object id="703" name="Misc B12_N" x="7424" y="6464"/>
  <object id="704" name="Misc B12_S" x="7616" y="6464"/>
  <object id="705" name="Misc B12_W" x="7808" y="6464"/>
  <object id="706" name="Misc B13_E" x="320" y="6656"/>
  <object id="707" name="Misc B13_N" x="512" y="6656"/>
  <object id="708" name="Misc B13_S" x="704" y="6656"/>
  <object id="709" name="Misc B13_W" x="896" y="6656"/>
  <object id="710" name="Misc B14_E" x="1088" y="6656"/>
  <object id="711" name="Misc B14_N" x="1280" y="6656"/>
  <object id="712" name="Misc B14_S" x="1472" y="6656"/>
  <object id="713" name="Misc B14_W" x="1664" y="6656"/>
  <object id="714" name="Misc B15_E" x="1856" y="6656"/>
  <object id="715" name="Misc B15_N" x="2048" y="6656"/>
  <object id="716" name="Misc B15_S" x="2240" y="6656"/>
  <object id="717" name="Misc B15_W" x="2432" y="6656"/>
  <object id="718" name="Misc B16_E" x="2624" y="6656"/>
  <object id="719" name="Misc B16_N" x="2816" y="6656"/>
  <object id="720" name="Misc B16_S" x="3008" y="6656"/>
  <object id="721" name="Misc B16_W" x="3200" y="6656"/>
  <object id="722" name="Misc B17_E" x="3392" y="6656"/>
  <object id="723" name="Misc B17_N" x="3584" y="6656"/>
  <object id="724" name="Misc B17_S" x="3776" y="6656"/>
  <object id="725" name="Misc B17_W" x="3968" y="6656"/>
  <object id="726" name="Misc B18_E" x="4160" y="6656"/>
  <object id="727" name="Misc B18_N" x="4352" y="6656"/>
  <object id="728" name="Misc B18_S" x="4544" y="6656"/>
  <object id="729" name="Misc B18_W" x="4736" y="6656"/>
  <object id="730" name="Misc B19_E" x="4928" y="6656"/>
  <object id="731" name="Misc B19_N" x="5120" y="6656"/>
  <object id="732" name="Misc B19_S" x="5312" y="6656"/>
  <object id="733" name="Misc B19_W" x="5504" y="6656"/>
  <object id="734" name="Misc B20_E" x="5696" y="6656"/>
  <object id="735" name="Misc B20_N" x="5888" y="6656"/>
  <object id="736" name="Misc B20_S" x="6080" y="6656"/>
  <object id="737" name="Misc B20_W" x="6272" y="6656"/>
  <object id="738" name="Misc B21_E" x="6464" y="6656"/>
  <object id="739" name="Misc B21_N" x="6656" y="6656"/>
  <object id="740" name="Misc B21_S" x="6848" y="6656"/>
  <object id="741" name="Misc B21_W" x="7040" y="6656"/>
  <object id="742" name="Misc B22_E" x="7232" y="6656"/>
  <object id="743" name="Misc B22_N" x="7424" y="6656"/>
  <object id="744" name="Misc B22_S" x="7616" y="6656"/>
  <object id="745" name="Misc B22_W" x="7808" y="6656"/>
  <object id="746" name="Misc B23_E" x="320" y="6848"/>
  <object id="747" name="Misc B23_N" x="512" y="6848"/>
  <object id="748" name="Misc B23_S" x="704" y="6848"/>
  <object id="749" name="Misc B23_W" x="896" y="6848"/>
  <object id="750" name="Misc B24_E" x="1088" y="6848"/>
  <object id="751" name="Misc B24_N" x="1280" y="6848"/>
  <object id="752" name="Misc B24_S" x="1472" y="6848"/>
  <object id="753" name="Misc B24_W" x="1664" y="6848"/>
  <object id="754" name="Misc B25_E" x="1856" y="6848"/>
  <object id="755" name="Misc B25_N" x="2048" y="6848"/>
  <object id="756" name="Misc B25_S" x="2240" y="6848"/>
  <object id="757" name="Misc B25_W" x="2432" y="6848"/>
  <object id="758" name="Misc B26_E" x="2624" y="6848"/>
  <object id="759" name="Misc B26_N" x="2816" y="6848"/>
  <object id="760" name="Misc B26_S" x="3008" y="6848"/>
  <object id="761" name="Misc B26_W" x="3200" y="6848"/>
  <object id="762" name="Misc B27_E" x="3392" y="6848"/>
  <object id="763" name="Misc B27_N" x="3584" y="6848"/>
  <object id="764" name="Misc B27_S" x="3776" y="6848"/>
  <object id="765" name="Misc B27_W" x="3968" y="6848"/>
  <object id="766" name="Misc B28_E" x="4160" y="6848"/>
  <object id="767" name="Misc B28_N" x="4352" y="6848"/>
  <object id="768" name="Misc B28_S" x="4544" y="6848"/>
  <object id="769" name="Misc B28_W" x="4736" y="6848"/>
  <object id="770" name="Misc B29_E" x="4928" y="6848"/>
  <object id="771" name="Misc B29_N" x="5120" y="6848"/>
  <object id="772" name="Misc B29_S" x="5312" y="6848"/>
  <object id="773" name="Misc B29_W" x="5504" y="6848"/>
  <object id="774" name="Misc B30_E" x="5696" y="6848"/>
  <object id="775" name="Misc B30_N" x="5888" y="6848"/>
  <object id="776" name="Misc B30_S" x="6080" y="6848"/>
  <object id="777" name="Misc B30_W" x="6272" y="6848"/>
  <object id="778" name="Misc B31_E" x="6464" y="6848"/>
  <object id="779" name="Misc B31_N" x="6656" y="6848"/>
  <object id="780" name="Misc B31_S" x="6848" y="6848"/>
  <object id="781" name="Misc B31_W" x="7040" y="6848"/>
  <object id="782" name="Misc B32_E" x="7232" y="6848"/>
  <object id="783" name="Misc B32_N" x="7424" y="6848"/>
  <object id="784" name="Misc B32_S" x="7616" y="6848"/>
  <object id="785" name="Misc B32_W" x="7808" y="6848"/>
  <object id="786" name="Misc B33_E" x="320" y="7040"/>
  <object id="787" name="Misc B33_N" x="512" y="7040"/>
  <object id="788" name="Misc B33_S" x="704" y="7040"/>
  <object id="789" name="Misc B33_W" x="896" y="7040"/>
  <object id="790" name="Misc B34_E" x="1088" y="7040"/>
  <object id="791" name="Misc B34_N" x="1280" y="7040"/>
  <object id="792" name="Misc B34_S" x="1472" y="7040"/>
  <object id="793" name="Misc B34_W" x="1664" y="7040"/>
  <object id="794" name="Misc B35_E" x="1856" y="7040"/>
  <object id="795" name="Misc B35_N" x="2048" y="7040"/>
  <object id="796" name="Misc B35_S" x="2240" y="7040"/>
  <object id="797" name="Misc B35_W" x="2432" y="7040"/>
  <object id="798" name="Misc B36_E" x="2624" y="7040"/>
  <object id="799" name="Misc B36_N" x="2816" y="7040"/>
  <object id="800" name="Misc B36_S" x="3008" y="7040"/>
  <object id="801" name="Misc B36_W" x="3200" y="7040"/>
  <object id="802" name="Misc B37_E" x="3392" y="7040"/>
  <object id="803" name="Misc B37_N" x="3584" y="7040"/>
  <object id="804" name="Misc B37_S" x="3776" y="7040"/>
  <object id="805" name="Misc B37_W" x="3968" y="7040"/>
  <object id="806" name="Misc B38_E" x="4160" y="7040"/>
  <object id="807" name="Misc B38_N" x="4352" y="7040"/>
  <object id="808" name="Misc B38_S" x="4544" y="7040"/>
  <object id="809" name="Misc B38_W" x="4736" y="7040"/>
  <object id="810" name="Misc B39_E" x="4928" y="7040"/>
  <object id="811" name="Misc B39_N" x="5120" y="7040"/>
  <object id="812" name="Misc B39_S" x="5312" y="7040"/>
  <object id="813" name="Misc B39_W" x="5504" y="7040"/>
  <object id="814" name="Misc B40_E" x="5696" y="7040"/>
  <object id="815" name="Misc B40_N" x="5888" y="7040"/>
  <object id="816" name="Misc B40_S" x="6080" y="7040"/>
  <object id="817" name="Misc B40_W" x="6272" y="7040"/>
  <object id="818" name="Misc B41_E" x="6464" y="7040"/>
  <object id="819" name="Misc B41_N" x="6656" y="7040"/>
  <object id="820" name="Misc B41_S" x="6848" y="7040"/>
  <object id="821" name="Misc B41_W" x="7040" y="7040"/>
  <object id="822" name="Misc B42_E" x="7232" y="7040"/>
  <object id="823" name="Misc B42_N" x="7424" y="7040"/>
  <object id="824" name="Misc B42_S" x="7616" y="7040"/>
  <object id="825" name="Misc B42_W" x="7808" y="7040"/>
  <object id="826" name="Misc B43_E" x="320" y="7232"/>
  <object id="827" name="Misc B43_N" x="512" y="7232"/>
  <object id="828" name="Misc B43_S" x="704" y="7232"/>
  <object id="829" name="Misc B43_W" x="896" y="7232"/>
  <object id="830" name="Misc B44_E" x="1088" y="7232"/>
  <object id="831" name="Misc B44_N" x="1280" y="7232"/>
  <object id="832" name="Misc B44_S" x="1472" y="7232"/>
  <object id="833" name="Misc B44_W" x="1664" y="7232"/>
  <object id="834" name="Misc B45_E" x="1856" y="7232"/>
  <object id="835" name="Misc B45_N" x="2048" y="7232"/>
  <object id="836" name="Misc B45_S" x="2240" y="7232"/>
  <object id="837" name="Misc B45_W" x="2432" y="7232"/>
  <object id="838" name="Misc B46_E" x="2624" y="7232"/>
  <object id="839" name="Misc B46_N" x="2816" y="7232"/>
  <object id="840" name="Misc B46_S" x="3008" y="7232"/>
  <object id="841" name="Misc B46_W" x="3200" y="7232"/>
  <object id="842" name="Misc B47_E" x="3392" y="7232"/>
  <object id="843" name="Misc B47_N" x="3584" y="7232"/>
  <object id="844" name="Misc B47_S" x="3776" y="7232"/>
  <object id="845" name="Misc B47_W" x="3968" y="7232"/>
  <object id="846" name="Misc B48_E" x="4160" y="7232"/>
  <object id="847" name="Misc B48_N" x="4352" y="7232"/>
  <object id="848" name="Misc B48_S" x="4544" y="7232"/>
  <object id="849" name="Misc B48_W" x="4736" y="7232"/>
  <object id="850" name="Misc B49_E" x="4928" y="7232"/>
  <object id="851" name="Misc B49_N" x="5120" y="7232"/>
  <object id="852" name="Misc B49_S" x="5312" y="7232"/>
  <object id="853" name="Misc B49_W" x="5504" y="7232"/>
  <object id="854" name="Misc B50_E" x="5696" y="7232"/>
  <object id="855" name="Misc B50_N" x="5888" y="7232"/>
  <object id="856" name="Misc B50_S" x="6080" y="7232"/>
  <object id="857" name="Misc B50_W" x="6272" y="7232"/>
  <object id="858" name="Misc B51_E" x="6464" y="7232"/>
  <object id="859" name="Misc B51_N" x="6656" y="7232"/>
  <object id="860" name="Misc B51_S" x="6848" y="7232"/>
  <object id="861" name="Misc B51_W" x="7040" y="7232"/>
  <object id="862" name="Misc B52_E" x="7232" y="7232"/>
  <object id="863" name="Misc B52_N" x="7424" y="7232"/>
  <object id="864" name="Misc B52_S" x="7616" y="7232"/>
  <object id="865" name="Misc B52_W" x="7808" y="7232"/>
  <object id="866" name="Misc B53_E" x="320" y="7424"/>
  <object id="867" name="Misc B53_N" x="512" y="7424"/>
  <object id="868" name="Misc B53_S" x="704" y="7424"/>
  <object id="869" name="Misc B53_W" x="896" y="7424"/>
  <object id="870" name="Misc B54_E" x="1088" y="7424"/>
  <object id="871" name="Misc B54_N" x="1280" y="7424"/>
  <object id="872" name="Misc B54_S" x="1472" y="7424"/>
  <object id="873" name="Misc B54_W" x="1664" y="7424"/>
  <object id="874" name="Misc B55_E" x="1856" y="7424"/>
  <object id="875" name="Misc B55_N" x="2048" y="7424"/>
  <object id="876" name="Misc B55_S" x="2240" y="7424"/>
  <object id="877" name="Misc B55_W" x="2432" y="7424"/>
  <object id="878" name="Misc B56_E" x="2624" y="7424"/>
  <object id="879" name="Misc B56_N" x="2816" y="7424"/>
  <object id="880" name="Misc B56_S" x="3008" y="7424"/>
  <object id="881" name="Misc B56_W" x="3200" y="7424"/>
  <object id="882" name="Misc B57_E" x="3392" y="7424"/>
  <object id="883" name="Misc B57_N" x="3584" y="7424"/>
  <object id="884" name="Misc B57_S" x="3776" y="7424"/>
  <object id="885" name="Misc B57_W" x="3968" y="7424"/>
  <object id="886" name="Misc B58_E" x="4160" y="7424"/>
  <object id="887" name="Misc B58_N" x="4352" y="7424"/>
  <object id="888" name="Misc B58_S" x="4544" y="7424"/>
  <object id="889" name="Misc B58_W" x="4736" y="7424"/>
  <object id="890" name="Misc B59_E" x="4928" y="7424"/>
  <object id="891" name="Misc B59_N" x="5120" y="7424"/>
  <object id="892" name="Misc B59_S" x="5312" y="7424"/>
  <object id="893" name="Misc B59_W" x="5504" y="7424"/>
  <object id="894" name="Misc B60_E" x="5696" y="7424"/>
  <object id="895" name="Misc B60_N" x="5888" y="7424"/>
  <object id="896" name="Misc B60_S" x="6080" y="7424"/>
  <object id="897" name="Misc B60_W" x="6272" y="7424"/>
  <object id="898" name="Misc B61_E" x="6464" y="7424"/>
  <object id="899" name="Misc B61_N" x="6656" y="7424"/>
  <object id="900" name="Misc B61_S" x="6848" y="7424"/>
  <object id="901" name="Misc B61_W" x="7040" y="7424"/>
  <object id="902" name="Misc C1_E" x="7232" y="7424"/>
  <object id="903" name="Misc C1_N" x="7424" y="7424"/>
  <object id="904" name="Misc C1_S" x="7616" y="7424"/>
  <object id="905" name="Misc C1_W" x="7808" y="7424"/>
  <object id="906" name="Misc C2_E" x="320" y="7616"/>
  <object id="907" name="Misc C2_N" x="512" y="7616"/>
  <object id="908" name="Misc C2_S" x="704" y="7616"/>
  <object id="909" name="Misc C2_W" x="896" y="7616"/>
  <object id="910" name="Misc C3_E" x="1088" y="7616"/>
  <object id="911" name="Misc C3_N" x="1280" y="7616"/>
  <object id="912" name="Misc C3_S" x="1472" y="7616"/>
  <object id="913" name="Misc C3_W" x="1664" y="7616"/>
  <object id="914" name="Misc C4_E" x="1856" y="7616"/>
  <object id="915" name="Misc C4_N" x="2048" y="7616"/>
  <object id="916" name="Misc C4_S" x="2240" y="7616"/>
  <object id="917" name="Misc C4_W" x="2432" y="7616"/>
  <object id="918" name="Misc C5_E" x="2624" y="7616"/>
  <object id="919" name="Misc C5_N" x="2816" y="7616"/>
  <object id="920" name="Misc C5_S" x="3008" y="7616"/>
  <object id="921" name="Misc C5_W" x="3200" y="7616"/>
  <object id="922" name="Misc C6_E" x="3392" y="7616"/>
  <object id="923" name="Misc C6_N" x="3584" y="7616"/>
  <object id="924" name="Misc C6_S" x="3776" y="7616"/>
  <object id="925" name="Misc C6_W" x="3968" y="7616"/>
  <object id="926" name="Misc C7_E" x="4160" y="7616"/>
  <object id="927" name="Misc C7_N" x="4352" y="7616"/>
  <object id="928" name="Misc C7_S" x="4544" y="7616"/>
  <object id="929" name="Misc C7_W" x="4736" y="7616"/>
  <object id="930" name="Misc C8_E" x="4928" y="7616"/>
  <object id="931" name="Misc C8_N" x="5120" y="7616"/>
  <object id="932" name="Misc C8_S" x="5312" y="7616"/>
  <object id="933" name="Misc C8_W" x="5504" y="7616"/>
  <object id="934" name="Misc C9_E" x="5696" y="7616"/>
  <object id="935" name="Misc C9_N" x="5888" y="7616"/>
  <object id="936" name="Misc C9_S" x="6080" y="7616"/>
  <object id="937" name="Misc C9_W" x="6272" y="7616"/>
  <object id="938" name="Misc C10_E" x="6464" y="7616"/>
  <object id="939" name="Misc C10_N" x="6656" y="7616"/>
  <object id="940" name="Misc C10_S" x="6848" y="7616"/>
  <object id="941" name="Misc C10_W" x="7040" y="7616"/>
  <object id="942" name="Misc C11_E" x="7232" y="7616"/>
  <object id="943" name="Misc C11_N" x="7424" y="7616"/>
  <object id="944" name="Misc C11_S" x="7616" y="7616"/>
  <object id="945" name="Misc C11_W" x="7808" y="7616"/>
  <object id="946" name="Misc C12_E" x="320" y="7808"/>
  <object id="947" name="Misc C12_N" x="512" y="7808"/>
  <object id="948" name="Misc C12_S" x="704" y="7808"/>
  <object id="949" name="Misc C12_W" x="896" y="7808"/>
  <object id="950" name="Misc C13_E" x="1088" y="7808"/>
  <object id="951" name="Misc C13_N" x="1280" y="7808"/>
  <object id="952" name="Misc C13_S" x="1472" y="7808"/>
  <object id="953" name="Misc C13_W" x="1664" y="7808"/>
  <object id="954" name="Misc C14_E" x="1856" y="7808"/>
  <object id="955" name="Misc C14_N" x="2048" y="7808"/>
  <object id="956" name="Misc C14_S" x="2240" y="7808"/>
  <object id="957" name="Misc C14_W" x="2432" y="7808"/>
  <object id="958" name="Misc D1_E" x="2624" y="7808"/>
  <object id="959" name="Misc D1_N" x="2816" y="7808"/>
  <object id="960" name="Misc D1_S" x="3008" y="7808"/>
  <object id="961" name="Misc D1_W" x="3200" y="7808"/>
  <object id="962" name="Misc D2_E" x="3392" y="7808"/>
  <object id="963" name="Misc D2_N" x="3584" y="7808"/>
  <object id="964" name="Misc D2_S" x="3776" y="7808"/>
  <object id="965" name="Misc D2_W" x="3968" y="7808"/>
  <object id="966" name="Misc D3_E" x="4160" y="7808"/>
  <object id="967" name="Misc D3_N" x="4352" y="7808"/>
  <object id="968" name="Misc D3_S" x="4544" y="7808"/>
  <object id="969" name="Misc D3_W" x="4736" y="7808"/>
  <object id="970" name="Misc D4_E" x="4928" y="7808"/>
  <object id="971" name="Misc D4_N" x="5120" y="7808"/>
  <object id="972" name="Misc D4_S" x="5312" y="7808"/>
  <object id="973" name="Misc D4_W" x="5504" y="7808"/>
  <object id="974" name="Misc D5_E" x="5696" y="7808"/>
  <object id="975" name="Misc D5_N" x="5888" y="7808"/>
  <object id="976" name="Misc D5_S" x="6080" y="7808"/>
  <object id="977" name="Misc D5_W" x="6272" y="7808"/>
  <object id="978" name="Misc E1_E" x="6464" y="7808"/>
  <object id="979" name="Misc E1_N" x="6656" y="7808"/>
  <object id="980" name="Misc E1_S" x="6848" y="7808"/>
  <object id="981" name="Misc E1_W" x="7040" y="7808"/>
  <object id="982" name="Misc E2_E" x="7232" y="7808"/>
  <object id="983" name="Misc E2_N" x="7424" y="7808"/>
  <object id="984" name="Misc E2_S" x="7616" y="7808"/>
  <object id="985" name="Misc E2_W" x="7808" y="7808"/>
  <object id="986" name="Misc E3_E" x="320" y="8000"/>
  <object id="987" name="Misc E3_N" x="512" y="8000"/>
  <object id="988" name="Misc E3_S" x="704" y="8000"/>
  <object id="989" name="Misc E3_W" x="896" y="8000"/>
  <object id="990" name="Misc E4_E" x="1088" y="8000"/>
  <object id="991" name="Misc E4_N" x="1280" y="8000"/>
  <object id="992" name="Misc E4_S" x="1472" y="8000"/>
  <object id="993" name="Misc E4_W" x="1664" y="8000"/>
  <object id="994" name="Misc E5_E" x="1856" y="8000"/>
  <object id="995" name="Misc E5_N" x="2048" y="8000"/>
  <object id="996" name="Misc E5_S" x="2240" y="8000"/>
  <object id="997" name="Misc E5_W" x="2432" y="8000"/>
  <object id="998" name="Misc E6_E" x="2624" y="8000"/>
  <object id="999" name="Misc E6_N" x="2816" y="8000"/>
  <object id="1000" name="Misc E6_S" x="3008" y="8000"/>
  <object id="1001" name="Misc E6_W" x="3200" y="8000"/>
  <object id="1002" name="Misc E7_E" x="3392" y="8000"/>
  <object id="1003" name="Misc E7_N" x="3584" y="8000"/>
  <object id="1004" name="Misc E7_S" x="3776" y="8000"/>
  <object id="1005" name="Misc E7_W" x="3968" y="8000"/>
  <object id="1006" name="Misc E8_E" x="4160" y="8000"/>
  <object id="1007" name="Misc E8_N" x="4352" y="8000"/>
  <object id="1008" name="Misc E8_S" x="4544" y="8000"/>
  <object id="1009" name="Misc E8_W" x="4736" y="8000"/>
  <object id="1010" name="Misc E9_E" x="4928" y="8000"/>
  <object id="1011" name="Misc E9_N" x="5120" y="8000"/>
  <object id="1012" name="Misc E9_S" x="5312" y="8000"/>
  <object id="1013" name="Misc E9_W" x="5504" y="8000"/>
  <object id="1014" name="Misc E10_E" x="5696" y="8000"/>
  <object id="1015" name="Misc E10_N" x="5888" y="8000"/>
  <object id="1016" name="Misc E10_S" x="6080" y="8000"/>
  <object id="1017" name="Misc E10_W" x="6272" y="8000"/>
  <object id="1018" name="Misc E11_E" x="6464" y="8000"/>
  <object id="1019" name="Misc E11_N" x="6656" y="8000"/>
  <object id="1020" name="Misc E11_S" x="6848" y="8000"/>
  <object id="1021" name="Misc E11_W" x="7040" y="8000"/>
  <object id="1022" name="ENVIRONMENT / ROOF" x="256" y="8320"/>
  <object id="1023" name="Roof A1_E" x="320" y="8576"/>
  <object id="1024" name="Roof A1_N" x="512" y="8576"/>
  <object id="1025" name="Roof A1_S" x="704" y="8576"/>
  <object id="1026" name="Roof A1_W" x="896" y="8576"/>
  <object id="1027" name="Roof A2_E" x="1088" y="8576"/>
  <object id="1028" name="Roof A2_N" x="1280" y="8576"/>
  <object id="1029" name="Roof A2_S" x="1472" y="8576"/>
  <object id="1030" name="Roof A2_W" x="1664" y="8576"/>
  <object id="1031" name="Roof A3_E" x="1856" y="8576"/>
  <object id="1032" name="Roof A3_N" x="2048" y="8576"/>
  <object id="1033" name="Roof A3_S" x="2240" y="8576"/>
  <object id="1034" name="Roof A3_W" x="2432" y="8576"/>
  <object id="1035" name="Roof A4_E" x="2624" y="8576"/>
  <object id="1036" name="Roof A4_N" x="2816" y="8576"/>
  <object id="1037" name="Roof A4_S" x="3008" y="8576"/>
  <object id="1038" name="Roof A4_W" x="3200" y="8576"/>
  <object id="1039" name="Roof A5_E" x="3392" y="8576"/>
  <object id="1040" name="Roof A5_N" x="3584" y="8576"/>
  <object id="1041" name="Roof A5_S" x="3776" y="8576"/>
  <object id="1042" name="Roof A5_W" x="3968" y="8576"/>
  <object id="1043" name="Roof A6_E" x="4160" y="8576"/>
  <object id="1044" name="Roof A6_N" x="4352" y="8576"/>
  <object id="1045" name="Roof A6_S" x="4544" y="8576"/>
  <object id="1046" name="Roof A6_W" x="4736" y="8576"/>
  <object id="1047" name="Roof A7_E" x="4928" y="8576"/>
  <object id="1048" name="Roof A7_N" x="5120" y="8576"/>
  <object id="1049" name="Roof A7_S" x="5312" y="8576"/>
  <object id="1050" name="Roof A7_W" x="5504" y="8576"/>
  <object id="1051" name="Roof A8_E" x="5696" y="8576"/>
  <object id="1052" name="Roof A8_N" x="5888" y="8576"/>
  <object id="1053" name="Roof A8_S" x="6080" y="8576"/>
  <object id="1054" name="Roof A8_W" x="6272" y="8576"/>
  <object id="1055" name="Roof A9_E" x="6464" y="8576"/>
  <object id="1056" name="Roof A9_N" x="6656" y="8576"/>
  <object id="1057" name="Roof A9_S" x="6848" y="8576"/>
  <object id="1058" name="Roof A9_W" x="7040" y="8576"/>
  <object id="1059" name="Roof A10_E" x="7232" y="8576"/>
  <object id="1060" name="Roof A10_N" x="7424" y="8576"/>
  <object id="1061" name="Roof A10_S" x="7616" y="8576"/>
  <object id="1062" name="Roof A10_W" x="7808" y="8576"/>
  <object id="1063" name="Roof B1_E" x="320" y="8768"/>
  <object id="1064" name="Roof B1_N" x="512" y="8768"/>
  <object id="1065" name="Roof B1_S" x="704" y="8768"/>
  <object id="1066" name="Roof B1_W" x="896" y="8768"/>
  <object id="1067" name="Roof B2_E" x="1088" y="8768"/>
  <object id="1068" name="Roof B2_N" x="1280" y="8768"/>
  <object id="1069" name="Roof B2_S" x="1472" y="8768"/>
  <object id="1070" name="Roof B2_W" x="1664" y="8768"/>
  <object id="1071" name="Roof B3_E" x="1856" y="8768"/>
  <object id="1072" name="Roof B3_N" x="2048" y="8768"/>
  <object id="1073" name="Roof B3_S" x="2240" y="8768"/>
  <object id="1074" name="Roof B3_W" x="2432" y="8768"/>
  <object id="1075" name="Roof B4_E" x="2624" y="8768"/>
  <object id="1076" name="Roof B4_N" x="2816" y="8768"/>
  <object id="1077" name="Roof B4_S" x="3008" y="8768"/>
  <object id="1078" name="Roof B4_W" x="3200" y="8768"/>
  <object id="1079" name="Roof B5_E" x="3392" y="8768"/>
  <object id="1080" name="Roof B5_N" x="3584" y="8768"/>
  <object id="1081" name="Roof B5_S" x="3776" y="8768"/>
  <object id="1082" name="Roof B5_W" x="3968" y="8768"/>
  <object id="1083" name="Roof B6_E" x="4160" y="8768"/>
  <object id="1084" name="Roof B6_N" x="4352" y="8768"/>
  <object id="1085" name="Roof B6_S" x="4544" y="8768"/>
  <object id="1086" name="Roof B6_W" x="4736" y="8768"/>
  <object id="1087" name="Roof C1_E" x="4928" y="8768"/>
  <object id="1088" name="Roof C1_N" x="5120" y="8768"/>
  <object id="1089" name="Roof C1_S" x="5312" y="8768"/>
  <object id="1090" name="Roof C1_W" x="5504" y="8768"/>
  <object id="1091" name="Roof C2_E" x="5696" y="8768"/>
  <object id="1092" name="Roof C2_N" x="5888" y="8768"/>
  <object id="1093" name="Roof C2_S" x="6080" y="8768"/>
  <object id="1094" name="Roof C2_W" x="6272" y="8768"/>
  <object id="1095" name="Roof C3_E" x="6464" y="8768"/>
  <object id="1096" name="Roof C3_N" x="6656" y="8768"/>
  <object id="1097" name="Roof C3_S" x="6848" y="8768"/>
  <object id="1098" name="Roof C3_W" x="7040" y="8768"/>
  <object id="1099" name="Roof C4_E" x="7232" y="8768"/>
  <object id="1100" name="Roof C4_N" x="7424" y="8768"/>
  <object id="1101" name="Roof C4_S" x="7616" y="8768"/>
  <object id="1102" name="Roof C4_W" x="7808" y="8768"/>
  <object id="1103" name="Roof C5_E" x="320" y="8960"/>
  <object id="1104" name="Roof C5_N" x="512" y="8960"/>
  <object id="1105" name="Roof C5_S" x="704" y="8960"/>
  <object id="1106" name="Roof C5_W" x="896" y="8960"/>
  <object id="1107" name="Roof C6_E" x="1088" y="8960"/>
  <object id="1108" name="Roof C6_N" x="1280" y="8960"/>
  <object id="1109" name="Roof C6_S" x="1472" y="8960"/>
  <object id="1110" name="Roof C6_W" x="1664" y="8960"/>
  <object id="1111" name="Roof C7_E" x="1856" y="8960"/>
  <object id="1112" name="Roof C7_N" x="2048" y="8960"/>
  <object id="1113" name="Roof C7_S" x="2240" y="8960"/>
  <object id="1114" name="Roof C7_W" x="2432" y="8960"/>
  <object id="1115" name="Roof C8_E" x="2624" y="8960"/>
  <object id="1116" name="Roof C8_N" x="2816" y="8960"/>
  <object id="1117" name="Roof C8_S" x="3008" y="8960"/>
  <object id="1118" name="Roof C8_W" x="3200" y="8960"/>
  <object id="1119" name="Roof C9_E" x="3392" y="8960"/>
  <object id="1120" name="Roof C9_N" x="3584" y="8960"/>
  <object id="1121" name="Roof C9_S" x="3776" y="8960"/>
  <object id="1122" name="Roof C9_W" x="3968" y="8960"/>
  <object id="1123" name="Roof C10_E" x="4160" y="8960"/>
  <object id="1124" name="Roof C10_N" x="4352" y="8960"/>
  <object id="1125" name="Roof C10_S" x="4544" y="8960"/>
  <object id="1126" name="Roof C10_W" x="4736" y="8960"/>
  <object id="1127" name="Roof D1_E" x="4928" y="8960"/>
  <object id="1128" name="Roof D1_N" x="5120" y="8960"/>
  <object id="1129" name="Roof D1_S" x="5312" y="8960"/>
  <object id="1130" name="Roof D1_W" x="5504" y="8960"/>
  <object id="1131" name="Roof D2_E" x="5696" y="8960"/>
  <object id="1132" name="Roof D2_N" x="5888" y="8960"/>
  <object id="1133" name="Roof D2_S" x="6080" y="8960"/>
  <object id="1134" name="Roof D2_W" x="6272" y="8960"/>
  <object id="1135" name="Roof D3_E" x="6464" y="8960"/>
  <object id="1136" name="Roof D3_N" x="6656" y="8960"/>
  <object id="1137" name="Roof D3_S" x="6848" y="8960"/>
  <object id="1138" name="Roof D3_W" x="7040" y="8960"/>
  <object id="1139" name="Roof D4_E" x="7232" y="8960"/>
  <object id="1140" name="Roof D4_N" x="7424" y="8960"/>
  <object id="1141" name="Roof D4_S" x="7616" y="8960"/>
  <object id="1142" name="Roof D4_W" x="7808" y="8960"/>
  <object id="1143" name="Roof D5_E" x="320" y="9152"/>
  <object id="1144" name="Roof D5_N" x="512" y="9152"/>
  <object id="1145" name="Roof D5_S" x="704" y="9152"/>
  <object id="1146" name="Roof D5_W" x="896" y="9152"/>
  <object id="1147" name="Roof D6_E" x="1088" y="9152"/>
  <object id="1148" name="Roof D6_N" x="1280" y="9152"/>
  <object id="1149" name="Roof D6_S" x="1472" y="9152"/>
  <object id="1150" name="Roof D6_W" x="1664" y="9152"/>
  <object id="1151" name="Roof D7_E" x="1856" y="9152"/>
  <object id="1152" name="Roof D7_N" x="2048" y="9152"/>
  <object id="1153" name="Roof D7_S" x="2240" y="9152"/>
  <object id="1154" name="Roof D7_W" x="2432" y="9152"/>
  <object id="1155" name="Roof D8_E" x="2624" y="9152"/>
  <object id="1156" name="Roof D8_N" x="2816" y="9152"/>
  <object id="1157" name="Roof D8_S" x="3008" y="9152"/>
  <object id="1158" name="Roof D8_W" x="3200" y="9152"/>
  <object id="1159" name="Roof D9_E" x="3392" y="9152"/>
  <object id="1160" name="Roof D9_N" x="3584" y="9152"/>
  <object id="1161" name="Roof D9_S" x="3776" y="9152"/>
  <object id="1162" name="Roof D9_W" x="3968" y="9152"/>
  <object id="1163" name="Roof D10_E" x="4160" y="9152"/>
  <object id="1164" name="Roof D10_N" x="4352" y="9152"/>
  <object id="1165" name="Roof D10_S" x="4544" y="9152"/>
  <object id="1166" name="Roof D10_W" x="4736" y="9152"/>
  <object id="1167" name="Roof E1_E" x="4928" y="9152"/>
  <object id="1168" name="Roof E1_N" x="5120" y="9152"/>
  <object id="1169" name="Roof E1_S" x="5312" y="9152"/>
  <object id="1170" name="Roof E1_W" x="5504" y="9152"/>
  <object id="1171" name="Roof E2_E" x="5696" y="9152"/>
  <object id="1172" name="Roof E2_N" x="5888" y="9152"/>
  <object id="1173" name="Roof E2_S" x="6080" y="9152"/>
  <object id="1174" name="Roof E2_W" x="6272" y="9152"/>
  <object id="1175" name="Roof E3_E" x="6464" y="9152"/>
  <object id="1176" name="Roof E3_N" x="6656" y="9152"/>
  <object id="1177" name="Roof E3_S" x="6848" y="9152"/>
  <object id="1178" name="Roof E3_W" x="7040" y="9152"/>
  <object id="1179" name="Roof E4_E" x="7232" y="9152"/>
  <object id="1180" name="Roof E4_N" x="7424" y="9152"/>
  <object id="1181" name="Roof E4_S" x="7616" y="9152"/>
  <object id="1182" name="Roof E4_W" x="7808" y="9152"/>
  <object id="1183" name="Roof E5_E" x="320" y="9344"/>
  <object id="1184" name="Roof E5_N" x="512" y="9344"/>
  <object id="1185" name="Roof E5_S" x="704" y="9344"/>
  <object id="1186" name="Roof E5_W" x="896" y="9344"/>
  <object id="1187" name="Roof E6_E" x="1088" y="9344"/>
  <object id="1188" name="Roof E6_N" x="1280" y="9344"/>
  <object id="1189" name="Roof E6_S" x="1472" y="9344"/>
  <object id="1190" name="Roof E6_W" x="1664" y="9344"/>
  <object id="1191" name="Roof E7_E" x="1856" y="9344"/>
  <object id="1192" name="Roof E7_N" x="2048" y="9344"/>
  <object id="1193" name="Roof E7_S" x="2240" y="9344"/>
  <object id="1194" name="Roof E7_W" x="2432" y="9344"/>
  <object id="1195" name="Roof E8_E" x="2624" y="9344"/>
  <object id="1196" name="Roof E8_N" x="2816" y="9344"/>
  <object id="1197" name="Roof E8_S" x="3008" y="9344"/>
  <object id="1198" name="Roof E8_W" x="3200" y="9344"/>
  <object id="1199" name="Roof E9_E" x="3392" y="9344"/>
  <object id="1200" name="Roof E9_N" x="3584" y="9344"/>
  <object id="1201" name="Roof E9_S" x="3776" y="9344"/>
  <object id="1202" name="Roof E9_W" x="3968" y="9344"/>
  <object id="1203" name="Roof E10_E" x="4160" y="9344"/>
  <object id="1204" name="Roof E10_N" x="4352" y="9344"/>
  <object id="1205" name="Roof E10_S" x="4544" y="9344"/>
  <object id="1206" name="Roof E10_W" x="4736" y="9344"/>
  <object id="1207" name="Roof F1_E" x="4928" y="9344"/>
  <object id="1208" name="Roof F1_N" x="5120" y="9344"/>
  <object id="1209" name="Roof F1_S" x="5312" y="9344"/>
  <object id="1210" name="Roof F1_W" x="5504" y="9344"/>
  <object id="1211" name="Roof F2_E" x="5696" y="9344"/>
  <object id="1212" name="Roof F2_N" x="5888" y="9344"/>
  <object id="1213" name="Roof F2_S" x="6080" y="9344"/>
  <object id="1214" name="Roof F2_W" x="6272" y="9344"/>
  <object id="1215" name="Roof F3_E" x="6464" y="9344"/>
  <object id="1216" name="Roof F3_N" x="6656" y="9344"/>
  <object id="1217" name="Roof F3_S" x="6848" y="9344"/>
  <object id="1218" name="Roof F3_W" x="7040" y="9344"/>
  <object id="1219" name="Roof F4_E" x="7232" y="9344"/>
  <object id="1220" name="Roof F4_N" x="7424" y="9344"/>
  <object id="1221" name="Roof F4_S" x="7616" y="9344"/>
  <object id="1222" name="Roof F4_W" x="7808" y="9344"/>
  <object id="1223" name="Roof F5_E" x="320" y="9536"/>
  <object id="1224" name="Roof F5_N" x="512" y="9536"/>
  <object id="1225" name="Roof F5_S" x="704" y="9536"/>
  <object id="1226" name="Roof F5_W" x="896" y="9536"/>
  <object id="1227" name="Roof F6_E" x="1088" y="9536"/>
  <object id="1228" name="Roof F6_N" x="1280" y="9536"/>
  <object id="1229" name="Roof F6_S" x="1472" y="9536"/>
  <object id="1230" name="Roof F6_W" x="1664" y="9536"/>
  <object id="1231" name="Roof F7_E" x="1856" y="9536"/>
  <object id="1232" name="Roof F7_N" x="2048" y="9536"/>
  <object id="1233" name="Roof F7_S" x="2240" y="9536"/>
  <object id="1234" name="Roof F7_W" x="2432" y="9536"/>
  <object id="1235" name="Roof F8_E" x="2624" y="9536"/>
  <object id="1236" name="Roof F8_N" x="2816" y="9536"/>
  <object id="1237" name="Roof F8_S" x="3008" y="9536"/>
  <object id="1238" name="Roof F8_W" x="3200" y="9536"/>
  <object id="1239" name="Roof F9_E" x="3392" y="9536"/>
  <object id="1240" name="Roof F9_N" x="3584" y="9536"/>
  <object id="1241" name="Roof F9_S" x="3776" y="9536"/>
  <object id="1242" name="Roof F9_W" x="3968" y="9536"/>
  <object id="1243" name="Roof F10_E" x="4160" y="9536"/>
  <object id="1244" name="Roof F10_N" x="4352" y="9536"/>
  <object id="1245" name="Roof F10_S" x="4544" y="9536"/>
  <object id="1246" name="Roof F10_W" x="4736" y="9536"/>
  <object id="1247" name="Roof G1_E" x="4928" y="9536"/>
  <object id="1248" name="Roof G1_N" x="5120" y="9536"/>
  <object id="1249" name="Roof G1_S" x="5312" y="9536"/>
  <object id="1250" name="Roof G1_W" x="5504" y="9536"/>
  <object id="1251" name="ENVIRONMENT / STONE" x="256" y="9856"/>
  <object id="1252" name="Stone A1_E" x="320" y="10112"/>
  <object id="1253" name="Stone A1_N" x="512" y="10112"/>
  <object id="1254" name="Stone A1_S" x="704" y="10112"/>
  <object id="1255" name="Stone A1_W" x="896" y="10112"/>
  <object id="1256" name="Stone A2_E" x="1088" y="10112"/>
  <object id="1257" name="Stone A2_N" x="1280" y="10112"/>
  <object id="1258" name="Stone A2_S" x="1472" y="10112"/>
  <object id="1259" name="Stone A2_W" x="1664" y="10112"/>
  <object id="1260" name="Stone A3_E" x="1856" y="10112"/>
  <object id="1261" name="Stone A3_N" x="2048" y="10112"/>
  <object id="1262" name="Stone A3_S" x="2240" y="10112"/>
  <object id="1263" name="Stone A3_W" x="2432" y="10112"/>
  <object id="1264" name="Stone A4_E" x="2624" y="10112"/>
  <object id="1265" name="Stone A4_N" x="2816" y="10112"/>
  <object id="1266" name="Stone A4_S" x="3008" y="10112"/>
  <object id="1267" name="Stone A4_W" x="3200" y="10112"/>
  <object id="1268" name="Stone A5_E" x="3392" y="10112"/>
  <object id="1269" name="Stone A5_N" x="3584" y="10112"/>
  <object id="1270" name="Stone A5_S" x="3776" y="10112"/>
  <object id="1271" name="Stone A5_W" x="3968" y="10112"/>
  <object id="1272" name="Stone A6_E" x="4160" y="10112"/>
  <object id="1273" name="Stone A6_N" x="4352" y="10112"/>
  <object id="1274" name="Stone A6_S" x="4544" y="10112"/>
  <object id="1275" name="Stone A6_W" x="4736" y="10112"/>
  <object id="1276" name="Stone A7_E" x="4928" y="10112"/>
  <object id="1277" name="Stone A7_N" x="5120" y="10112"/>
  <object id="1278" name="Stone A7_S" x="5312" y="10112"/>
  <object id="1279" name="Stone A7_W" x="5504" y="10112"/>
  <object id="1280" name="Stone A8_E" x="5696" y="10112"/>
  <object id="1281" name="Stone A8_N" x="5888" y="10112"/>
  <object id="1282" name="Stone A8_S" x="6080" y="10112"/>
  <object id="1283" name="Stone A8_W" x="6272" y="10112"/>
  <object id="1284" name="Stone A9_E" x="6464" y="10112"/>
  <object id="1285" name="Stone A9_N" x="6656" y="10112"/>
  <object id="1286" name="Stone A9_S" x="6848" y="10112"/>
  <object id="1287" name="Stone A9_W" x="7040" y="10112"/>
  <object id="1288" name="Stone A10_E" x="7232" y="10112"/>
  <object id="1289" name="Stone A10_N" x="7424" y="10112"/>
  <object id="1290" name="Stone A10_S" x="7616" y="10112"/>
  <object id="1291" name="Stone A10_W" x="7808" y="10112"/>
  <object id="1292" name="Stone A11_E" x="320" y="10304"/>
  <object id="1293" name="Stone A11_N" x="512" y="10304"/>
  <object id="1294" name="Stone A11_S" x="704" y="10304"/>
  <object id="1295" name="Stone A11_W" x="896" y="10304"/>
  <object id="1296" name="Stone A12_E" x="1088" y="10304"/>
  <object id="1297" name="Stone A12_N" x="1280" y="10304"/>
  <object id="1298" name="Stone A12_S" x="1472" y="10304"/>
  <object id="1299" name="Stone A12_W" x="1664" y="10304"/>
  <object id="1300" name="Stone A13_E" x="1856" y="10304"/>
  <object id="1301" name="Stone A13_N" x="2048" y="10304"/>
  <object id="1302" name="Stone A13_S" x="2240" y="10304"/>
  <object id="1303" name="Stone A13_W" x="2432" y="10304"/>
  <object id="1304" name="Stone A14_E" x="2624" y="10304"/>
  <object id="1305" name="Stone A14_N" x="2816" y="10304"/>
  <object id="1306" name="Stone A14_S" x="3008" y="10304"/>
  <object id="1307" name="Stone A14_W" x="3200" y="10304"/>
  <object id="1308" name="Stone A15_E" x="3392" y="10304"/>
  <object id="1309" name="Stone A15_N" x="3584" y="10304"/>
  <object id="1310" name="Stone A15_S" x="3776" y="10304"/>
  <object id="1311" name="Stone A15_W" x="3968" y="10304"/>
  <object id="1312" name="Stone A16_E" x="4160" y="10304"/>
  <object id="1313" name="Stone A16_N" x="4352" y="10304"/>
  <object id="1314" name="Stone A16_S" x="4544" y="10304"/>
  <object id="1315" name="Stone A16_W" x="4736" y="10304"/>
  <object id="1316" name="Stone A17_E" x="4928" y="10304"/>
  <object id="1317" name="Stone A17_N" x="5120" y="10304"/>
  <object id="1318" name="Stone A17_S" x="5312" y="10304"/>
  <object id="1319" name="Stone A17_W" x="5504" y="10304"/>
  <object id="1320" name="Stone A18_E" x="5696" y="10304"/>
  <object id="1321" name="Stone A18_N" x="5888" y="10304"/>
  <object id="1322" name="Stone A18_S" x="6080" y="10304"/>
  <object id="1323" name="Stone A18_W" x="6272" y="10304"/>
  <object id="1324" name="Stone A19_E" x="6464" y="10304"/>
  <object id="1325" name="Stone A19_N" x="6656" y="10304"/>
  <object id="1326" name="Stone A19_S" x="6848" y="10304"/>
  <object id="1327" name="Stone A19_W" x="7040" y="10304"/>
  <object id="1328" name="Stone A20_E" x="7232" y="10304"/>
  <object id="1329" name="Stone A20_N" x="7424" y="10304"/>
  <object id="1330" name="Stone A20_S" x="7616" y="10304"/>
  <object id="1331" name="Stone A20_W" x="7808" y="10304"/>
  <object id="1332" name="Stone A21_E" x="320" y="10496"/>
  <object id="1333" name="Stone A21_N" x="512" y="10496"/>
  <object id="1334" name="Stone A21_S" x="704" y="10496"/>
  <object id="1335" name="Stone A21_W" x="896" y="10496"/>
  <object id="1336" name="Stone A22_E" x="1088" y="10496"/>
  <object id="1337" name="Stone A22_N" x="1280" y="10496"/>
  <object id="1338" name="Stone A22_S" x="1472" y="10496"/>
  <object id="1339" name="Stone A22_W" x="1664" y="10496"/>
  <object id="1340" name="ENVIRONMENT / TORCH" x="256" y="10816"/>
  <object id="1341" name="Torch East" x="320" y="11072"/>
  <object id="1342" name="Torch West" x="512" y="11072"/>
  <object id="1343" name="ENVIRONMENT / TREE" x="256" y="11392"/>
  <object id="1344" name="Tree A1_E" x="320" y="11648"/>
  <object id="1345" name="Tree A1_N" x="512" y="11648"/>
  <object id="1346" name="Tree A1_S" x="704" y="11648"/>
  <object id="1347" name="Tree A1_W" x="896" y="11648"/>
  <object id="1348" name="Tree A2_E" x="1088" y="11648"/>
  <object id="1349" name="Tree A2_N" x="1280" y="11648"/>
  <object id="1350" name="Tree A2_S" x="1472" y="11648"/>
  <object id="1351" name="Tree A2_W" x="1664" y="11648"/>
  <object id="1352" name="Tree A3_E" x="1856" y="11648"/>
  <object id="1353" name="Tree A3_N" x="2048" y="11648"/>
  <object id="1354" name="Tree A3_S" x="2240" y="11648"/>
  <object id="1355" name="Tree A3_W" x="2432" y="11648"/>
  <object id="1356" name="Tree A4_E" x="2624" y="11648"/>
  <object id="1357" name="Tree A4_N" x="2816" y="11648"/>
  <object id="1358" name="Tree A4_S" x="3008" y="11648"/>
  <object id="1359" name="Tree A4_W" x="3200" y="11648"/>
  <object id="1360" name="Tree B1_E" x="3392" y="11648"/>
  <object id="1361" name="Tree B1_N" x="3584" y="11648"/>
  <object id="1362" name="Tree B1_S" x="3776" y="11648"/>
  <object id="1363" name="Tree B1_W" x="3968" y="11648"/>
  <object id="1364" name="Tree B2_E" x="4160" y="11648"/>
  <object id="1365" name="Tree B2_N" x="4352" y="11648"/>
  <object id="1366" name="Tree B2_S" x="4544" y="11648"/>
  <object id="1367" name="Tree B2_W" x="4736" y="11648"/>
  <object id="1368" name="Tree B3_E" x="4928" y="11648"/>
  <object id="1369" name="Tree B3_N" x="5120" y="11648"/>
  <object id="1370" name="Tree B3_S" x="5312" y="11648"/>
  <object id="1371" name="Tree B3_W" x="5504" y="11648"/>
  <object id="1372" name="Tree B4_E" x="5696" y="11648"/>
  <object id="1373" name="Tree B4_N" x="5888" y="11648"/>
  <object id="1374" name="Tree B4_S" x="6080" y="11648"/>
  <object id="1375" name="Tree B4_W" x="6272" y="11648"/>
  <object id="1376" name="Tree B5_E" x="6464" y="11648"/>
  <object id="1377" name="Tree B5_N" x="6656" y="11648"/>
  <object id="1378" name="Tree B5_S" x="6848" y="11648"/>
  <object id="1379" name="Tree B5_W" x="7040" y="11648"/>
  <object id="1380" name="Tree C1_E" x="7232" y="11648"/>
  <object id="1381" name="Tree C1_N" x="7424" y="11648"/>
  <object id="1382" name="Tree C1_S" x="7616" y="11648"/>
  <object id="1383" name="Tree C1_W" x="7808" y="11648"/>
  <object id="1384" name="Tree D1_E" x="320" y="11840"/>
  <object id="1385" name="Tree D1_N" x="512" y="11840"/>
  <object id="1386" name="Tree D1_S" x="704" y="11840"/>
  <object id="1387" name="Tree D1_W" x="896" y="11840"/>
  <object id="1388" name="Tree D2_E" x="1088" y="11840"/>
  <object id="1389" name="Tree D2_N" x="1280" y="11840"/>
  <object id="1390" name="Tree D2_S" x="1472" y="11840"/>
  <object id="1391" name="Tree D2_W" x="1664" y="11840"/>
  <object id="1392" name="Tree D3_E" x="1856" y="11840"/>
  <object id="1393" name="Tree D3_N" x="2048" y="11840"/>
  <object id="1394" name="Tree D3_S" x="2240" y="11840"/>
  <object id="1395" name="Tree D3_W" x="2432" y="11840"/>
  <object id="1396" name="Tree E1_E" x="2624" y="11840"/>
  <object id="1397" name="Tree E1_N" x="2816" y="11840"/>
  <object id="1398" name="Tree E1_S" x="3008" y="11840"/>
  <object id="1399" name="Tree E1_W" x="3200" y="11840"/>
  <object id="1400" name="Tree E2_E" x="3392" y="11840"/>
  <object id="1401" name="Tree E2_N" x="3584" y="11840"/>
  <object id="1402" name="Tree E2_S" x="3776" y="11840"/>
  <object id="1403" name="Tree E2_W" x="3968" y="11840"/>
  <object id="1404" name="Tree E3_E" x="4160" y="11840"/>
  <object id="1405" name="Tree E3_N" x="4352" y="11840"/>
  <object id="1406" name="Tree E3_S" x="4544" y="11840"/>
  <object id="1407" name="Tree E3_W" x="4736" y="11840"/>
  <object id="1408" name="Tree E4_E" x="4928" y="11840"/>
  <object id="1409" name="Tree E4_N" x="5120" y="11840"/>
  <object id="1410" name="Tree E4_S" x="5312" y="11840"/>
  <object id="1411" name="Tree E4_W" x="5504" y="11840"/>
  <object id="1412" name="Tree E5_E" x="5696" y="11840"/>
  <object id="1413" name="Tree E5_N" x="5888" y="11840"/>
  <object id="1414" name="Tree E5_S" x="6080" y="11840"/>
  <object id="1415" name="Tree E5_W" x="6272" y="11840"/>
  <object id="1416" name="Tree Shadow" x="6464" y="11840"/>
  <object id="1417" name="ENVIRONMENT / WALL" x="256" y="12160"/>
  <object id="1418" name="Wall A1_E" x="320" y="12416"/>
  <object id="1419" name="Wall A1_N" x="512" y="12416"/>
  <object id="1420" name="Wall A1_S" x="704" y="12416"/>
  <object id="1421" name="Wall A1_W" x="896" y="12416"/>
  <object id="1422" name="Wall A2_E" x="1088" y="12416"/>
  <object id="1423" name="Wall A2_N" x="1280" y="12416"/>
  <object id="1424" name="Wall A2_S" x="1472" y="12416"/>
  <object id="1425" name="Wall A2_W" x="1664" y="12416"/>
  <object id="1426" name="Wall A3_E" x="1856" y="12416"/>
  <object id="1427" name="Wall A3_N" x="2048" y="12416"/>
  <object id="1428" name="Wall A3_S" x="2240" y="12416"/>
  <object id="1429" name="Wall A3_W" x="2432" y="12416"/>
  <object id="1430" name="Wall A4_E" x="2624" y="12416"/>
  <object id="1431" name="Wall A4_N" x="2816" y="12416"/>
  <object id="1432" name="Wall A4_S" x="3008" y="12416"/>
  <object id="1433" name="Wall A4_W" x="3200" y="12416"/>
  <object id="1434" name="Wall A5_E" x="3392" y="12416"/>
  <object id="1435" name="Wall A5_N" x="3584" y="12416"/>
  <object id="1436" name="Wall A5_S" x="3776" y="12416"/>
  <object id="1437" name="Wall A5_W" x="3968" y="12416"/>
  <object id="1438" name="Wall A6_E" x="4160" y="12416"/>
  <object id="1439" name="Wall A6_N" x="4352" y="12416"/>
  <object id="1440" name="Wall A6_S" x="4544" y="12416"/>
  <object id="1441" name="Wall A6_W" x="4736" y="12416"/>
  <object id="1442" name="Wall A7_E" x="4928" y="12416"/>
  <object id="1443" name="Wall A7_N" x="5120" y="12416"/>
  <object id="1444" name="Wall A7_S" x="5312" y="12416"/>
  <object id="1445" name="Wall A7_W" x="5504" y="12416"/>
  <object id="1446" name="Wall A8_E" x="5696" y="12416"/>
  <object id="1447" name="Wall A8_N" x="5888" y="12416"/>
  <object id="1448" name="Wall A8_S" x="6080" y="12416"/>
  <object id="1449" name="Wall A8_W" x="6272" y="12416"/>
  <object id="1450" name="Wall A9_E" x="6464" y="12416"/>
  <object id="1451" name="Wall A9_N" x="6656" y="12416"/>
  <object id="1452" name="Wall A9_S" x="6848" y="12416"/>
  <object id="1453" name="Wall A9_W" x="7040" y="12416"/>
  <object id="1454" name="Wall A10_E" x="7232" y="12416"/>
  <object id="1455" name="Wall A10_N" x="7424" y="12416"/>
  <object id="1456" name="Wall A10_S" x="7616" y="12416"/>
  <object id="1457" name="Wall A10_W" x="7808" y="12416"/>
  <object id="1458" name="Wall A11_E" x="320" y="12608"/>
  <object id="1459" name="Wall A11_N" x="512" y="12608"/>
  <object id="1460" name="Wall A11_S" x="704" y="12608"/>
  <object id="1461" name="Wall A11_W" x="896" y="12608"/>
  <object id="1462" name="Wall A12_E" x="1088" y="12608"/>
  <object id="1463" name="Wall A12_N" x="1280" y="12608"/>
  <object id="1464" name="Wall A12_S" x="1472" y="12608"/>
  <object id="1465" name="Wall A12_W" x="1664" y="12608"/>
  <object id="1466" name="Wall A13_E" x="1856" y="12608"/>
  <object id="1467" name="Wall A13_N" x="2048" y="12608"/>
  <object id="1468" name="Wall A13_S" x="2240" y="12608"/>
  <object id="1469" name="Wall A13_W" x="2432" y="12608"/>
  <object id="1470" name="Wall A14_E" x="2624" y="12608"/>
  <object id="1471" name="Wall A14_N" x="2816" y="12608"/>
  <object id="1472" name="Wall A14_S" x="3008" y="12608"/>
  <object id="1473" name="Wall A14_W" x="3200" y="12608"/>
  <object id="1474" name="Wall A15_E" x="3392" y="12608"/>
  <object id="1475" name="Wall A15_N" x="3584" y="12608"/>
  <object id="1476" name="Wall A15_S" x="3776" y="12608"/>
  <object id="1477" name="Wall A15_W" x="3968" y="12608"/>
  <object id="1478" name="Wall A16_E" x="4160" y="12608"/>
  <object id="1479" name="Wall A16_N" x="4352" y="12608"/>
  <object id="1480" name="Wall A16_S" x="4544" y="12608"/>
  <object id="1481" name="Wall A16_W" x="4736" y="12608"/>
  <object id="1482" name="Wall A17_E" x="4928" y="12608"/>
  <object id="1483" name="Wall A17_N" x="5120" y="12608"/>
  <object id="1484" name="Wall A17_S" x="5312" y="12608"/>
  <object id="1485" name="Wall A17_W" x="5504" y="12608"/>
  <object id="1486" name="Wall A18_E" x="5696" y="12608"/>
  <object id="1487" name="Wall A18_N" x="5888" y="12608"/>
  <object id="1488" name="Wall A18_S" x="6080" y="12608"/>
  <object id="1489" name="Wall A18_W" x="6272" y="12608"/>
  <object id="1490" name="Wall A19_E" x="6464" y="12608"/>
  <object id="1491" name="Wall A19_N" x="6656" y="12608"/>
  <object id="1492" name="Wall A19_S" x="6848" y="12608"/>
  <object id="1493" name="Wall A19_W" x="7040" y="12608"/>
  <object id="1494" name="Wall A20_E" x="7232" y="12608"/>
  <object id="1495" name="Wall A20_N" x="7424" y="12608"/>
  <object id="1496" name="Wall A20_S" x="7616" y="12608"/>
  <object id="1497" name="Wall A20_W" x="7808" y="12608"/>
  <object id="1498" name="Wall A21_E" x="320" y="12800"/>
  <object id="1499" name="Wall A21_N" x="512" y="12800"/>
  <object id="1500" name="Wall A21_S" x="704" y="12800"/>
  <object id="1501" name="Wall A21_W" x="896" y="12800"/>
  <object id="1502" name="Wall A22_E" x="1088" y="12800"/>
  <object id="1503" name="Wall A22_N" x="1280" y="12800"/>
  <object id="1504" name="Wall A22_S" x="1472" y="12800"/>
  <object id="1505" name="Wall A22_W" x="1664" y="12800"/>
  <object id="1506" name="Wall B1_E" x="1856" y="12800"/>
  <object id="1507" name="Wall B1_N" x="2048" y="12800"/>
  <object id="1508" name="Wall B1_S" x="2240" y="12800"/>
  <object id="1509" name="Wall B1_W" x="2432" y="12800"/>
  <object id="1510" name="Wall B2_E" x="2624" y="12800"/>
  <object id="1511" name="Wall B2_N" x="2816" y="12800"/>
  <object id="1512" name="Wall B2_S" x="3008" y="12800"/>
  <object id="1513" name="Wall B2_W" x="3200" y="12800"/>
  <object id="1514" name="Wall B3_E" x="3392" y="12800"/>
  <object id="1515" name="Wall B3_N" x="3584" y="12800"/>
  <object id="1516" name="Wall B3_S" x="3776" y="12800"/>
  <object id="1517" name="Wall B3_W" x="3968" y="12800"/>
  <object id="1518" name="Wall B4_E" x="4160" y="12800"/>
  <object id="1519" name="Wall B4_N" x="4352" y="12800"/>
  <object id="1520" name="Wall B4_S" x="4544" y="12800"/>
  <object id="1521" name="Wall B4_W" x="4736" y="12800"/>
  <object id="1522" name="Wall B5_E" x="4928" y="12800"/>
  <object id="1523" name="Wall B5_N" x="5120" y="12800"/>
  <object id="1524" name="Wall B5_S" x="5312" y="12800"/>
  <object id="1525" name="Wall B5_W" x="5504" y="12800"/>
  <object id="1526" name="Wall B6_E" x="5696" y="12800"/>
  <object id="1527" name="Wall B6_N" x="5888" y="12800"/>
  <object id="1528" name="Wall B6_S" x="6080" y="12800"/>
  <object id="1529" name="Wall B6_W" x="6272" y="12800"/>
  <object id="1530" name="Wall B7_E" x="6464" y="12800"/>
  <object id="1531" name="Wall B7_N" x="6656" y="12800"/>
  <object id="1532" name="Wall B7_S" x="6848" y="12800"/>
  <object id="1533" name="Wall B7_W" x="7040" y="12800"/>
  <object id="1534" name="Wall B8_E" x="7232" y="12800"/>
  <object id="1535" name="Wall B8_N" x="7424" y="12800"/>
  <object id="1536" name="Wall B8_S" x="7616" y="12800"/>
  <object id="1537" name="Wall B8_W" x="7808" y="12800"/>
  <object id="1538" name="Wall B9_E" x="320" y="12992"/>
  <object id="1539" name="Wall B9_N" x="512" y="12992"/>
  <object id="1540" name="Wall B9_S" x="704" y="12992"/>
  <object id="1541" name="Wall B9_W" x="896" y="12992"/>
  <object id="1542" name="Wall B10_E" x="1088" y="12992"/>
  <object id="1543" name="Wall B10_N" x="1280" y="12992"/>
  <object id="1544" name="Wall B10_S" x="1472" y="12992"/>
  <object id="1545" name="Wall B10_W" x="1664" y="12992"/>
  <object id="1546" name="Wall B11_E" x="1856" y="12992"/>
  <object id="1547" name="Wall B11_N" x="2048" y="12992"/>
  <object id="1548" name="Wall B11_S" x="2240" y="12992"/>
  <object id="1549" name="Wall B11_W" x="2432" y="12992"/>
  <object id="1550" name="Wall C1_E" x="2624" y="12992"/>
  <object id="1551" name="Wall C1_N" x="2816" y="12992"/>
  <object id="1552" name="Wall C1_S" x="3008" y="12992"/>
  <object id="1553" name="Wall C1_W" x="3200" y="12992"/>
  <object id="1554" name="Wall C2_E" x="3392" y="12992"/>
  <object id="1555" name="Wall C2_N" x="3584" y="12992"/>
  <object id="1556" name="Wall C2_S" x="3776" y="12992"/>
  <object id="1557" name="Wall C2_W" x="3968" y="12992"/>
  <object id="1558" name="Wall C3_E" x="4160" y="12992"/>
  <object id="1559" name="Wall C3_N" x="4352" y="12992"/>
  <object id="1560" name="Wall C3_S" x="4544" y="12992"/>
  <object id="1561" name="Wall C3_W" x="4736" y="12992"/>
  <object id="1562" name="Wall C4_E" x="4928" y="12992"/>
  <object id="1563" name="Wall C4_N" x="5120" y="12992"/>
  <object id="1564" name="Wall C4_S" x="5312" y="12992"/>
  <object id="1565" name="Wall C4_W" x="5504" y="12992"/>
  <object id="1566" name="Wall C5_E" x="5696" y="12992"/>
  <object id="1567" name="Wall C5_N" x="5888" y="12992"/>
  <object id="1568" name="Wall C5_S" x="6080" y="12992"/>
  <object id="1569" name="Wall C5_W" x="6272" y="12992"/>
  <object id="1570" name="Wall C6_E" x="6464" y="12992"/>
  <object id="1571" name="Wall C6_N" x="6656" y="12992"/>
  <object id="1572" name="Wall C6_S" x="6848" y="12992"/>
  <object id="1573" name="Wall C6_W" x="7040" y="12992"/>
  <object id="1574" name="Wall D1_E" x="7232" y="12992"/>
  <object id="1575" name="Wall D1_N" x="7424" y="12992"/>
  <object id="1576" name="Wall D1_S" x="7616" y="12992"/>
  <object id="1577" name="Wall D1_W" x="7808" y="12992"/>
  <object id="1578" name="Wall D2_E" x="320" y="13184"/>
  <object id="1579" name="Wall D2_N" x="512" y="13184"/>
  <object id="1580" name="Wall D2_S" x="704" y="13184"/>
  <object id="1581" name="Wall D2_W" x="896" y="13184"/>
  <object id="1582" name="Wall D3_E" x="1088" y="13184"/>
  <object id="1583" name="Wall D3_N" x="1280" y="13184"/>
  <object id="1584" name="Wall D3_S" x="1472" y="13184"/>
  <object id="1585" name="Wall D3_W" x="1664" y="13184"/>
  <object id="1586" name="Wall D4_E" x="1856" y="13184"/>
  <object id="1587" name="Wall D4_N" x="2048" y="13184"/>
  <object id="1588" name="Wall D4_S" x="2240" y="13184"/>
  <object id="1589" name="Wall D4_W" x="2432" y="13184"/>
  <object id="1590" name="Wall D5_E" x="2624" y="13184"/>
  <object id="1591" name="Wall D5_N" x="2816" y="13184"/>
  <object id="1592" name="Wall D5_S" x="3008" y="13184"/>
  <object id="1593" name="Wall D5_W" x="3200" y="13184"/>
  <object id="1594" name="Wall D6_E" x="3392" y="13184"/>
  <object id="1595" name="Wall D6_N" x="3584" y="13184"/>
  <object id="1596" name="Wall D6_S" x="3776" y="13184"/>
  <object id="1597" name="Wall D6_W" x="3968" y="13184"/>
  <object id="1598" name="Wall D7_E" x="4160" y="13184"/>
  <object id="1599" name="Wall D7_N" x="4352" y="13184"/>
  <object id="1600" name="Wall D7_S" x="4544" y="13184"/>
  <object id="1601" name="Wall D7_W" x="4736" y="13184"/>
  <object id="1602" name="Wall D8_E" x="4928" y="13184"/>
  <object id="1603" name="Wall D8_N" x="5120" y="13184"/>
  <object id="1604" name="Wall D8_S" x="5312" y="13184"/>
  <object id="1605" name="Wall D8_W" x="5504" y="13184"/>
  <object id="1606" name="Wall D9_E" x="5696" y="13184"/>
  <object id="1607" name="Wall D9_N" x="5888" y="13184"/>
  <object id="1608" name="Wall D9_S" x="6080" y="13184"/>
  <object id="1609" name="Wall D9_W" x="6272" y="13184"/>
  <object id="1610" name="Wall D10_E" x="6464" y="13184"/>
  <object id="1611" name="Wall D10_N" x="6656" y="13184"/>
  <object id="1612" name="Wall D10_S" x="6848" y="13184"/>
  <object id="1613" name="Wall D10_W" x="7040" y="13184"/>
  <object id="1614" name="Wall D11_E" x="7232" y="13184"/>
  <object id="1615" name="Wall D11_N" x="7424" y="13184"/>
  <object id="1616" name="Wall D11_S" x="7616" y="13184"/>
  <object id="1617" name="Wall D11_W" x="7808" y="13184"/>
  <object id="1618" name="Wall D12_E" x="320" y="13376"/>
  <object id="1619" name="Wall D12_N" x="512" y="13376"/>
  <object id="1620" name="Wall D12_S" x="704" y="13376"/>
  <object id="1621" name="Wall D12_W" x="896" y="13376"/>
  <object id="1622" name="Wall D13_E" x="1088" y="13376"/>
  <object id="1623" name="Wall D13_N" x="1280" y="13376"/>
  <object id="1624" name="Wall D13_S" x="1472" y="13376"/>
  <object id="1625" name="Wall D13_W" x="1664" y="13376"/>
  <object id="1626" name="Wall D14_E" x="1856" y="13376"/>
  <object id="1627" name="Wall D14_N" x="2048" y="13376"/>
  <object id="1628" name="Wall D14_S" x="2240" y="13376"/>
  <object id="1629" name="Wall D14_W" x="2432" y="13376"/>
  <object id="1630" name="Wall D15_E" x="2624" y="13376"/>
  <object id="1631" name="Wall D15_N" x="2816" y="13376"/>
  <object id="1632" name="Wall D15_S" x="3008" y="13376"/>
  <object id="1633" name="Wall D15_W" x="3200" y="13376"/>
  <object id="1634" name="Wall D16_E" x="3392" y="13376"/>
  <object id="1635" name="Wall D16_N" x="3584" y="13376"/>
  <object id="1636" name="Wall D16_S" x="3776" y="13376"/>
  <object id="1637" name="Wall D16_W" x="3968" y="13376"/>
  <object id="1638" name="Wall D17_E" x="4160" y="13376"/>
  <object id="1639" name="Wall D17_N" x="4352" y="13376"/>
  <object id="1640" name="Wall D17_S" x="4544" y="13376"/>
  <object id="1641" name="Wall D17_W" x="4736" y="13376"/>
  <object id="1642" name="Wall D18_E" x="4928" y="13376"/>
  <object id="1643" name="Wall D18_N" x="5120" y="13376"/>
  <object id="1644" name="Wall D18_S" x="5312" y="13376"/>
  <object id="1645" name="Wall D18_W" x="5504" y="13376"/>
  <object id="1646" name="Wall D19_E" x="5696" y="13376"/>
  <object id="1647" name="Wall D19_N" x="5888" y="13376"/>
  <object id="1648" name="Wall D19_S" x="6080" y="13376"/>
  <object id="1649" name="Wall D19_W" x="6272" y="13376"/>
  <object id="1650" name="Wall E1_E" x="6464" y="13376"/>
  <object id="1651" name="Wall E1_N" x="6656" y="13376"/>
  <object id="1652" name="Wall E1_S" x="6848" y="13376"/>
  <object id="1653" name="Wall E1_W" x="7040" y="13376"/>
  <object id="1654" name="Wall E2_E" x="7232" y="13376"/>
  <object id="1655" name="Wall E2_N" x="7424" y="13376"/>
  <object id="1656" name="Wall E2_S" x="7616" y="13376"/>
  <object id="1657" name="Wall E2_W" x="7808" y="13376"/>
  <object id="1658" name="Wall E3_E" x="320" y="13568"/>
  <object id="1659" name="Wall E3_N" x="512" y="13568"/>
  <object id="1660" name="Wall E3_S" x="704" y="13568"/>
  <object id="1661" name="Wall E3_W" x="896" y="13568"/>
  <object id="1662" name="Wall E4_E" x="1088" y="13568"/>
  <object id="1663" name="Wall E4_N" x="1280" y="13568"/>
  <object id="1664" name="Wall E4_S" x="1472" y="13568"/>
  <object id="1665" name="Wall E4_W" x="1664" y="13568"/>
  <object id="1666" name="Wall E5_E" x="1856" y="13568"/>
  <object id="1667" name="Wall E5_N" x="2048" y="13568"/>
  <object id="1668" name="Wall E5_S" x="2240" y="13568"/>
  <object id="1669" name="Wall E5_W" x="2432" y="13568"/>
  <object id="1670" name="Wall E6_E" x="2624" y="13568"/>
  <object id="1671" name="Wall E6_N" x="2816" y="13568"/>
  <object id="1672" name="Wall E6_S" x="3008" y="13568"/>
  <object id="1673" name="Wall E6_W" x="3200" y="13568"/>
  <object id="1674" name="Wall E7_E" x="3392" y="13568"/>
  <object id="1675" name="Wall E7_N" x="3584" y="13568"/>
  <object id="1676" name="Wall E7_S" x="3776" y="13568"/>
  <object id="1677" name="Wall E7_W" x="3968" y="13568"/>
  <object id="1678" name="Wall E8_E" x="4160" y="13568"/>
  <object id="1679" name="Wall E8_N" x="4352" y="13568"/>
  <object id="1680" name="Wall E8_S" x="4544" y="13568"/>
  <object id="1681" name="Wall E8_W" x="4736" y="13568"/>
  <object id="1682" name="Wall E9_E" x="4928" y="13568"/>
  <object id="1683" name="Wall E9_N" x="5120" y="13568"/>
  <object id="1684" name="Wall E9_S" x="5312" y="13568"/>
  <object id="1685" name="Wall E9_W" x="5504" y="13568"/>
  <object id="1686" name="Wall E10_E" x="5696" y="13568"/>
  <object id="1687" name="Wall E10_N" x="5888" y="13568"/>
  <object id="1688" name="Wall E10_S" x="6080" y="13568"/>
  <object id="1689" name="Wall E10_W" x="6272" y="13568"/>
  <object id="1690" name="Wall E11_E" x="6464" y="13568"/>
  <object id="1691" name="Wall E11_N" x="6656" y="13568"/>
  <object id="1692" name="Wall E11_S" x="6848" y="13568"/>
  <object id="1693" name="Wall E11_W" x="7040" y="13568"/>
  <object id="1694" name="Wall E12_E" x="7232" y="13568"/>
  <object id="1695" name="Wall E12_N" x="7424" y="13568"/>
  <object id="1696" name="Wall E12_S" x="7616" y="13568"/>
  <object id="1697" name="Wall E12_W" x="7808" y="13568"/>
  <object id="1698" name="Wall E15_E" x="320" y="13760"/>
  <object id="1699" name="Wall E15_N" x="512" y="13760"/>
  <object id="1700" name="Wall E15_S" x="704" y="13760"/>
  <object id="1701" name="Wall E15_W" x="896" y="13760"/>
  <object id="1702" name="Wall E16_E" x="1088" y="13760"/>
  <object id="1703" name="Wall E16_N" x="1280" y="13760"/>
  <object id="1704" name="Wall E16_S" x="1472" y="13760"/>
  <object id="1705" name="Wall E16_W" x="1664" y="13760"/>
  <object id="1706" name="Wall E17_E" x="1856" y="13760"/>
  <object id="1707" name="Wall E17_N" x="2048" y="13760"/>
  <object id="1708" name="Wall E17_S" x="2240" y="13760"/>
  <object id="1709" name="Wall E17_W" x="2432" y="13760"/>
  <object id="1710" name="Wall E18_E" x="2624" y="13760"/>
  <object id="1711" name="Wall E18_N" x="2816" y="13760"/>
  <object id="1712" name="Wall E18_S" x="3008" y="13760"/>
  <object id="1713" name="Wall E18_W" x="3200" y="13760"/>
  <object id="1714" name="Wall F1_E" x="3392" y="13760"/>
  <object id="1715" name="Wall F1_N" x="3584" y="13760"/>
  <object id="1716" name="Wall F1_S" x="3776" y="13760"/>
  <object id="1717" name="Wall F1_W" x="3968" y="13760"/>
  <object id="1718" name="Wall F2_E" x="4160" y="13760"/>
  <object id="1719" name="Wall F2_N" x="4352" y="13760"/>
  <object id="1720" name="Wall F2_S" x="4544" y="13760"/>
  <object id="1721" name="Wall F2_W" x="4736" y="13760"/>
  <object id="1722" name="Wall F3_E" x="4928" y="13760"/>
  <object id="1723" name="Wall F3_N" x="5120" y="13760"/>
  <object id="1724" name="Wall F3_S" x="5312" y="13760"/>
  <object id="1725" name="Wall F3_W" x="5504" y="13760"/>
  <object id="1726" name="Wall F4_E" x="5696" y="13760"/>
  <object id="1727" name="Wall F4_N" x="5888" y="13760"/>
  <object id="1728" name="Wall F4_S" x="6080" y="13760"/>
  <object id="1729" name="Wall F4_W" x="6272" y="13760"/>
  <object id="1730" name="Wall F5_E" x="6464" y="13760"/>
  <object id="1731" name="Wall F5_N" x="6656" y="13760"/>
  <object id="1732" name="Wall F5_S" x="6848" y="13760"/>
  <object id="1733" name="Wall F5_W" x="7040" y="13760"/>
  <object id="1734" name="Wall F6_E" x="7232" y="13760"/>
  <object id="1735" name="Wall F6_N" x="7424" y="13760"/>
  <object id="1736" name="Wall F6_S" x="7616" y="13760"/>
  <object id="1737" name="Wall F6_W" x="7808" y="13760"/>
  <object id="1738" name="Wall F7_E" x="320" y="13952"/>
  <object id="1739" name="Wall F7_N" x="512" y="13952"/>
  <object id="1740" name="Wall F7_S" x="704" y="13952"/>
  <object id="1741" name="Wall F7_W" x="896" y="13952"/>
  <object id="1742" name="Wall F8_E" x="1088" y="13952"/>
  <object id="1743" name="Wall F8_N" x="1280" y="13952"/>
  <object id="1744" name="Wall F8_S" x="1472" y="13952"/>
  <object id="1745" name="Wall F8_W" x="1664" y="13952"/>
  <object id="1746" name="Wall F9_E" x="1856" y="13952"/>
  <object id="1747" name="Wall F9_N" x="2048" y="13952"/>
  <object id="1748" name="Wall F9_S" x="2240" y="13952"/>
  <object id="1749" name="Wall F9_W" x="2432" y="13952"/>
  <object id="1750" name="Wall F10_E" x="2624" y="13952"/>
  <object id="1751" name="Wall F10_N" x="2816" y="13952"/>
  <object id="1752" name="Wall F10_S" x="3008" y="13952"/>
  <object id="1753" name="Wall F10_W" x="3200" y="13952"/>
  <object id="1754" name="Wall F11_E" x="3392" y="13952"/>
  <object id="1755" name="Wall F11_N" x="3584" y="13952"/>
  <object id="1756" name="Wall F11_S" x="3776" y="13952"/>
  <object id="1757" name="Wall F11_W" x="3968" y="13952"/>
  <object id="1758" name="Wall F12_E" x="4160" y="13952"/>
  <object id="1759" name="Wall F12_N" x="4352" y="13952"/>
  <object id="1760" name="Wall F12_S" x="4544" y="13952"/>
  <object id="1761" name="Wall F12_W" x="4736" y="13952"/>
  <object id="1762" name="Wall F13_E" x="4928" y="13952"/>
  <object id="1763" name="Wall F13_N" x="5120" y="13952"/>
  <object id="1764" name="Wall F13_S" x="5312" y="13952"/>
  <object id="1765" name="Wall F13_W" x="5504" y="13952"/>
  <object id="1766" name="Wall F14_E" x="5696" y="13952"/>
  <object id="1767" name="Wall F14_N" x="5888" y="13952"/>
  <object id="1768" name="Wall F14_S" x="6080" y="13952"/>
  <object id="1769" name="Wall F14_W" x="6272" y="13952"/>
  <object id="1770" name="Wall F15_E" x="6464" y="13952"/>
  <object id="1771" name="Wall F15_N" x="6656" y="13952"/>
  <object id="1772" name="Wall F15_S" x="6848" y="13952"/>
  <object id="1773" name="Wall F15_W" x="7040" y="13952"/>
  <object id="1774" name="Wall F16_E" x="7232" y="13952"/>
  <object id="1775" name="Wall F16_N" x="7424" y="13952"/>
  <object id="1776" name="Wall F16_S" x="7616" y="13952"/>
  <object id="1777" name="Wall F16_W" x="7808" y="13952"/>
  <object id="1778" name="Wall F17_E" x="320" y="14144"/>
  <object id="1779" name="Wall F17_N" x="512" y="14144"/>
  <object id="1780" name="Wall F17_S" x="704" y="14144"/>
  <object id="1781" name="Wall F17_W" x="896" y="14144"/>
  <object id="1782" name="Wall F18_E" x="1088" y="14144"/>
  <object id="1783" name="Wall F18_N" x="1280" y="14144"/>
  <object id="1784" name="Wall F18_S" x="1472" y="14144"/>
  <object id="1785" name="Wall F18_W" x="1664" y="14144"/>
  <object id="1786" name="Wall F19_E" x="1856" y="14144"/>
  <object id="1787" name="Wall F19_N" x="2048" y="14144"/>
  <object id="1788" name="Wall F19_S" x="2240" y="14144"/>
  <object id="1789" name="Wall F19_W" x="2432" y="14144"/>
  <object id="1790" name="Wall G1_E" x="2624" y="14144"/>
  <object id="1791" name="Wall G1_N" x="2816" y="14144"/>
  <object id="1792" name="Wall G1_S" x="3008" y="14144"/>
  <object id="1793" name="Wall G1_W" x="3200" y="14144"/>
  <object id="1794" name="Wall G2_E" x="3392" y="14144"/>
  <object id="1795" name="Wall G2_N" x="3584" y="14144"/>
  <object id="1796" name="Wall G2_S" x="3776" y="14144"/>
  <object id="1797" name="Wall G2_W" x="3968" y="14144"/>
  <object id="1798" name="Wall G3_E" x="4160" y="14144"/>
  <object id="1799" name="Wall G3_N" x="4352" y="14144"/>
  <object id="1800" name="Wall G3_S" x="4544" y="14144"/>
  <object id="1801" name="Wall G3_W" x="4736" y="14144"/>
  <object id="1802" name="Wall G4_E" x="4928" y="14144"/>
  <object id="1803" name="Wall G4_N" x="5120" y="14144"/>
  <object id="1804" name="Wall G4_S" x="5312" y="14144"/>
  <object id="1805" name="Wall G4_W" x="5504" y="14144"/>
  <object id="1806" name="Wall G5_E" x="5696" y="14144"/>
  <object id="1807" name="Wall G5_N" x="5888" y="14144"/>
  <object id="1808" name="Wall G5_S" x="6080" y="14144"/>
  <object id="1809" name="Wall G5_W" x="6272" y="14144"/>
  <object id="1810" name="Wall G6_E" x="6464" y="14144"/>
  <object id="1811" name="Wall G6_N" x="6656" y="14144"/>
  <object id="1812" name="Wall G6_S" x="6848" y="14144"/>
  <object id="1813" name="Wall G6_W" x="7040" y="14144"/>
  <object id="1814" name="Wall G7_E" x="7232" y="14144"/>
  <object id="1815" name="Wall G7_N" x="7424" y="14144"/>
  <object id="1816" name="Wall G7_S" x="7616" y="14144"/>
  <object id="1817" name="Wall G7_W" x="7808" y="14144"/>
  <object id="1818" name="Wall G8_E" x="320" y="14336"/>
  <object id="1819" name="Wall G8_N" x="512" y="14336"/>
  <object id="1820" name="Wall G8_S" x="704" y="14336"/>
  <object id="1821" name="Wall G8_W" x="896" y="14336"/>
  <object id="1822" name="Wall G9_E" x="1088" y="14336"/>
  <object id="1823" name="Wall G9_N" x="1280" y="14336"/>
  <object id="1824" name="Wall G9_S" x="1472" y="14336"/>
  <object id="1825" name="Wall G9_W" x="1664" y="14336"/>
  <object id="1826" name="Wall G10_E" x="1856" y="14336"/>
  <object id="1827" name="Wall G10_N" x="2048" y="14336"/>
  <object id="1828" name="Wall G10_S" x="2240" y="14336"/>
  <object id="1829" name="Wall G10_W" x="2432" y="14336"/>
  <object id="1830" name="Wall G11_E" x="2624" y="14336"/>
  <object id="1831" name="Wall G11_N" x="2816" y="14336"/>
  <object id="1832" name="Wall G11_S" x="3008" y="14336"/>
  <object id="1833" name="Wall G11_W" x="3200" y="14336"/>
  <object id="1834" name="ENVIRONMENT / WALLFLORA" x="256" y="14656"/>
  <object id="1835" name="WallFlora A1_E" x="320" y="14912"/>
  <object id="1836" name="WallFlora A1_N" x="512" y="14912"/>
  <object id="1837" name="WallFlora A1_S" x="704" y="14912"/>
  <object id="1838" name="WallFlora A1_W" x="896" y="14912"/>
  <object id="1839" name="WallFlora A2_E" x="1088" y="14912"/>
  <object id="1840" name="WallFlora A2_N" x="1280" y="14912"/>
  <object id="1841" name="WallFlora A2_S" x="1472" y="14912"/>
  <object id="1842" name="WallFlora A2_W" x="1664" y="14912"/>
  <object id="1843" name="WallFlora A3_E" x="1856" y="14912"/>
  <object id="1844" name="WallFlora A3_N" x="2048" y="14912"/>
  <object id="1845" name="WallFlora A3_S" x="2240" y="14912"/>
  <object id="1846" name="WallFlora A3_W" x="2432" y="14912"/>
  <object id="1847" name="WallFlora A4_E" x="2624" y="14912"/>
  <object id="1848" name="WallFlora A4_N" x="2816" y="14912"/>
  <object id="1849" name="WallFlora A4_S" x="3008" y="14912"/>
  <object id="1850" name="WallFlora A4_W" x="3200" y="14912"/>
  <object id="1851" name="WallFlora A5_E" x="3392" y="14912"/>
  <object id="1852" name="WallFlora A5_N" x="3584" y="14912"/>
  <object id="1853" name="WallFlora A5_S" x="3776" y="14912"/>
  <object id="1854" name="WallFlora A5_W" x="3968" y="14912"/>
  <object id="1855" name="WallFlora A6_E" x="4160" y="14912"/>
  <object id="1856" name="WallFlora A6_N" x="4352" y="14912"/>
  <object id="1857" name="WallFlora A6_S" x="4544" y="14912"/>
  <object id="1858" name="WallFlora A6_W" x="4736" y="14912"/>
  <object id="1859" name="WallFlora A7_E" x="4928" y="14912"/>
  <object id="1860" name="WallFlora A7_N" x="5120" y="14912"/>
  <object id="1861" name="WallFlora A7_S" x="5312" y="14912"/>
  <object id="1862" name="WallFlora A7_W" x="5504" y="14912"/>
  <object id="1863" name="WallFlora A8_E" x="5696" y="14912"/>
  <object id="1864" name="WallFlora A8_N" x="5888" y="14912"/>
  <object id="1865" name="WallFlora A8_S" x="6080" y="14912"/>
  <object id="1866" name="WallFlora A8_W" x="6272" y="14912"/>
  <object id="1867" name="WallFlora A9_E" x="6464" y="14912"/>
  <object id="1868" name="WallFlora A9_N" x="6656" y="14912"/>
  <object id="1869" name="WallFlora A9_S" x="6848" y="14912"/>
  <object id="1870" name="WallFlora A9_W" x="7040" y="14912"/>
  <object id="1871" name="WallFlora A10_E" x="7232" y="14912"/>
  <object id="1872" name="WallFlora A10_N" x="7424" y="14912"/>
  <object id="1873" name="WallFlora A10_S" x="7616" y="14912"/>
  <object id="1874" name="WallFlora A10_W" x="7808" y="14912"/>
  <object id="1875" name="WallFlora A11_E" x="320" y="15104"/>
  <object id="1876" name="WallFlora A11_N" x="512" y="15104"/>
  <object id="1877" name="WallFlora A11_S" x="704" y="15104"/>
  <object id="1878" name="WallFlora A11_W" x="896" y="15104"/>
  <object id="1879" name="WallFlora A12_E" x="1088" y="15104"/>
  <object id="1880" name="WallFlora A12_N" x="1280" y="15104"/>
  <object id="1881" name="WallFlora A12_S" x="1472" y="15104"/>
  <object id="1882" name="WallFlora A12_W" x="1664" y="15104"/>
  <object id="1883" name="WallFlora A13_E" x="1856" y="15104"/>
  <object id="1884" name="WallFlora A13_N" x="2048" y="15104"/>
  <object id="1885" name="WallFlora A13_S" x="2240" y="15104"/>
  <object id="1886" name="WallFlora A13_W" x="2432" y="15104"/>
  <object id="1887" name="WallFlora A14_E" x="2624" y="15104"/>
  <object id="1888" name="WallFlora A14_N" x="2816" y="15104"/>
  <object id="1889" name="WallFlora A14_S" x="3008" y="15104"/>
  <object id="1890" name="WallFlora A14_W" x="3200" y="15104"/>
  <object id="1891" name="ANIMATIONS / ANIMATED TILES" x="256" y="15424"/>
  <object id="1892" name="Water Ripples 1" x="320" y="15680"/>
  <object id="1893" name="Water Ripples 2" x="512" y="15680"/>
  <object id="1894" name="Water Ripples 3" x="704" y="15680"/>
  <object id="1895" name="Water Ripples 4" x="896" y="15680"/>
  <object id="1896" name="Water Ripples 5" x="1088" y="15680"/>
  <object id="1897" name="Water Ripples 6" x="1280" y="15680"/>
  <object id="1898" name="Water Ripples 7" x="1472" y="15680"/>
  <object id="1899" name="Water Ripples 8" x="1664" y="15680"/>
  <object id="1900" name="Water Ripples 9" x="1856" y="15680"/>
  <object id="1901" name="Water Ripples 10" x="2048" y="15680"/>
  <object id="1902" name="Water Ripples 11" x="2240" y="15680"/>
  <object id="1903" name="Water Ripples 12" x="2432" y="15680"/>
  <object id="1904" name="Water Ripples 13" x="2624" y="15680"/>
  <object id="1905" name="WindMill1" x="2816" y="15680"/>
  <object id="1906" name="WindMill2" x="3008" y="15680"/>
  <object id="1907" name="ANIMATIONS / DESTRUCTIBLE TILES" x="256" y="16000"/>
  <object id="1908" name="Clay explosion" x="320" y="16256"/>
  <object id="1909" name="grass explosion large" x="512" y="16256"/>
  <object id="1910" name="Grass explosion small" x="704" y="16256"/>
  <object id="1911" name="Stone damage" x="896" y="16256"/>
  <object id="1912" name="stone explosion large" x="1088" y="16256"/>
  <object id="1913" name="stone explosion Small" x="1280" y="16256"/>
  <object id="1914" name="straw explosion" x="1472" y="16256"/>
  <object id="1915" name="Tree Green Explosion" x="1664" y="16256"/>
  <object id="1916" name="Tree Yellow Explosion" x="1856" y="16256"/>
  <object id="1917" name="Wall Stone explosion" x="2048" y="16256"/>
  <object id="1918" name="Wall Wood explosion Small" x="2240" y="16256"/>
  <object id="1919" name="Wall Wood explotion Large" x="2432" y="16256"/>
  <object id="1920" name="Wall wood+stone explosion" x="2624" y="16256"/>
  <object id="1921" name="Wood damage" x="2816" y="16256"/>
  <object id="1922" name="wood explosion large" x="3008" y="16256"/>
  <object id="1923" name="wood explosion Small" x="3200" y="16256"/>
  <object id="1924" name="Wood roof explosion" x="3392" y="16256"/>
  <object id="1925" name="ANIMATIONS / EFFECTS" x="256" y="16576"/>
  <object id="1926" name="AoE" x="320" y="16832"/>
  <object id="1927" name="Bolt" x="512" y="16832"/>
  <object id="1928" name="Buff1" x="704" y="16832"/>
  <object id="1929" name="Buff2" x="896" y="16832"/>
  <object id="1930" name="Buff3" x="1088" y="16832"/>
  <object id="1931" name="Buff4" x="1280" y="16832"/>
  <object id="1932" name="Buff5 6" x="1472" y="16832"/>
  <object id="1933" name="Buff7 8" x="1664" y="16832"/>
  <object id="1934" name="Buff9" x="1856" y="16832"/>
  <object id="1935" name="Buff10" x="2048" y="16832"/>
  <object id="1936" name="Cone" x="2240" y="16832"/>
  <object id="1937" name="Dash" x="2432" y="16832"/>
  <object id="1938" name="Hook" x="2624" y="16832"/>
  <object id="1939" name="LevelUp" x="2816" y="16832"/>
  <object id="1940" name="ANIMATIONS / PROPS" x="256" y="17152"/>
  <object id="1941" name="Barrel 1" x="320" y="17408"/>
  <object id="1942" name="Barrel 2" x="512" y="17408"/>
  <object id="1943" name="Barrel 3" x="704" y="17408"/>
  <object id="1944" name="Fire" x="896" y="17408"/>
  <object id="1945" name="Fire2" x="1088" y="17408"/>
  <object id="1946" name="Gas" x="1280" y="17408"/>
  <object id="1947" name="PortalIdle" x="1472" y="17408"/>
  <object id="1948" name="PortalOpen" x="1664" y="17408"/>
  <object id="1949" name="Skeleton explosion" x="1856" y="17408"/>
  <object id="1950" name="Torch 1" x="2048" y="17408"/>
  <object id="1951" name="Turret1" x="2240" y="17408"/>
  <object id="1952" name="OTHER EFFECTS" x="256" y="17728"/>
  <object id="1953" name="AoEFire" x="320" y="17984"/>
  <object id="1954" name="Cloud1" x="512" y="17984"/>
  <object id="1955" name="Cloud2" x="704" y="17984"/>
  <object id="1956" name="Cloud3" x="896" y="17984"/>
  <object id="1957" name="DashLine" x="1088" y="17984"/>
  <object id="1958" name="GodRay" x="1280" y="17984"/>
  <object id="1959" name="ItemRay" x="1472" y="17984"/>
  <object id="1960" name="CHARACTERS / ENEMY 1" x="256" y="18304"/>
  <object id="1961" name="Attack1 (8 directions)" x="320" y="18560"/>
  <object id="1962" name="Attack2 (8 directions)" x="512" y="18560"/>
  <object id="1963" name="Attack3 (8 directions)" x="704" y="18560"/>
  <object id="1964" name="Attack4 (8 directions)" x="896" y="18560"/>
  <object id="1965" name="Attack5 (8 directions)" x="1088" y="18560"/>
  <object id="1966" name="AttackRun2 (8 directions)" x="1280" y="18560"/>
  <object id="1967" name="AttackRun (8 directions)" x="1472" y="18560"/>
  <object id="1968" name="CrouchIdle (8 directions)" x="1664" y="18560"/>
  <object id="1969" name="CrouchRun (8 directions)" x="1856" y="18560"/>
  <object id="1970" name="Die (8 directions)" x="2048" y="18560"/>
  <object id="1971" name="Idle2 (8 directions)" x="2240" y="18560"/>
  <object id="1972" name="Idle3 (8 directions)" x="2432" y="18560"/>
  <object id="1973" name="Idle4 (8 directions)" x="2624" y="18560"/>
  <object id="1974" name="Idle (8 directions)" x="2816" y="18560"/>
  <object id="1975" name="RideIdle (8 directions)" x="3008" y="18560"/>
  <object id="1976" name="RideRun (8 directions)" x="3200" y="18560"/>
  <object id="1977" name="Run (8 directions)" x="3392" y="18560"/>
  <object id="1978" name="RunBackwards (8 directions)" x="3584" y="18560"/>
  <object id="1979" name="Special1 (8 directions)" x="3776" y="18560"/>
  <object id="1980" name="StrafeLeft (8 directions)" x="3968" y="18560"/>
  <object id="1981" name="StrafeRight (8 directions)" x="4160" y="18560"/>
  <object id="1982" name="TakeDamage (8 directions)" x="4352" y="18560"/>
  <object id="1983" name="Taunt (8 directions)" x="4544" y="18560"/>
  <object id="1984" name="Walk (8 directions)" x="4736" y="18560"/>
  <object id="1985" name="CHARACTERS / ENEMY 2" x="256" y="18880"/>
  <object id="1986" name="Attack1 (8 directions)" x="320" y="19136"/>
  <object id="1987" name="Attack2 (8 directions)" x="512" y="19136"/>
  <object id="1988" name="Attack3 (8 directions)" x="704" y="19136"/>
  <object id="1989" name="Attack4 (8 directions)" x="896" y="19136"/>
  <object id="1990" name="Attack5 (8 directions)" x="1088" y="19136"/>
  <object id="1991" name="AttackRun2 (8 directions)" x="1280" y="19136"/>
  <object id="1992" name="AttackRun (8 directions)" x="1472" y="19136"/>
  <object id="1993" name="CrouchIdle (8 directions)" x="1664" y="19136"/>
  <object id="1994" name="CrouchRun (8 directions)" x="1856" y="19136"/>
  <object id="1995" name="Die (8 directions)" x="2048" y="19136"/>
  <object id="1996" name="Idle2 (8 directions)" x="2240" y="19136"/>
  <object id="1997" name="Idle3 (8 directions)" x="2432" y="19136"/>
  <object id="1998" name="Idle4 (8 directions)" x="2624" y="19136"/>
  <object id="1999" name="Idle (8 directions)" x="2816" y="19136"/>
  <object id="2000" name="RideIdle (8 directions)" x="3008" y="19136"/>
  <object id="2001" name="RideRun (8 directions)" x="3200" y="19136"/>
  <object id="2002" name="Run (8 directions)" x="3392" y="19136"/>
  <object id="2003" name="RunBackwards (8 directions)" x="3584" y="19136"/>
  <object id="2004" name="Special1 (8 directions)" x="3776" y="19136"/>
  <object id="2005" name="StrafeLeft (8 directions)" x="3968" y="19136"/>
  <object id="2006" name="StrafeRight (8 directions)" x="4160" y="19136"/>
  <object id="2007" name="TakeDamage (8 directions)" x="4352" y="19136"/>
  <object id="2008" name="Taunt (8 directions)" x="4544" y="19136"/>
  <object id="2009" name="Walk (8 directions)" x="4736" y="19136"/>
  <object id="2010" name="CHARACTERS / ENEMY 3" x="256" y="19456"/>
  <object id="2011" name="Attack1 (8 directions)" x="320" y="19712"/>
  <object id="2012" name="Attack2 (8 directions)" x="512" y="19712"/>
  <object id="2013" name="Attack3 (8 directions)" x="704" y="19712"/>
  <object id="2014" name="Attack4 (8 directions)" x="896" y="19712"/>
  <object id="2015" name="Attack5 (8 directions)" x="1088" y="19712"/>
  <object id="2016" name="AttackRun2 (8 directions)" x="1280" y="19712"/>
  <object id="2017" name="AttackRun (8 directions)" x="1472" y="19712"/>
  <object id="2018" name="CrouchIdle (8 directions)" x="1664" y="19712"/>
  <object id="2019" name="CrouchRun (8 directions)" x="1856" y="19712"/>
  <object id="2020" name="Die (8 directions)" x="2048" y="19712"/>
  <object id="2021" name="Idle2 (8 directions)" x="2240" y="19712"/>
  <object id="2022" name="Idle3 (8 directions)" x="2432" y="19712"/>
  <object id="2023" name="Idle4 (8 directions)" x="2624" y="19712"/>
  <object id="2024" name="Idle (8 directions)" x="2816" y="19712"/>
  <object id="2025" name="RideIdle (8 directions)" x="3008" y="19712"/>
  <object id="2026" name="RideRun (8 directions)" x="3200" y="19712"/>
  <object id="2027" name="Run (8 directions)" x="3392" y="19712"/>
  <object id="2028" name="RunBackwards (8 directions)" x="3584" y="19712"/>
  <object id="2029" name="Special1 (8 directions)" x="3776" y="19712"/>
  <object id="2030" name="StrafeLeft (8 directions)" x="3968" y="19712"/>
  <object id="2031" name="StrafeRight (8 directions)" x="4160" y="19712"/>
  <object id="2032" name="TakeDamage (8 directions)" x="4352" y="19712"/>
  <object id="2033" name="Taunt (8 directions)" x="4544" y="19712"/>
  <object id="2034" name="Walk (8 directions)" x="4736" y="19712"/>
  <object id="2035" name="CHARACTERS / NPC1" x="256" y="20032"/>
  <object id="2036" name="Attack1 (8 directions)" x="320" y="20288"/>
  <object id="2037" name="Attack2 (8 directions)" x="512" y="20288"/>
  <object id="2038" name="Attack3 (8 directions)" x="704" y="20288"/>
  <object id="2039" name="Attack4 (8 directions)" x="896" y="20288"/>
  <object id="2040" name="Attack5 (8 directions)" x="1088" y="20288"/>
  <object id="2041" name="AttackRun2 (8 directions)" x="1280" y="20288"/>
  <object id="2042" name="AttackRun (8 directions)" x="1472" y="20288"/>
  <object id="2043" name="CrouchIdle (8 directions)" x="1664" y="20288"/>
  <object id="2044" name="CrouchRun (8 directions)" x="1856" y="20288"/>
  <object id="2045" name="Die (8 directions)" x="2048" y="20288"/>
  <object id="2046" name="Idle2 (8 directions)" x="2240" y="20288"/>
  <object id="2047" name="Idle3 (8 directions)" x="2432" y="20288"/>
  <object id="2048" name="Idle4 (8 directions)" x="2624" y="20288"/>
  <object id="2049" name="Idle (8 directions)" x="2816" y="20288"/>
  <object id="2050" name="RideIdle (8 directions)" x="3008" y="20288"/>
  <object id="2051" name="RideRun (8 directions)" x="3200" y="20288"/>
  <object id="2052" name="Run (8 directions)" x="3392" y="20288"/>
  <object id="2053" name="RunBackwards (8 directions)" x="3584" y="20288"/>
  <object id="2054" name="Special1 (8 directions)" x="3776" y="20288"/>
  <object id="2055" name="StrafeLeft (8 directions)" x="3968" y="20288"/>
  <object id="2056" name="StrafeRight (8 directions)" x="4160" y="20288"/>
  <object id="2057" name="TakeDamage (8 directions)" x="4352" y="20288"/>
  <object id="2058" name="Taunt (8 directions)" x="4544" y="20288"/>
  <object id="2059" name="Walk (8 directions)" x="4736" y="20288"/>
  <object id="2060" name="CHARACTERS / NPC2" x="256" y="20608"/>
  <object id="2061" name="Attack1 (8 directions)" x="320" y="20864"/>
  <object id="2062" name="Attack2 (8 directions)" x="512" y="20864"/>
  <object id="2063" name="Attack3 (8 directions)" x="704" y="20864"/>
  <object id="2064" name="Attack4 (8 directions)" x="896" y="20864"/>
  <object id="2065" name="Attack5 (8 directions)" x="1088" y="20864"/>
  <object id="2066" name="AttackRun2 (8 directions)" x="1280" y="20864"/>
  <object id="2067" name="AttackRun (8 directions)" x="1472" y="20864"/>
  <object id="2068" name="CrouchIdle (8 directions)" x="1664" y="20864"/>
  <object id="2069" name="CrouchRun (8 directions)" x="1856" y="20864"/>
  <object id="2070" name="Die (8 directions)" x="2048" y="20864"/>
  <object id="2071" name="Idle2 (8 directions)" x="2240" y="20864"/>
  <object id="2072" name="Idle3 (8 directions)" x="2432" y="20864"/>
  <object id="2073" name="Idle4 (8 directions)" x="2624" y="20864"/>
  <object id="2074" name="Idle (8 directions)" x="2816" y="20864"/>
  <object id="2075" name="RideIdle (8 directions)" x="3008" y="20864"/>
  <object id="2076" name="RideRun (8 directions)" x="3200" y="20864"/>
  <object id="2077" name="Run (8 directions)" x="3392" y="20864"/>
  <object id="2078" name="RunBackwards (8 directions)" x="3584" y="20864"/>
  <object id="2079" name="Special1 (8 directions)" x="3776" y="20864"/>
  <object id="2080" name="StrafeLeft (8 directions)" x="3968" y="20864"/>
  <object id="2081" name="StrafeRight (8 directions)" x="4160" y="20864"/>
  <object id="2082" name="TakeDamage (8 directions)" x="4352" y="20864"/>
  <object id="2083" name="Taunt (8 directions)" x="4544" y="20864"/>
  <object id="2084" name="Walk (8 directions)" x="4736" y="20864"/>
  <object id="2085" name="CHARACTERS / NPC3" x="256" y="21184"/>
  <object id="2086" name="Attack1 (8 directions)" x="320" y="21440"/>
  <object id="2087" name="Attack2 (8 directions)" x="512" y="21440"/>
  <object id="2088" name="Attack3 (8 directions)" x="704" y="21440"/>
  <object id="2089" name="Attack4 (8 directions)" x="896" y="21440"/>
  <object id="2090" name="Attack5 (8 directions)" x="1088" y="21440"/>
  <object id="2091" name="AttackRun2 (8 directions)" x="1280" y="21440"/>
  <object id="2092" name="AttackRun (8 directions)" x="1472" y="21440"/>
  <object id="2093" name="CrouchIdle (8 directions)" x="1664" y="21440"/>
  <object id="2094" name="CrouchRun (8 directions)" x="1856" y="21440"/>
  <object id="2095" name="Die (8 directions)" x="2048" y="21440"/>
  <object id="2096" name="Idle2 (8 directions)" x="2240" y="21440"/>
  <object id="2097" name="Idle3 (8 directions)" x="2432" y="21440"/>
  <object id="2098" name="Idle4 (8 directions)" x="2624" y="21440"/>
  <object id="2099" name="Idle (8 directions)" x="2816" y="21440"/>
  <object id="2100" name="RideIdle (8 directions)" x="3008" y="21440"/>
  <object id="2101" name="RideRun (8 directions)" x="3200" y="21440"/>
  <object id="2102" name="Run (8 directions)" x="3392" y="21440"/>
  <object id="2103" name="RunBackwards (8 directions)" x="3584" y="21440"/>
  <object id="2104" name="Special1 (8 directions)" x="3776" y="21440"/>
  <object id="2105" name="StrafeLeft (8 directions)" x="3968" y="21440"/>
  <object id="2106" name="StrafeRight (8 directions)" x="4160" y="21440"/>
  <object id="2107" name="TakeDamage (8 directions)" x="4352" y="21440"/>
  <object id="2108" name="Taunt (8 directions)" x="4544" y="21440"/>
  <object id="2109" name="Walk (8 directions)" x="4736" y="21440"/>
  <object id="2110" name="CHARACTERS / PLAYER" x="256" y="21760"/>
  <object id="2111" name="Attack1 (8 directions)" x="320" y="22016"/>
  <object id="2112" name="Attack2 (8 directions)" x="512" y="22016"/>
  <object id="2113" name="Attack3 (8 directions)" x="704" y="22016"/>
  <object id="2114" name="Attack4 (8 directions)" x="896" y="22016"/>
  <object id="2115" name="Attack5 (8 directions)" x="1088" y="22016"/>
  <object id="2116" name="AttackRun2 (8 directions)" x="1280" y="22016"/>
  <object id="2117" name="AttackRun (8 directions)" x="1472" y="22016"/>
  <object id="2118" name="CrouchIdle (8 directions)" x="1664" y="22016"/>
  <object id="2119" name="CrouchRun (8 directions)" x="1856" y="22016"/>
  <object id="2120" name="Die (8 directions)" x="2048" y="22016"/>
  <object id="2121" name="Idle2 (8 directions)" x="2240" y="22016"/>
  <object id="2122" name="Idle3 (8 directions)" x="2432" y="22016"/>
  <object id="2123" name="Idle4 (8 directions)" x="2624" y="22016"/>
  <object id="2124" name="Idle (8 directions)" x="2816" y="22016"/>
  <object id="2125" name="RideIdle (8 directions)" x="3008" y="22016"/>
  <object id="2126" name="RideRun (8 directions)" x="3200" y="22016"/>
  <object id="2127" name="Run (8 directions)" x="3392" y="22016"/>
  <object id="2128" name="RunBackwards (8 directions)" x="3584" y="22016"/>
  <object id="2129" name="Special1 (8 directions)" x="3776" y="22016"/>
  <object id="2130" name="StrafeLeft (8 directions)" x="3968" y="22016"/>
  <object id="2131" name="StrafeRight (8 directions)" x="4160" y="22016"/>
  <object id="2132" name="TakeDamage (8 directions)" x="4352" y="22016"/>
  <object id="2133" name="Taunt (8 directions)" x="4544" y="22016"/>
  <object id="2134" name="Walk (8 directions)" x="4736" y="22016"/>
  <object id="2155" name="Portal A" x="875.782" y="684.614">
   <point/>
  </object>
  <object id="2167" name="Portal To Spawn" x="609.412" y="18260">
   <point/>
  </object>
  <object id="2168" x="696.131" y="18211.9">
   <point/>
  </object>
 </objectgroup>
 <layer id="2" name="Floor" width="128" height="353">
  <data encoding="csv">
1,1,1,1,1,1,1,1,1,1,1,1,1,1,1,1,1,1,1,1,1,1,1,1,1,1,1,1,1,1,1,1,1,1,1,1,1,1,1,1,1,1,1,1,1,1,1,1,1,1,1,1,1,1,1,1,1,1,1,1,1,1,1,1,1,1,1,1,1,1,1,1,1,1,1,1,1,1,1,1,1,1,1,1,1,1,1,1,1,1,1,1,1,1,1,1,1,1,1,1,1,1,1,1,1,1,1,1,1,1,1,1,1,1,1,1,1,1,1,1,1,1,1,1,1,1,1,1,
1,1,1,1,1,1,1,1,1,1,1,1,1,1,1,1,1,1,1,1,1,1,1,1,1,1,1,1,1,1,1,1,1,1,1,1,1,1,1,1,1,1,1,1,1,1,1,1,1,1,1,1,1,1,1,1,1,1,1,1,1,1,1,1,1,1,1,1,1,1,1,1,1,1,1,1,1,1,1,1,1,1,1,1,1,1,1,1,1,1,1,1,1,1,1,1,1,1,1,1,1,1,1,1,1,1,1,1,1,1,1,1,1,1,1,1,1,1,1,1,1,1,1,1,1,1,1,1,
1,1,1,1,1,1,1,1,1,1,1,1,1,1,1,1,1,1,1,1,1,1,1,1,1,1,1,1,1,1,1,1,1,1,1,1,1,1,1,1,1,1,1,1,1,1,1,1,1,1,1,1,1,1,1,1,1,1,1,1,1,1,1,1,1,1,1,1,1,1,1,1,1,1,1,1,1,1,1,1,1,1,1,1,1,1,1,1,1,1,1,1,1,1,1,1,1,1,1,1,1,1,1,1,1,1,1,1,1,1,1,1,1,1,1,1,1,1,1,1,1,1,1,1,1,1,1,1,
1,1,1,1,1,1,1,1,1,1,1,1,1,1,1,1,1,1,1,1,1,1,1,1,1,1,1,1,1,1,1,1,1,1,1,1,1,1,1,1,1,1,1,1,1,1,1,1,1,1,1,1,1,1,1,1,1,1,1,1,1,1,1,1,1,1,1,1,1,1,1,1,1,1,1,1,1,1,1,1,1,1,1,1,1,1,1,1,1,1,1,1,1,1,1,1,1,1,1,1,1,1,1,1,1,1,1,1,1,1,1,1,1,1,1,1,1,1,1,1,1,1,1,1,1,1,1,1,
1,1,1,1,1,1,1,1,1,1,1,1,1,1,1,1,1,1,1,1,1,1,1,1,1,1,1,1,1,1,1,1,1,1,1,1,1,1,1,1,1,1,1,1,1,1,1,1,1,1,1,1,1,1,1,1,1,1,1,1,1,1,1,1,1,1,1,1,1,1,1,1,1,1,1,1,1,1,1,1,1,1,1,1,1,1,1,1,1,1,1,1,1,1,1,1,1,1,1,1,1,1,1,1,1,1,1,1,1,1,1,1,1,1,1,1,1,1,1,1,1,1,1,1,1,1,1,1,
1,1,1,1,1,1,1,1,1,1,1,1,1,1,1,1,1,1,1,1,1,1,1,1,1,1,1,1,1,1,1,1,1,1,1,1,1,1,1,1,1,1,1,1,1,1,1,1,1,1,1,1,1,1,1,1,1,1,1,1,1,1,1,1,1,1,1,1,1,1,1,1,1,1,1,1,1,1,1,1,1,1,1,1,1,1,1,1,1,1,1,1,1,1,1,1,1,1,1,1,1,1,1,1,1,1,1,1,1,1,1,1,1,1,1,1,1,1,1,1,1,1,1,1,1,1,1,1,
1,1,1,1,1,1,1,1,1,1,1,1,1,1,1,1,1,1,1,1,1,1,1,1,1,1,1,1,1,1,1,1,1,1,1,1,1,1,1,1,1,1,1,1,1,1,1,1,1,1,1,1,1,1,1,1,1,1,1,1,1,1,1,1,1,1,1,1,1,1,1,1,1,1,1,1,1,1,1,1,1,1,1,1,1,1,1,1,1,1,1,1,1,1,1,1,1,1,1,1,1,1,1,1,1,1,1,1,1,1,1,1,1,1,1,1,1,1,1,1,1,1,1,1,1,1,1,1,
1,1,1,1,1,1,1,1,1,1,1,1,1,1,1,1,1,1,1,1,1,1,1,1,1,1,1,1,1,1,1,1,1,1,1,1,1,1,1,1,1,1,1,1,1,1,1,1,1,1,1,1,1,1,1,1,1,1,1,1,1,1,1,1,1,1,1,1,1,1,1,1,1,1,1,1,1,1,1,1,1,1,1,1,1,1,1,1,1,1,1,1,1,1,1,1,1,1,1,1,1,1,1,1,1,1,1,1,1,1,1,1,1,1,1,1,1,1,1,1,1,1,1,1,1,1,1,1,
1,1,1,1,1,1,1,1,1,1,1,1,1,1,1,1,1,1,1,1,1,1,1,1,1,1,1,1,1,1,1,1,1,1,1,1,1,1,1,1,1,1,1,1,1,1,1,1,1,1,1,1,1,1,1,1,1,1,1,1,1,1,1,1,1,1,1,1,1,1,1,1,1,1,1,1,1,1,1,1,1,1,1,1,1,1,1,1,1,1,1,1,1,1,1,1,1,1,1,1,1,1,1,1,1,1,1,1,1,1,1,1,1,1,1,1,1,1,1,1,1,1,1,1,1,1,1,1,
1,1,1,1,1,1,1,1,1,1,1,1,1,1,1,1,1,1,1,1,1,1,1,1,1,1,1,1,1,1,1,1,1,1,1,1,1,1,1,1,1,1,1,1,1,1,1,1,1,1,1,1,1,1,1,1,1,1,1,1,1,1,1,1,1,1,1,1,1,1,1,1,1,1,1,1,1,1,1,1,1,1,1,1,1,1,1,1,1,1,1,1,1,1,1,1,1,1,1,1,1,1,1,1,1,1,1,1,1,1,1,1,1,1,1,1,1,1,1,1,1,1,1,1,1,1,1,1,
1,1,1,1,1,1,1,1,1,1,1,1,1,1,1,1,1,1,1,1,1,1,1,1,1,1,1,1,1,1,1,1,1,1,1,1,1,1,1,1,1,1,1,1,1,1,1,1,1,1,1,1,1,1,1,1,1,1,1,1,1,1,1,1,1,1,1,1,1,1,1,1,1,1,1,1,1,1,1,1,1,1,1,1,1,1,1,1,1,1,1,1,1,1,1,1,1,1,1,1,1,1,1,1,1,1,1,1,1,1,1,1,1,1,1,1,1,1,1,1,1,1,1,1,1,1,1,1,
1,1,1,1,1,1,1,1,1,1,1,1,1,1,1,1,1,1,1,1,1,1,1,1,1,1,1,1,1,1,1,1,1,1,1,1,1,1,1,1,1,1,1,1,1,1,1,1,1,1,1,1,1,1,1,1,1,1,1,1,1,1,1,1,1,1,1,1,1,1,1,1,1,1,1,1,1,1,1,1,1,1,1,1,1,1,1,1,1,1,1,1,1,1,1,1,1,1,1,1,1,1,1,1,1,1,1,1,1,1,1,1,1,1,1,1,1,1,1,1,1,1,1,1,1,1,1,1,
1,1,1,1,1,1,1,1,1,1,1,1,1,1,1,1,1,1,1,1,1,1,1,1,1,1,1,1,1,1,1,1,1,1,1,1,1,1,1,1,1,1,1,1,1,1,1,1,1,1,1,1,1,1,1,1,1,1,1,1,1,1,1,1,1,1,1,1,1,1,1,1,1,1,1,1,1,1,1,1,1,1,1,1,1,1,1,1,1,1,1,1,1,1,1,1,1,1,1,1,1,1,1,1,1,1,1,1,1,1,1,1,1,1,1,1,1,1,1,1,1,1,1,1,1,1,1,1,
1,1,1,1,1,1,1,1,1,1,1,1,1,1,1,1,1,1,1,1,1,1,1,1,1,1,1,1,1,1,1,1,1,1,1,1,1,1,1,1,1,1,1,1,1,1,1,1,1,1,1,1,1,1,1,1,1,1,1,1,1,1,1,1,1,1,1,1,1,1,1,1,1,1,1,1,1,1,1,1,1,1,1,1,1,1,1,1,1,1,1,1,1,1,1,1,1,1,1,1,1,1,1,1,1,1,1,1,1,1,1,1,1,1,1,1,1,1,1,1,1,1,1,1,1,1,1,1,
1,1,1,1,1,1,1,1,1,1,1,1,1,1,1,1,1,1,1,1,1,1,1,1,1,1,1,1,1,1,1,1,1,1,1,1,1,1,1,1,1,1,1,1,1,1,1,1,1,1,1,1,1,1,1,1,1,1,1,1,1,1,1,1,1,1,1,1,1,1,1,1,1,1,1,1,1,1,1,1,1,1,1,1,1,1,1,1,1,1,1,1,1,1,1,1,1,1,1,1,1,1,1,1,1,1,1,1,1,1,1,1,1,1,1,1,1,1,1,1,1,1,1,1,1,1,1,1,
1,1,1,1,1,1,1,1,1,1,1,1,1,1,1,1,1,1,1,1,1,1,1,1,1,1,1,1,1,1,1,1,1,1,1,1,1,1,1,1,1,1,1,1,1,1,1,1,1,1,1,1,1,1,1,1,1,1,1,1,1,1,1,1,1,1,1,1,1,1,1,1,1,1,1,1,1,1,1,1,1,1,1,1,1,1,1,1,1,1,1,1,1,1,1,1,1,1,1,1,1,1,1,1,1,1,1,1,1,1,1,1,1,1,1,1,1,1,1,1,1,1,1,1,1,1,1,1,
1,1,1,1,1,1,1,1,1,1,1,1,1,1,1,1,1,1,1,1,1,1,1,1,1,1,1,1,1,1,1,1,1,1,1,1,1,1,1,1,1,1,1,1,1,1,1,1,1,1,1,1,1,1,1,1,1,1,1,1,1,1,1,1,1,1,1,1,1,1,1,1,1,1,1,1,1,1,1,1,1,1,1,1,1,1,1,1,1,1,1,1,1,1,1,1,1,1,1,1,1,1,1,1,1,1,1,1,1,1,1,1,1,1,1,1,1,1,1,1,1,1,1,1,1,1,1,1,
1,1,1,1,1,1,1,1,1,1,1,1,1,1,1,1,1,1,1,1,1,1,1,1,1,1,1,1,1,1,1,1,1,1,1,1,1,1,1,1,1,1,1,1,1,1,1,1,1,1,1,1,1,1,1,1,1,1,1,1,1,1,1,1,1,1,1,1,1,1,1,1,1,1,1,1,1,1,1,1,1,1,1,1,1,1,1,1,1,1,1,1,1,1,1,1,1,1,1,1,1,1,1,1,1,1,1,1,1,1,1,1,1,1,1,1,1,1,1,1,1,1,1,1,1,1,1,1,
1,1,1,1,1,1,1,1,1,1,1,1,1,1,1,1,1,1,1,1,1,1,1,1,1,1,1,1,1,1,1,1,1,1,1,1,1,1,1,1,1,1,1,1,1,1,1,1,1,1,1,1,1,1,1,1,1,1,1,1,1,1,1,1,1,1,1,1,1,1,1,1,1,1,1,1,1,1,1,1,1,1,1,1,1,1,1,1,1,1,1,1,1,1,1,1,1,1,1,1,1,1,1,1,1,1,1,1,1,1,1,1,1,1,1,1,1,1,1,1,1,1,1,1,1,1,1,1,
1,1,1,1,1,1,1,1,1,1,1,1,1,1,1,1,1,1,1,1,1,1,1,1,1,1,1,1,1,1,1,1,1,1,1,1,1,1,1,1,1,1,1,1,1,1,1,1,1,1,1,1,1,1,1,1,1,1,1,1,1,1,1,1,1,1,1,1,1,1,1,1,1,1,1,1,1,1,1,1,1,1,1,1,1,1,1,1,1,1,1,1,1,1,1,1,1,1,1,1,1,1,1,1,1,1,1,1,1,1,1,1,1,1,1,1,1,1,1,1,1,1,1,1,1,1,1,1,
1,1,1,1,1,1,1,1,1,1,1,1,1,1,1,1,1,1,1,1,1,1,1,1,1,1,1,1,1,1,1,1,1,1,1,1,1,1,1,1,1,1,1,1,1,1,1,1,1,1,1,1,1,1,1,1,1,1,1,1,1,1,1,1,1,1,1,1,1,1,1,1,1,1,1,1,1,1,1,1,1,1,1,1,1,1,1,1,1,1,1,1,1,1,1,1,1,1,1,1,1,1,1,1,1,1,1,1,1,1,1,1,1,1,1,1,1,1,1,1,1,1,1,1,1,1,1,1,
1,1,1,1,1,1,1,1,1,1,1,1,1,1,1,1,1,1,1,1,1,1,1,1,1,1,1,1,1,1,1,1,1,1,1,1,1,1,1,1,1,1,1,1,1,1,1,1,1,1,1,1,1,1,1,1,1,1,1,1,1,1,1,1,1,1,1,1,1,1,1,1,1,1,1,1,1,1,1,1,1,1,1,1,1,1,1,1,1,1,1,1,1,1,1,1,1,1,1,1,1,1,1,1,1,1,1,1,1,1,1,1,1,1,1,1,1,1,1,1,1,1,1,1,1,1,1,1,
1,1,1,1,1,1,1,1,1,1,1,1,1,1,1,1,1,1,1,1,1,1,1,1,1,1,1,1,1,1,1,1,1,1,1,1,1,1,1,1,1,1,1,1,1,1,1,1,1,1,1,1,1,1,1,1,1,1,1,1,1,1,1,1,1,1,1,1,1,1,1,1,1,1,1,1,1,1,1,1,1,1,1,1,1,1,1,1,1,1,1,1,1,1,1,1,1,1,1,1,1,1,1,1,1,1,1,1,1,1,1,1,1,1,1,1,1,1,1,1,1,1,1,1,1,1,1,1,
1,1,1,1,1,1,1,1,1,1,1,1,1,1,1,1,1,1,1,1,1,1,1,1,1,1,1,1,1,1,1,1,1,1,1,1,1,1,1,1,1,1,1,1,1,1,1,1,1,1,1,1,1,1,1,1,1,1,1,1,1,1,1,1,1,1,1,1,1,1,1,1,1,1,1,1,1,1,1,1,1,1,1,1,1,1,1,1,1,1,1,1,1,1,1,1,1,1,1,1,1,1,1,1,1,1,1,1,1,1,1,1,1,1,1,1,1,1,1,1,1,1,1,1,1,1,1,1,
1,1,1,1,1,1,1,1,1,1,1,1,1,1,1,1,1,1,1,1,1,1,1,1,1,1,1,1,1,1,1,1,1,1,1,1,1,1,1,1,1,1,1,1,1,1,1,1,1,1,1,1,1,1,1,1,1,1,1,1,1,1,1,1,1,1,1,1,1,1,1,1,1,1,1,1,1,1,1,1,1,1,1,1,1,1,1,1,1,1,1,1,1,1,1,1,1,1,1,1,1,1,1,1,1,1,1,1,1,1,1,1,1,1,1,1,1,1,1,1,1,1,1,1,1,1,1,1,
1,1,1,1,1,1,1,1,1,1,1,1,1,1,1,1,1,1,1,1,1,1,1,1,1,1,1,1,1,1,1,1,1,1,1,1,1,1,1,1,1,1,1,1,1,1,1,1,1,1,1,1,1,1,1,1,1,1,1,1,1,1,1,1,1,1,1,1,1,1,1,1,1,1,1,1,1,1,1,1,1,1,1,1,1,1,1,1,1,1,1,1,1,1,1,1,1,1,1,1,1,1,1,1,1,1,1,1,1,1,1,1,1,1,1,1,1,1,1,1,1,1,1,1,1,1,1,1,
1,1,1,1,1,1,1,1,1,1,1,1,1,1,1,1,1,1,1,1,1,1,1,1,1,1,1,1,1,1,1,1,1,1,1,1,1,1,1,1,1,1,1,1,1,1,1,1,1,1,1,1,1,1,1,1,1,1,1,1,1,1,1,1,1,1,1,1,1,1,1,1,1,1,1,1,1,1,1,1,1,1,1,1,1,1,1,1,1,1,1,1,1,1,1,1,1,1,1,1,1,1,1,1,1,1,1,1,1,1,1,1,1,1,1,1,1,1,1,1,1,1,1,1,1,1,1,1,
1,1,1,1,1,1,1,1,1,1,1,1,1,1,1,1,1,1,1,1,1,1,1,1,1,1,1,1,1,1,1,1,1,1,1,1,1,1,1,1,1,1,1,1,1,1,1,1,1,1,1,1,1,1,1,1,1,1,1,1,1,1,1,1,1,1,1,1,1,1,1,1,1,1,1,1,1,1,1,1,1,1,1,1,1,1,1,1,1,1,1,1,1,1,1,1,1,1,1,1,1,1,1,1,1,1,1,1,1,1,1,1,1,1,1,1,1,1,1,1,1,1,1,1,1,1,1,1,
1,1,1,1,1,1,1,1,1,1,1,1,1,1,1,1,1,1,1,1,1,1,1,1,1,1,1,1,1,1,1,1,1,1,1,1,1,1,1,1,1,1,1,1,1,1,1,1,1,1,1,1,1,1,1,1,1,1,1,1,1,1,1,1,1,1,1,1,1,1,1,1,1,1,1,1,1,1,1,1,1,1,1,1,1,1,1,1,1,1,1,1,1,1,1,1,1,1,1,1,1,1,1,1,1,1,1,1,1,1,1,1,1,1,1,1,1,1,1,1,1,1,1,1,1,1,1,1,
1,1,1,1,1,1,1,1,1,1,1,1,1,1,1,1,1,1,1,1,1,1,1,1,1,1,1,1,1,1,1,1,1,1,1,1,1,1,1,1,1,1,1,1,1,1,1,1,1,1,1,1,1,1,1,1,1,1,1,1,1,1,1,1,1,1,1,1,1,1,1,1,1,1,1,1,1,1,1,1,1,1,1,1,1,1,1,1,1,1,1,1,1,1,1,1,1,1,1,1,1,1,1,1,1,1,1,1,1,1,1,1,1,1,1,1,1,1,1,1,1,1,1,1,1,1,1,1,
1,1,1,1,1,1,1,1,1,1,1,1,1,1,1,1,1,1,1,1,1,1,1,1,1,1,1,1,1,1,1,1,1,1,1,1,1,1,1,1,1,1,1,1,1,1,1,1,1,1,1,1,1,1,1,1,1,1,1,1,1,1,1,1,1,1,1,1,1,1,1,1,1,1,1,1,1,1,1,1,1,1,1,1,1,1,1,1,1,1,1,1,1,1,1,1,1,1,1,1,1,1,1,1,1,1,1,1,1,1,1,1,1,1,1,1,1,1,1,1,1,1,1,1,1,1,1,1,
1,1,1,1,1,1,1,1,1,1,1,1,1,1,1,1,1,1,1,1,1,1,1,1,1,1,1,1,1,1,1,1,1,1,1,1,1,1,1,1,1,1,1,1,1,1,1,1,1,1,1,1,1,1,1,1,1,1,1,1,1,1,1,1,1,1,1,1,1,1,1,1,1,1,1,1,1,1,1,1,1,1,1,1,1,1,1,1,1,1,1,1,1,1,1,1,1,1,1,1,1,1,1,1,1,1,1,1,1,1,1,1,1,1,1,1,1,1,1,1,1,1,1,1,1,1,1,1,
1,1,1,1,1,1,1,1,1,1,1,1,1,1,1,1,1,1,1,1,1,1,1,1,1,1,1,1,1,1,1,1,1,1,1,1,1,1,1,1,1,1,1,1,1,1,1,1,1,1,1,1,1,1,1,1,1,1,1,1,1,1,1,1,1,1,1,1,1,1,1,1,1,1,1,1,1,1,1,1,1,1,1,1,1,1,1,1,1,1,1,1,1,1,1,1,1,1,1,1,1,1,1,1,1,1,1,1,1,1,1,1,1,1,1,1,1,1,1,1,1,1,1,1,1,1,1,1,
1,1,1,1,1,1,1,1,1,1,1,1,1,1,1,1,1,1,1,1,1,1,1,1,1,1,1,1,1,1,1,1,1,1,1,1,1,1,1,1,1,1,1,1,1,1,1,1,1,1,1,1,1,1,1,1,1,1,1,1,1,1,1,1,1,1,1,1,1,1,1,1,1,1,1,1,1,1,1,1,1,1,1,1,1,1,1,1,1,1,1,1,1,1,1,1,1,1,1,1,1,1,1,1,1,1,1,1,1,1,1,1,1,1,1,1,1,1,1,1,1,1,1,1,1,1,1,1,
1,1,1,1,1,1,1,1,1,1,1,1,1,1,1,1,1,1,1,1,1,1,1,1,1,1,1,1,1,1,1,1,1,1,1,1,1,1,1,1,1,1,1,1,1,1,1,1,1,1,1,1,1,1,1,1,1,1,1,1,1,1,1,1,1,1,1,1,1,1,1,1,1,1,1,1,1,1,1,1,1,1,1,1,1,1,1,1,1,1,1,1,1,1,1,1,1,1,1,1,1,1,1,1,1,1,1,1,1,1,1,1,1,1,1,1,1,1,1,1,1,1,1,1,1,1,1,1,
1,1,1,1,1,1,1,1,1,1,1,1,1,1,1,1,1,1,1,1,1,1,1,1,1,1,1,1,1,1,1,1,1,1,1,1,1,1,1,1,1,1,1,1,1,1,1,1,1,1,1,1,1,1,1,1,1,1,1,1,1,1,1,1,1,1,1,1,1,1,1,1,1,1,1,1,1,1,1,1,1,1,1,1,1,1,1,1,1,1,1,1,1,1,1,1,1,1,1,1,1,1,1,1,1,1,1,1,1,1,1,1,1,1,1,1,1,1,1,1,1,1,1,1,1,1,1,1,
1,1,1,1,1,1,1,1,1,1,1,1,1,1,1,1,1,1,1,1,1,1,1,1,1,1,1,1,1,1,1,1,1,1,1,1,1,1,1,1,1,1,1,1,1,1,1,1,1,1,1,1,1,1,1,1,1,1,1,1,1,1,1,1,1,1,1,1,1,1,1,1,1,1,1,1,1,1,1,1,1,1,1,1,1,1,1,1,1,1,1,1,1,1,1,1,1,1,1,1,1,1,1,1,1,1,1,1,1,1,1,1,1,1,1,1,1,1,1,1,1,1,1,1,1,1,1,1,
1,1,1,1,1,1,1,1,1,1,1,1,1,1,1,1,1,1,1,1,1,1,1,1,1,1,1,1,1,1,1,1,1,1,1,1,1,1,1,1,1,1,1,1,1,1,1,1,1,1,1,1,1,1,1,1,1,1,1,1,1,1,1,1,1,1,1,1,1,1,1,1,1,1,1,1,1,1,1,1,1,1,1,1,1,1,1,1,1,1,1,1,1,1,1,1,1,1,1,1,1,1,1,1,1,1,1,1,1,1,1,1,1,1,1,1,1,1,1,1,1,1,1,1,1,1,1,1,
1,1,1,1,1,1,1,1,1,1,1,1,1,1,1,1,1,1,1,1,1,1,1,1,1,1,1,1,1,1,1,1,1,1,1,1,1,1,1,1,1,1,1,1,1,1,1,1,1,1,1,1,1,1,1,1,1,1,1,1,1,1,1,1,1,1,1,1,1,1,1,1,1,1,1,1,1,1,1,1,1,1,1,1,1,1,1,1,1,1,1,1,1,1,1,1,1,1,1,1,1,1,1,1,1,1,1,1,1,1,1,1,1,1,1,1,1,1,1,1,1,1,1,1,1,1,1,1,
1,1,1,1,1,1,1,1,1,1,1,1,1,1,1,1,1,1,1,1,1,1,1,1,1,1,1,1,1,1,1,1,1,1,1,1,1,1,1,1,1,1,1,1,1,1,1,1,1,1,1,1,1,1,1,1,1,1,1,1,1,1,1,1,1,1,1,1,1,1,1,1,1,1,1,1,1,1,1,1,1,1,1,1,1,1,1,1,1,1,1,1,1,1,1,1,1,1,1,1,1,1,1,1,1,1,1,1,1,1,1,1,1,1,1,1,1,1,1,1,1,1,1,1,1,1,1,1,
1,1,1,1,1,1,1,1,1,1,1,1,1,1,1,1,1,1,1,1,1,1,1,1,1,1,1,1,1,1,1,1,1,1,1,1,1,1,1,1,1,1,1,1,1,1,1,1,1,1,1,1,1,1,1,1,1,1,1,1,1,1,1,1,1,1,1,1,1,1,1,1,1,1,1,1,1,1,1,1,1,1,1,1,1,1,1,1,1,1,1,1,1,1,1,1,1,1,1,1,1,1,1,1,1,1,1,1,1,1,1,1,1,1,1,1,1,1,1,1,1,1,1,1,1,1,1,1,
1,1,1,1,1,1,1,1,1,1,1,1,1,1,1,1,1,1,1,1,1,1,1,1,1,1,1,1,1,1,1,1,1,1,1,1,1,1,1,1,1,1,1,1,1,1,1,1,1,1,1,1,1,1,1,1,1,1,1,1,1,1,1,1,1,1,1,1,1,1,1,1,1,1,1,1,1,1,1,1,1,1,1,1,1,1,1,1,1,1,1,1,1,1,1,1,1,1,1,1,1,1,1,1,1,1,1,1,1,1,1,1,1,1,1,1,1,1,1,1,1,1,1,1,1,1,1,1,
1,1,1,1,1,1,1,1,1,1,1,1,1,1,1,1,1,1,1,1,1,1,1,1,1,1,1,1,1,1,1,1,1,1,1,1,1,1,1,1,1,1,1,1,1,1,1,1,1,1,1,1,1,1,1,1,1,1,1,1,1,1,1,1,1,1,1,1,1,1,1,1,1,1,1,1,1,1,1,1,1,1,1,1,1,1,1,1,1,1,1,1,1,1,1,1,1,1,1,1,1,1,1,1,1,1,1,1,1,1,1,1,1,1,1,1,1,1,1,1,1,1,1,1,1,1,1,1,
1,1,1,1,1,1,1,1,1,1,1,1,1,1,1,1,1,1,1,1,1,1,1,1,1,1,1,1,1,1,1,1,1,1,1,1,1,1,1,1,1,1,1,1,1,1,1,1,1,1,1,1,1,1,1,1,1,1,1,1,1,1,1,1,1,1,1,1,1,1,1,1,1,1,1,1,1,1,1,1,1,1,1,1,1,1,1,1,1,1,1,1,1,1,1,1,1,1,1,1,1,1,1,1,1,1,1,1,1,1,1,1,1,1,1,1,1,1,1,1,1,1,1,1,1,1,1,1,
1,1,1,1,1,1,1,1,1,1,1,1,1,1,1,1,1,1,1,1,1,1,1,1,1,1,1,1,1,1,1,1,1,1,1,1,1,1,1,1,1,1,1,1,1,1,1,1,1,1,1,1,1,1,1,1,1,1,1,1,1,1,1,1,1,1,1,1,1,1,1,1,1,1,1,1,1,1,1,1,1,1,1,1,1,1,1,1,1,1,1,1,1,1,1,1,1,1,1,1,1,1,1,1,1,1,1,1,1,1,1,1,1,1,1,1,1,1,1,1,1,1,1,1,1,1,1,1,
1,1,1,1,1,1,1,1,1,1,1,1,1,1,1,1,1,1,1,1,1,1,1,1,1,1,1,1,1,1,1,1,1,1,1,1,1,1,1,1,1,1,1,1,1,1,1,1,1,1,1,1,1,1,1,1,1,1,1,1,1,1,1,1,1,1,1,1,1,1,1,1,1,1,1,1,1,1,1,1,1,1,1,1,1,1,1,1,1,1,1,1,1,1,1,1,1,1,1,1,1,1,1,1,1,1,1,1,1,1,1,1,1,1,1,1,1,1,1,1,1,1,1,1,1,1,1,1,
1,1,1,1,1,1,1,1,1,1,1,1,1,1,1,1,1,1,1,1,1,1,1,1,1,1,1,1,1,1,1,1,1,1,1,1,1,1,1,1,1,1,1,1,1,1,1,1,1,1,1,1,1,1,1,1,1,1,1,1,1,1,1,1,1,1,1,1,1,1,1,1,1,1,1,1,1,1,1,1,1,1,1,1,1,1,1,1,1,1,1,1,1,1,1,1,1,1,1,1,1,1,1,1,1,1,1,1,1,1,1,1,1,1,1,1,1,1,1,1,1,1,1,1,1,1,1,1,
1,1,1,1,1,1,1,1,1,1,1,1,1,1,1,1,1,1,1,1,1,1,1,1,1,1,1,1,1,1,1,1,1,1,1,1,1,1,1,1,1,1,1,1,1,1,1,1,1,1,1,1,1,1,1,1,1,1,1,1,1,1,1,1,1,1,1,1,1,1,1,1,1,1,1,1,1,1,1,1,1,1,1,1,1,1,1,1,1,1,1,1,1,1,1,1,1,1,1,1,1,1,1,1,1,1,1,1,1,1,1,1,1,1,1,1,1,1,1,1,1,1,1,1,1,1,1,1,
1,1,1,1,1,1,1,1,1,1,1,1,1,1,1,1,1,1,1,1,1,1,1,1,1,1,1,1,1,1,1,1,1,1,1,1,1,1,1,1,1,1,1,1,1,1,1,1,1,1,1,1,1,1,1,1,1,1,1,1,1,1,1,1,1,1,1,1,1,1,1,1,1,1,1,1,1,1,1,1,1,1,1,1,1,1,1,1,1,1,1,1,1,1,1,1,1,1,1,1,1,1,1,1,1,1,1,1,1,1,1,1,1,1,1,1,1,1,1,1,1,1,1,1,1,1,1,1,
1,1,1,1,1,1,1,1,1,1,1,1,1,1,1,1,1,1,1,1,1,1,1,1,1,1,1,1,1,1,1,1,1,1,1,1,1,1,1,1,1,1,1,1,1,1,1,1,1,1,1,1,1,1,1,1,1,1,1,1,1,1,1,1,1,1,1,1,1,1,1,1,1,1,1,1,1,1,1,1,1,1,1,1,1,1,1,1,1,1,1,1,1,1,1,1,1,1,1,1,1,1,1,1,1,1,1,1,1,1,1,1,1,1,1,1,1,1,1,1,1,1,1,1,1,1,1,1,
1,1,1,1,1,1,1,1,1,1,1,1,1,1,1,1,1,1,1,1,1,1,1,1,1,1,1,1,1,1,1,1,1,1,1,1,1,1,1,1,1,1,1,1,1,1,1,1,1,1,1,1,1,1,1,1,1,1,1,1,1,1,1,1,1,1,1,1,1,1,1,1,1,1,1,1,1,1,1,1,1,1,1,1,1,1,1,1,1,1,1,1,1,1,1,1,1,1,1,1,1,1,1,1,1,1,1,1,1,1,1,1,1,1,1,1,1,1,1,1,1,1,1,1,1,1,1,1,
1,1,1,1,1,1,1,1,1,1,1,1,1,1,1,1,1,1,1,1,1,1,1,1,1,1,1,1,1,1,1,1,1,1,1,1,1,1,1,1,1,1,1,1,1,1,1,1,1,1,1,1,1,1,1,1,1,1,1,1,1,1,1,1,1,1,1,1,1,1,1,1,1,1,1,1,1,1,1,1,1,1,1,1,1,1,1,1,1,1,1,1,1,1,1,1,1,1,1,1,1,1,1,1,1,1,1,1,1,1,1,1,1,1,1,1,1,1,1,1,1,1,1,1,1,1,1,1,
1,1,1,1,1,1,1,1,1,1,1,1,1,1,1,1,1,1,1,1,1,1,1,1,1,1,1,1,1,1,1,1,1,1,1,1,1,1,1,1,1,1,1,1,1,1,1,1,1,1,1,1,1,1,1,1,1,1,1,1,1,1,1,1,1,1,1,1,1,1,1,1,1,1,1,1,1,1,1,1,1,1,1,1,1,1,1,1,1,1,1,1,1,1,1,1,1,1,1,1,1,1,1,1,1,1,1,1,1,1,1,1,1,1,1,1,1,1,1,1,1,1,1,1,1,1,1,1,
1,1,1,1,1,1,1,1,1,1,1,1,1,1,1,1,1,1,1,1,1,1,1,1,1,1,1,1,1,1,1,1,1,1,1,1,1,1,1,1,1,1,1,1,1,1,1,1,1,1,1,1,1,1,1,1,1,1,1,1,1,1,1,1,1,1,1,1,1,1,1,1,1,1,1,1,1,1,1,1,1,1,1,1,1,1,1,1,1,1,1,1,1,1,1,1,1,1,1,1,1,1,1,1,1,1,1,1,1,1,1,1,1,1,1,1,1,1,1,1,1,1,1,1,1,1,1,1,
1,1,1,1,1,1,1,1,1,1,1,1,1,1,1,1,1,1,1,1,1,1,1,1,1,1,1,1,1,1,1,1,1,1,1,1,1,1,1,1,1,1,1,1,1,1,1,1,1,1,1,1,1,1,1,1,1,1,1,1,1,1,1,1,1,1,1,1,1,1,1,1,1,1,1,1,1,1,1,1,1,1,1,1,1,1,1,1,1,1,1,1,1,1,1,1,1,1,1,1,1,1,1,1,1,1,1,1,1,1,1,1,1,1,1,1,1,1,1,1,1,1,1,1,1,1,1,1,
1,1,1,1,1,1,1,1,1,1,1,1,1,1,1,1,1,1,1,1,1,1,1,1,1,1,1,1,1,1,1,1,1,1,1,1,1,1,1,1,1,1,1,1,1,1,1,1,1,1,1,1,1,1,1,1,1,1,1,1,1,1,1,1,1,1,1,1,1,1,1,1,1,1,1,1,1,1,1,1,1,1,1,1,1,1,1,1,1,1,1,1,1,1,1,1,1,1,1,1,1,1,1,1,1,1,1,1,1,1,1,1,1,1,1,1,1,1,1,1,1,1,1,1,1,1,1,1,
1,1,1,1,1,1,1,1,1,1,1,1,1,1,1,1,1,1,1,1,1,1,1,1,1,1,1,1,1,1,1,1,1,1,1,1,1,1,1,1,1,1,1,1,1,1,1,1,1,1,1,1,1,1,1,1,1,1,1,1,1,1,1,1,1,1,1,1,1,1,1,1,1,1,1,1,1,1,1,1,1,1,1,1,1,1,1,1,1,1,1,1,1,1,1,1,1,1,1,1,1,1,1,1,1,1,1,1,1,1,1,1,1,1,1,1,1,1,1,1,1,1,1,1,1,1,1,1,
1,1,1,1,1,1,1,1,1,1,1,1,1,1,1,1,1,1,1,1,1,1,1,1,1,1,1,1,1,1,1,1,1,1,1,1,1,1,1,1,1,1,1,1,1,1,1,1,1,1,1,1,1,1,1,1,1,1,1,1,1,1,1,1,1,1,1,1,1,1,1,1,1,1,1,1,1,1,1,1,1,1,1,1,1,1,1,1,1,1,1,1,1,1,1,1,1,1,1,1,1,1,1,1,1,1,1,1,1,1,1,1,1,1,1,1,1,1,1,1,1,1,1,1,1,1,1,1,
1,1,1,1,1,1,1,1,1,1,1,1,1,1,1,1,1,1,1,1,1,1,1,1,1,1,1,1,1,1,1,1,1,1,1,1,1,1,1,1,1,1,1,1,1,1,1,1,1,1,1,1,1,1,1,1,1,1,1,1,1,1,1,1,1,1,1,1,1,1,1,1,1,1,1,1,1,1,1,1,1,1,1,1,1,1,1,1,1,1,1,1,1,1,1,1,1,1,1,1,1,1,1,1,1,1,1,1,1,1,1,1,1,1,1,1,1,1,1,1,1,1,1,1,1,1,1,1,
1,1,1,1,1,1,1,1,1,1,1,1,1,1,1,1,1,1,1,1,1,1,1,1,1,1,1,1,1,1,1,1,1,1,1,1,1,1,1,1,1,1,1,1,1,1,1,1,1,1,1,1,1,1,1,1,1,1,1,1,1,1,1,1,1,1,1,1,1,1,1,1,1,1,1,1,1,1,1,1,1,1,1,1,1,1,1,1,1,1,1,1,1,1,1,1,1,1,1,1,1,1,1,1,1,1,1,1,1,1,1,1,1,1,1,1,1,1,1,1,1,1,1,1,1,1,1,1,
1,1,1,1,1,1,1,1,1,1,1,1,1,1,1,1,1,1,1,1,1,1,1,1,1,1,1,1,1,1,1,1,1,1,1,1,1,1,1,1,1,1,1,1,1,1,1,1,1,1,1,1,1,1,1,1,1,1,1,1,1,1,1,1,1,1,1,1,1,1,1,1,1,1,1,1,1,1,1,1,1,1,1,1,1,1,1,1,1,1,1,1,1,1,1,1,1,1,1,1,1,1,1,1,1,1,1,1,1,1,1,1,1,1,1,1,1,1,1,1,1,1,1,1,1,1,1,1,
1,1,1,1,1,1,1,1,1,1,1,1,1,1,1,1,1,1,1,1,1,1,1,1,1,1,1,1,1,1,1,1,1,1,1,1,1,1,1,1,1,1,1,1,1,1,1,1,1,1,1,1,1,1,1,1,1,1,1,1,1,1,1,1,1,1,1,1,1,1,1,1,1,1,1,1,1,1,1,1,1,1,1,1,1,1,1,1,1,1,1,1,1,1,1,1,1,1,1,1,1,1,1,1,1,1,1,1,1,1,1,1,1,1,1,1,1,1,1,1,1,1,1,1,1,1,1,1,
1,1,1,1,1,1,1,1,1,1,1,1,1,1,1,1,1,1,1,1,1,1,1,1,1,1,1,1,1,1,1,1,1,1,1,1,1,1,1,1,1,1,1,1,1,1,1,1,1,1,1,1,1,1,1,1,1,1,1,1,1,1,1,1,1,1,1,1,1,1,1,1,1,1,1,1,1,1,1,1,1,1,1,1,1,1,1,1,1,1,1,1,1,1,1,1,1,1,1,1,1,1,1,1,1,1,1,1,1,1,1,1,1,1,1,1,1,1,1,1,1,1,1,1,1,1,1,1,
1,1,1,1,1,1,1,1,1,1,1,1,1,1,1,1,1,1,1,1,1,1,1,1,1,1,1,1,1,1,1,1,1,1,1,1,1,1,1,1,1,1,1,1,1,1,1,1,1,1,1,1,1,1,1,1,1,1,1,1,1,1,1,1,1,1,1,1,1,1,1,1,1,1,1,1,1,1,1,1,1,1,1,1,1,1,1,1,1,1,1,1,1,1,1,1,1,1,1,1,1,1,1,1,1,1,1,1,1,1,1,1,1,1,1,1,1,1,1,1,1,1,1,1,1,1,1,1,
1,1,1,1,1,1,1,1,1,1,1,1,1,1,1,1,1,1,1,1,1,1,1,1,1,1,1,1,1,1,1,1,1,1,1,1,1,1,1,1,1,1,1,1,1,1,1,1,1,1,1,1,1,1,1,1,1,1,1,1,1,1,1,1,1,1,1,1,1,1,1,1,1,1,1,1,1,1,1,1,1,1,1,1,1,1,1,1,1,1,1,1,1,1,1,1,1,1,1,1,1,1,1,1,1,1,1,1,1,1,1,1,1,1,1,1,1,1,1,1,1,1,1,1,1,1,1,1,
1,1,1,1,1,1,1,1,1,1,1,1,1,1,1,1,1,1,1,1,1,1,1,1,1,1,1,1,1,1,1,1,1,1,1,1,1,1,1,1,1,1,1,1,1,1,1,1,1,1,1,1,1,1,1,1,1,1,1,1,1,1,1,1,1,1,1,1,1,1,1,1,1,1,1,1,1,1,1,1,1,1,1,1,1,1,1,1,1,1,1,1,1,1,1,1,1,1,1,1,1,1,1,1,1,1,1,1,1,1,1,1,1,1,1,1,1,1,1,1,1,1,1,1,1,1,1,1,
1,1,1,1,1,1,1,1,1,1,1,1,1,1,1,1,1,1,1,1,1,1,1,1,1,1,1,1,1,1,1,1,1,1,1,1,1,1,1,1,1,1,1,1,1,1,1,1,1,1,1,1,1,1,1,1,1,1,1,1,1,1,1,1,1,1,1,1,1,1,1,1,1,1,1,1,1,1,1,1,1,1,1,1,1,1,1,1,1,1,1,1,1,1,1,1,1,1,1,1,1,1,1,1,1,1,1,1,1,1,1,1,1,1,1,1,1,1,1,1,1,1,1,1,1,1,1,1,
1,1,1,1,1,1,1,1,1,1,1,1,1,1,1,1,1,1,1,1,1,1,1,1,1,1,1,1,1,1,1,1,1,1,1,1,1,1,1,1,1,1,1,1,1,1,1,1,1,1,1,1,1,1,1,1,1,1,1,1,1,1,1,1,1,1,1,1,1,1,1,1,1,1,1,1,1,1,1,1,1,1,1,1,1,1,1,1,1,1,1,1,1,1,1,1,1,1,1,1,1,1,1,1,1,1,1,1,1,1,1,1,1,1,1,1,1,1,1,1,1,1,1,1,1,1,1,1,
1,1,1,1,1,1,1,1,1,1,1,1,1,1,1,1,1,1,1,1,1,1,1,1,1,1,1,1,1,1,1,1,1,1,1,1,1,1,1,1,1,1,1,1,1,1,1,1,1,1,1,1,1,1,1,1,1,1,1,1,1,1,1,1,1,1,1,1,1,1,1,1,1,1,1,1,1,1,1,1,1,1,1,1,1,1,1,1,1,1,1,1,1,1,1,1,1,1,1,1,1,1,1,1,1,1,1,1,1,1,1,1,1,1,1,1,1,1,1,1,1,1,1,1,1,1,1,1,
1,1,1,1,1,1,1,1,1,1,1,1,1,1,1,1,1,1,1,1,1,1,1,1,1,1,1,1,1,1,1,1,1,1,1,1,1,1,1,1,1,1,1,1,1,1,1,1,1,1,1,1,1,1,1,1,1,1,1,1,1,1,1,1,1,1,1,1,1,1,1,1,1,1,1,1,1,1,1,1,1,1,1,1,1,1,1,1,1,1,1,1,1,1,1,1,1,1,1,1,1,1,1,1,1,1,1,1,1,1,1,1,1,1,1,1,1,1,1,1,1,1,1,1,1,1,1,1,
1,1,1,1,1,1,1,1,1,1,1,1,1,1,1,1,1,1,1,1,1,1,1,1,1,1,1,1,1,1,1,1,1,1,1,1,1,1,1,1,1,1,1,1,1,1,1,1,1,1,1,1,1,1,1,1,1,1,1,1,1,1,1,1,1,1,1,1,1,1,1,1,1,1,1,1,1,1,1,1,1,1,1,1,1,1,1,1,1,1,1,1,1,1,1,1,1,1,1,1,1,1,1,1,1,1,1,1,1,1,1,1,1,1,1,1,1,1,1,1,1,1,1,1,1,1,1,1,
1,1,1,1,1,1,1,1,1,1,1,1,1,1,1,1,1,1,1,1,1,1,1,1,1,1,1,1,1,1,1,1,1,1,1,1,1,1,1,1,1,1,1,1,1,1,1,1,1,1,1,1,1,1,1,1,1,1,1,1,1,1,1,1,1,1,1,1,1,1,1,1,1,1,1,1,1,1,1,1,1,1,1,1,1,1,1,1,1,1,1,1,1,1,1,1,1,1,1,1,1,1,1,1,1,1,1,1,1,1,1,1,1,1,1,1,1,1,1,1,1,1,1,1,1,1,1,1,
1,1,1,1,1,1,1,1,1,1,1,1,1,1,1,1,1,1,1,1,1,1,1,1,1,1,1,1,1,1,1,1,1,1,1,1,1,1,1,1,1,1,1,1,1,1,1,1,1,1,1,1,1,1,1,1,1,1,1,1,1,1,1,1,1,1,1,1,1,1,1,1,1,1,1,1,1,1,1,1,1,1,1,1,1,1,1,1,1,1,1,1,1,1,1,1,1,1,1,1,1,1,1,1,1,1,1,1,1,1,1,1,1,1,1,1,1,1,1,1,1,1,1,1,1,1,1,1,
1,1,1,1,1,1,1,1,1,1,1,1,1,1,1,1,1,1,1,1,1,1,1,1,1,1,1,1,1,1,1,1,1,1,1,1,1,1,1,1,1,1,1,1,1,1,1,1,1,1,1,1,1,1,1,1,1,1,1,1,1,1,1,1,1,1,1,1,1,1,1,1,1,1,1,1,1,1,1,1,1,1,1,1,1,1,1,1,1,1,1,1,1,1,1,1,1,1,1,1,1,1,1,1,1,1,1,1,1,1,1,1,1,1,1,1,1,1,1,1,1,1,1,1,1,1,1,1,
1,1,1,1,1,1,1,1,1,1,1,1,1,1,1,1,1,1,1,1,1,1,1,1,1,1,1,1,1,1,1,1,1,1,1,1,1,1,1,1,1,1,1,1,1,1,1,1,1,1,1,1,1,1,1,1,1,1,1,1,1,1,1,1,1,1,1,1,1,1,1,1,1,1,1,1,1,1,1,1,1,1,1,1,1,1,1,1,1,1,1,1,1,1,1,1,1,1,1,1,1,1,1,1,1,1,1,1,1,1,1,1,1,1,1,1,1,1,1,1,1,1,1,1,1,1,1,1,
1,1,1,1,1,1,1,1,1,1,1,1,1,1,1,1,1,1,1,1,1,1,1,1,1,1,1,1,1,1,1,1,1,1,1,1,1,1,1,1,1,1,1,1,1,1,1,1,1,1,1,1,1,1,1,1,1,1,1,1,1,1,1,1,1,1,1,1,1,1,1,1,1,1,1,1,1,1,1,1,1,1,1,1,1,1,1,1,1,1,1,1,1,1,1,1,1,1,1,1,1,1,1,1,1,1,1,1,1,1,1,1,1,1,1,1,1,1,1,1,1,1,1,1,1,1,1,1,
1,1,1,1,1,1,1,1,1,1,1,1,1,1,1,1,1,1,1,1,1,1,1,1,1,1,1,1,1,1,1,1,1,1,1,1,1,1,1,1,1,1,1,1,1,1,1,1,1,1,1,1,1,1,1,1,1,1,1,1,1,1,1,1,1,1,1,1,1,1,1,1,1,1,1,1,1,1,1,1,1,1,1,1,1,1,1,1,1,1,1,1,1,1,1,1,1,1,1,1,1,1,1,1,1,1,1,1,1,1,1,1,1,1,1,1,1,1,1,1,1,1,1,1,1,1,1,1,
1,1,1,1,1,1,1,1,1,1,1,1,1,1,1,1,1,1,1,1,1,1,1,1,1,1,1,1,1,1,1,1,1,1,1,1,1,1,1,1,1,1,1,1,1,1,1,1,1,1,1,1,1,1,1,1,1,1,1,1,1,1,1,1,1,1,1,1,1,1,1,1,1,1,1,1,1,1,1,1,1,1,1,1,1,1,1,1,1,1,1,1,1,1,1,1,1,1,1,1,1,1,1,1,1,1,1,1,1,1,1,1,1,1,1,1,1,1,1,1,1,1,1,1,1,1,1,1,
1,1,1,1,1,1,1,1,1,1,1,1,1,1,1,1,1,1,1,1,1,1,1,1,1,1,1,1,1,1,1,1,1,1,1,1,1,1,1,1,1,1,1,1,1,1,1,1,1,1,1,1,1,1,1,1,1,1,1,1,1,1,1,1,1,1,1,1,1,1,1,1,1,1,1,1,1,1,1,1,1,1,1,1,1,1,1,1,1,1,1,1,1,1,1,1,1,1,1,1,1,1,1,1,1,1,1,1,1,1,1,1,1,1,1,1,1,1,1,1,1,1,1,1,1,1,1,1,
1,1,1,1,1,1,1,1,1,1,1,1,1,1,1,1,1,1,1,1,1,1,1,1,1,1,1,1,1,1,1,1,1,1,1,1,1,1,1,1,1,1,1,1,1,1,1,1,1,1,1,1,1,1,1,1,1,1,1,1,1,1,1,1,1,1,1,1,1,1,1,1,1,1,1,1,1,1,1,1,1,1,1,1,1,1,1,1,1,1,1,1,1,1,1,1,1,1,1,1,1,1,1,1,1,1,1,1,1,1,1,1,1,1,1,1,1,1,1,1,1,1,1,1,1,1,1,1,
1,1,1,1,1,1,1,1,1,1,1,1,1,1,1,1,1,1,1,1,1,1,1,1,1,1,1,1,1,1,1,1,1,1,1,1,1,1,1,1,1,1,1,1,1,1,1,1,1,1,1,1,1,1,1,1,1,1,1,1,1,1,1,1,1,1,1,1,1,1,1,1,1,1,1,1,1,1,1,1,1,1,1,1,1,1,1,1,1,1,1,1,1,1,1,1,1,1,1,1,1,1,1,1,1,1,1,1,1,1,1,1,1,1,1,1,1,1,1,1,1,1,1,1,1,1,1,1,
1,1,1,1,1,1,1,1,1,1,1,1,1,1,1,1,1,1,1,1,1,1,1,1,1,1,1,1,1,1,1,1,1,1,1,1,1,1,1,1,1,1,1,1,1,1,1,1,1,1,1,1,1,1,1,1,1,1,1,1,1,1,1,1,1,1,1,1,1,1,1,1,1,1,1,1,1,1,1,1,1,1,1,1,1,1,1,1,1,1,1,1,1,1,1,1,1,1,1,1,1,1,1,1,1,1,1,1,1,1,1,1,1,1,1,1,1,1,1,1,1,1,1,1,1,1,1,1,
1,1,1,1,1,1,1,1,1,1,1,1,1,1,1,1,1,1,1,1,1,1,1,1,1,1,1,1,1,1,1,1,1,1,1,1,1,1,1,1,1,1,1,1,1,1,1,1,1,1,1,1,1,1,1,1,1,1,1,1,1,1,1,1,1,1,1,1,1,1,1,1,1,1,1,1,1,1,1,1,1,1,1,1,1,1,1,1,1,1,1,1,1,1,1,1,1,1,1,1,1,1,1,1,1,1,1,1,1,1,1,1,1,1,1,1,1,1,1,1,1,1,1,1,1,1,1,1,
1,1,1,1,1,1,1,1,1,1,1,1,1,1,1,1,1,1,1,1,1,1,1,1,1,1,1,1,1,1,1,1,1,1,1,1,1,1,1,1,1,1,1,1,1,1,1,1,1,1,1,1,1,1,1,1,1,1,1,1,1,1,1,1,1,1,1,1,1,1,1,1,1,1,1,1,1,1,1,1,1,1,1,1,1,1,1,1,1,1,1,1,1,1,1,1,1,1,1,1,1,1,1,1,1,1,1,1,1,1,1,1,1,1,1,1,1,1,1,1,1,1,1,1,1,1,1,1,
1,1,1,1,1,1,1,1,1,1,1,1,1,1,1,1,1,1,1,1,1,1,1,1,1,1,1,1,1,1,1,1,1,1,1,1,1,1,1,1,1,1,1,1,1,1,1,1,1,1,1,1,1,1,1,1,1,1,1,1,1,1,1,1,1,1,1,1,1,1,1,1,1,1,1,1,1,1,1,1,1,1,1,1,1,1,1,1,1,1,1,1,1,1,1,1,1,1,1,1,1,1,1,1,1,1,1,1,1,1,1,1,1,1,1,1,1,1,1,1,1,1,1,1,1,1,1,1,
1,1,1,1,1,1,1,1,1,1,1,1,1,1,1,1,1,1,1,1,1,1,1,1,1,1,1,1,1,1,1,1,1,1,1,1,1,1,1,1,1,1,1,1,1,1,1,1,1,1,1,1,1,1,1,1,1,1,1,1,1,1,1,1,1,1,1,1,1,1,1,1,1,1,1,1,1,1,1,1,1,1,1,1,1,1,1,1,1,1,1,1,1,1,1,1,1,1,1,1,1,1,1,1,1,1,1,1,1,1,1,1,1,1,1,1,1,1,1,1,1,1,1,1,1,1,1,1,
1,1,1,1,1,1,1,1,1,1,1,1,1,1,1,1,1,1,1,1,1,1,1,1,1,1,1,1,1,1,1,1,1,1,1,1,1,1,1,1,1,1,1,1,1,1,1,1,1,1,1,1,1,1,1,1,1,1,1,1,1,1,1,1,1,1,1,1,1,1,1,1,1,1,1,1,1,1,1,1,1,1,1,1,1,1,1,1,1,1,1,1,1,1,1,1,1,1,1,1,1,1,1,1,1,1,1,1,1,1,1,1,1,1,1,1,1,1,1,1,1,1,1,1,1,1,1,1,
1,1,1,1,1,1,1,1,1,1,1,1,1,1,1,1,1,1,1,1,1,1,1,1,1,1,1,1,1,1,1,1,1,1,1,1,1,1,1,1,1,1,1,1,1,1,1,1,1,1,1,1,1,1,1,1,1,1,1,1,1,1,1,1,1,1,1,1,1,1,1,1,1,1,1,1,1,1,1,1,1,1,1,1,1,1,1,1,1,1,1,1,1,1,1,1,1,1,1,1,1,1,1,1,1,1,1,1,1,1,1,1,1,1,1,1,1,1,1,1,1,1,1,1,1,1,1,1,
1,1,1,1,1,1,1,1,1,1,1,1,1,1,1,1,1,1,1,1,1,1,1,1,1,1,1,1,1,1,1,1,1,1,1,1,1,1,1,1,1,1,1,1,1,1,1,1,1,1,1,1,1,1,1,1,1,1,1,1,1,1,1,1,1,1,1,1,1,1,1,1,1,1,1,1,1,1,1,1,1,1,1,1,1,1,1,1,1,1,1,1,1,1,1,1,1,1,1,1,1,1,1,1,1,1,1,1,1,1,1,1,1,1,1,1,1,1,1,1,1,1,1,1,1,1,1,1,
1,1,1,1,1,1,1,1,1,1,1,1,1,1,1,1,1,1,1,1,1,1,1,1,1,1,1,1,1,1,1,1,1,1,1,1,1,1,1,1,1,1,1,1,1,1,1,1,1,1,1,1,1,1,1,1,1,1,1,1,1,1,1,1,1,1,1,1,1,1,1,1,1,1,1,1,1,1,1,1,1,1,1,1,1,1,1,1,1,1,1,1,1,1,1,1,1,1,1,1,1,1,1,1,1,1,1,1,1,1,1,1,1,1,1,1,1,1,1,1,1,1,1,1,1,1,1,1,
1,1,1,1,1,1,1,1,1,1,1,1,1,1,1,1,1,1,1,1,1,1,1,1,1,1,1,1,1,1,1,1,1,1,1,1,1,1,1,1,1,1,1,1,1,1,1,1,1,1,1,1,1,1,1,1,1,1,1,1,1,1,1,1,1,1,1,1,1,1,1,1,1,1,1,1,1,1,1,1,1,1,1,1,1,1,1,1,1,1,1,1,1,1,1,1,1,1,1,1,1,1,1,1,1,1,1,1,1,1,1,1,1,1,1,1,1,1,1,1,1,1,1,1,1,1,1,1,
1,1,1,1,1,1,1,1,1,1,1,1,1,1,1,1,1,1,1,1,1,1,1,1,1,1,1,1,1,1,1,1,1,1,1,1,1,1,1,1,1,1,1,1,1,1,1,1,1,1,1,1,1,1,1,1,1,1,1,1,1,1,1,1,1,1,1,1,1,1,1,1,1,1,1,1,1,1,1,1,1,1,1,1,1,1,1,1,1,1,1,1,1,1,1,1,1,1,1,1,1,1,1,1,1,1,1,1,1,1,1,1,1,1,1,1,1,1,1,1,1,1,1,1,1,1,1,1,
1,1,1,1,1,1,1,1,1,1,1,1,1,1,1,1,1,1,1,1,1,1,1,1,1,1,1,1,1,1,1,1,1,1,1,1,1,1,1,1,1,1,1,1,1,1,1,1,1,1,1,1,1,1,1,1,1,1,1,1,1,1,1,1,1,1,1,1,1,1,1,1,1,1,1,1,1,1,1,1,1,1,1,1,1,1,1,1,1,1,1,1,1,1,1,1,1,1,1,1,1,1,1,1,1,1,1,1,1,1,1,1,1,1,1,1,1,1,1,1,1,1,1,1,1,1,1,1,
1,1,1,1,1,1,1,1,1,1,1,1,1,1,1,1,1,1,1,1,1,1,1,1,1,1,1,1,1,1,1,1,1,1,1,1,1,1,1,1,1,1,1,1,1,1,1,1,1,1,1,1,1,1,1,1,1,1,1,1,1,1,1,1,1,1,1,1,1,1,1,1,1,1,1,1,1,1,1,1,1,1,1,1,1,1,1,1,1,1,1,1,1,1,1,1,1,1,1,1,1,1,1,1,1,1,1,1,1,1,1,1,1,1,1,1,1,1,1,1,1,1,1,1,1,1,1,1,
1,1,1,1,1,1,1,1,1,1,1,1,1,1,1,1,1,1,1,1,1,1,1,1,1,1,1,1,1,1,1,1,1,1,1,1,1,1,1,1,1,1,1,1,1,1,1,1,1,1,1,1,1,1,1,1,1,1,1,1,1,1,1,1,1,1,1,1,1,1,1,1,1,1,1,1,1,1,1,1,1,1,1,1,1,1,1,1,1,1,1,1,1,1,1,1,1,1,1,1,1,1,1,1,1,1,1,1,1,1,1,1,1,1,1,1,1,1,1,1,1,1,1,1,1,1,1,1,
1,1,1,1,1,1,1,1,1,1,1,1,1,1,1,1,1,1,1,1,1,1,1,1,1,1,1,1,1,1,1,1,1,1,1,1,1,1,1,1,1,1,1,1,1,1,1,1,1,1,1,1,1,1,1,1,1,1,1,1,1,1,1,1,1,1,1,1,1,1,1,1,1,1,1,1,1,1,1,1,1,1,1,1,1,1,1,1,1,1,1,1,1,1,1,1,1,1,1,1,1,1,1,1,1,1,1,1,1,1,1,1,1,1,1,1,1,1,1,1,1,1,1,1,1,1,1,1,
1,1,1,1,1,1,1,1,1,1,1,1,1,1,1,1,1,1,1,1,1,1,1,1,1,1,1,1,1,1,1,1,1,1,1,1,1,1,1,1,1,1,1,1,1,1,1,1,1,1,1,1,1,1,1,1,1,1,1,1,1,1,1,1,1,1,1,1,1,1,1,1,1,1,1,1,1,1,1,1,1,1,1,1,1,1,1,1,1,1,1,1,1,1,1,1,1,1,1,1,1,1,1,1,1,1,1,1,1,1,1,1,1,1,1,1,1,1,1,1,1,1,1,1,1,1,1,1,
1,1,1,1,1,1,1,1,1,1,1,1,1,1,1,1,1,1,1,1,1,1,1,1,1,1,1,1,1,1,1,1,1,1,1,1,1,1,1,1,1,1,1,1,1,1,1,1,1,1,1,1,1,1,1,1,1,1,1,1,1,1,1,1,1,1,1,1,1,1,1,1,1,1,1,1,1,1,1,1,1,1,1,1,1,1,1,1,1,1,1,1,1,1,1,1,1,1,1,1,1,1,1,1,1,1,1,1,1,1,1,1,1,1,1,1,1,1,1,1,1,1,1,1,1,1,1,1,
1,1,1,1,1,1,1,1,1,1,1,1,1,1,1,1,1,1,1,1,1,1,1,1,1,1,1,1,1,1,1,1,1,1,1,1,1,1,1,1,1,1,1,1,1,1,1,1,1,1,1,1,1,1,1,1,1,1,1,1,1,1,1,1,1,1,1,1,1,1,1,1,1,1,1,1,1,1,1,1,1,1,1,1,1,1,1,1,1,1,1,1,1,1,1,1,1,1,1,1,1,1,1,1,1,1,1,1,1,1,1,1,1,1,1,1,1,1,1,1,1,1,1,1,1,1,1,1,
1,1,1,1,1,1,1,1,1,1,1,1,1,1,1,1,1,1,1,1,1,1,1,1,1,1,1,1,1,1,1,1,1,1,1,1,1,1,1,1,1,1,1,1,1,1,1,1,1,1,1,1,1,1,1,1,1,1,1,1,1,1,1,1,1,1,1,1,1,1,1,1,1,1,1,1,1,1,1,1,1,1,1,1,1,1,1,1,1,1,1,1,1,1,1,1,1,1,1,1,1,1,1,1,1,1,1,1,1,1,1,1,1,1,1,1,1,1,1,1,1,1,1,1,1,1,1,1,
1,1,1,1,1,1,1,1,1,1,1,1,1,1,1,1,1,1,1,1,1,1,1,1,1,1,1,1,1,1,1,1,1,1,1,1,1,1,1,1,1,1,1,1,1,1,1,1,1,1,1,1,1,1,1,1,1,1,1,1,1,1,1,1,1,1,1,1,1,1,1,1,1,1,1,1,1,1,1,1,1,1,1,1,1,1,1,1,1,1,1,1,1,1,1,1,1,1,1,1,1,1,1,1,1,1,1,1,1,1,1,1,1,1,1,1,1,1,1,1,1,1,1,1,1,1,1,1,
1,1,1,1,1,1,1,1,1,1,1,1,1,1,1,1,1,1,1,1,1,1,1,1,1,1,1,1,1,1,1,1,1,1,1,1,1,1,1,1,1,1,1,1,1,1,1,1,1,1,1,1,1,1,1,1,1,1,1,1,1,1,1,1,1,1,1,1,1,1,1,1,1,1,1,1,1,1,1,1,1,1,1,1,1,1,1,1,1,1,1,1,1,1,1,1,1,1,1,1,1,1,1,1,1,1,1,1,1,1,1,1,1,1,1,1,1,1,1,1,1,1,1,1,1,1,1,1,
1,1,1,1,1,1,1,1,1,1,1,1,1,1,1,1,1,1,1,1,1,1,1,1,1,1,1,1,1,1,1,1,1,1,1,1,1,1,1,1,1,1,1,1,1,1,1,1,1,1,1,1,1,1,1,1,1,1,1,1,1,1,1,1,1,1,1,1,1,1,1,1,1,1,1,1,1,1,1,1,1,1,1,1,1,1,1,1,1,1,1,1,1,1,1,1,1,1,1,1,1,1,1,1,1,1,1,1,1,1,1,1,1,1,1,1,1,1,1,1,1,1,1,1,1,1,1,1,
1,1,1,1,1,1,1,1,1,1,1,1,1,1,1,1,1,1,1,1,1,1,1,1,1,1,1,1,1,1,1,1,1,1,1,1,1,1,1,1,1,1,1,1,1,1,1,1,1,1,1,1,1,1,1,1,1,1,1,1,1,1,1,1,1,1,1,1,1,1,1,1,1,1,1,1,1,1,1,1,1,1,1,1,1,1,1,1,1,1,1,1,1,1,1,1,1,1,1,1,1,1,1,1,1,1,1,1,1,1,1,1,1,1,1,1,1,1,1,1,1,1,1,1,1,1,1,1,
1,1,1,1,1,1,1,1,1,1,1,1,1,1,1,1,1,1,1,1,1,1,1,1,1,1,1,1,1,1,1,1,1,1,1,1,1,1,1,1,1,1,1,1,1,1,1,1,1,1,1,1,1,1,1,1,1,1,1,1,1,1,1,1,1,1,1,1,1,1,1,1,1,1,1,1,1,1,1,1,1,1,1,1,1,1,1,1,1,1,1,1,1,1,1,1,1,1,1,1,1,1,1,1,1,1,1,1,1,1,1,1,1,1,1,1,1,1,1,1,1,1,1,1,1,1,1,1,
1,1,1,1,1,1,1,1,1,1,1,1,1,1,1,1,1,1,1,1,1,1,1,1,1,1,1,1,1,1,1,1,1,1,1,1,1,1,1,1,1,1,1,1,1,1,1,1,1,1,1,1,1,1,1,1,1,1,1,1,1,1,1,1,1,1,1,1,1,1,1,1,1,1,1,1,1,1,1,1,1,1,1,1,1,1,1,1,1,1,1,1,1,1,1,1,1,1,1,1,1,1,1,1,1,1,1,1,1,1,1,1,1,1,1,1,1,1,1,1,1,1,1,1,1,1,1,1,
1,1,1,1,1,1,1,1,1,1,1,1,1,1,1,1,1,1,1,1,1,1,1,1,1,1,1,1,1,1,1,1,1,1,1,1,1,1,1,1,1,1,1,1,1,1,1,1,1,1,1,1,1,1,1,1,1,1,1,1,1,1,1,1,1,1,1,1,1,1,1,1,1,1,1,1,1,1,1,1,1,1,1,1,1,1,1,1,1,1,1,1,1,1,1,1,1,1,1,1,1,1,1,1,1,1,1,1,1,1,1,1,1,1,1,1,1,1,1,1,1,1,1,1,1,1,1,1,
1,1,1,1,1,1,1,1,1,1,1,1,1,1,1,1,1,1,1,1,1,1,1,1,1,1,1,1,1,1,1,1,1,1,1,1,1,1,1,1,1,1,1,1,1,1,1,1,1,1,1,1,1,1,1,1,1,1,1,1,1,1,1,1,1,1,1,1,1,1,1,1,1,1,1,1,1,1,1,1,1,1,1,1,1,1,1,1,1,1,1,1,1,1,1,1,1,1,1,1,1,1,1,1,1,1,1,1,1,1,1,1,1,1,1,1,1,1,1,1,1,1,1,1,1,1,1,1,
1,1,1,1,1,1,1,1,1,1,1,1,1,1,1,1,1,1,1,1,1,1,1,1,1,1,1,1,1,1,1,1,1,1,1,1,1,1,1,1,1,1,1,1,1,1,1,1,1,1,1,1,1,1,1,1,1,1,1,1,1,1,1,1,1,1,1,1,1,1,1,1,1,1,1,1,1,1,1,1,1,1,1,1,1,1,1,1,1,1,1,1,1,1,1,1,1,1,1,1,1,1,1,1,1,1,1,1,1,1,1,1,1,1,1,1,1,1,1,1,1,1,1,1,1,1,1,1,
1,1,1,1,1,1,1,1,1,1,1,1,1,1,1,1,1,1,1,1,1,1,1,1,1,1,1,1,1,1,1,1,1,1,1,1,1,1,1,1,1,1,1,1,1,1,1,1,1,1,1,1,1,1,1,1,1,1,1,1,1,1,1,1,1,1,1,1,1,1,1,1,1,1,1,1,1,1,1,1,1,1,1,1,1,1,1,1,1,1,1,1,1,1,1,1,1,1,1,1,1,1,1,1,1,1,1,1,1,1,1,1,1,1,1,1,1,1,1,1,1,1,1,1,1,1,1,1,
1,1,1,1,1,1,1,1,1,1,1,1,1,1,1,1,1,1,1,1,1,1,1,1,1,1,1,1,1,1,1,1,1,1,1,1,1,1,1,1,1,1,1,1,1,1,1,1,1,1,1,1,1,1,1,1,1,1,1,1,1,1,1,1,1,1,1,1,1,1,1,1,1,1,1,1,1,1,1,1,1,1,1,1,1,1,1,1,1,1,1,1,1,1,1,1,1,1,1,1,1,1,1,1,1,1,1,1,1,1,1,1,1,1,1,1,1,1,1,1,1,1,1,1,1,1,1,1,
1,1,1,1,1,1,1,1,1,1,1,1,1,1,1,1,1,1,1,1,1,1,1,1,1,1,1,1,1,1,1,1,1,1,1,1,1,1,1,1,1,1,1,1,1,1,1,1,1,1,1,1,1,1,1,1,1,1,1,1,1,1,1,1,1,1,1,1,1,1,1,1,1,1,1,1,1,1,1,1,1,1,1,1,1,1,1,1,1,1,1,1,1,1,1,1,1,1,1,1,1,1,1,1,1,1,1,1,1,1,1,1,1,1,1,1,1,1,1,1,1,1,1,1,1,1,1,1,
1,1,1,1,1,1,1,1,1,1,1,1,1,1,1,1,1,1,1,1,1,1,1,1,1,1,1,1,1,1,1,1,1,1,1,1,1,1,1,1,1,1,1,1,1,1,1,1,1,1,1,1,1,1,1,1,1,1,1,1,1,1,1,1,1,1,1,1,1,1,1,1,1,1,1,1,1,1,1,1,1,1,1,1,1,1,1,1,1,1,1,1,1,1,1,1,1,1,1,1,1,1,1,1,1,1,1,1,1,1,1,1,1,1,1,1,1,1,1,1,1,1,1,1,1,1,1,1,
1,1,1,1,1,1,1,1,1,1,1,1,1,1,1,1,1,1,1,1,1,1,1,1,1,1,1,1,1,1,1,1,1,1,1,1,1,1,1,1,1,1,1,1,1,1,1,1,1,1,1,1,1,1,1,1,1,1,1,1,1,1,1,1,1,1,1,1,1,1,1,1,1,1,1,1,1,1,1,1,1,1,1,1,1,1,1,1,1,1,1,1,1,1,1,1,1,1,1,1,1,1,1,1,1,1,1,1,1,1,1,1,1,1,1,1,1,1,1,1,1,1,1,1,1,1,1,1,
1,1,1,1,1,1,1,1,1,1,1,1,1,1,1,1,1,1,1,1,1,1,1,1,1,1,1,1,1,1,1,1,1,1,1,1,1,1,1,1,1,1,1,1,1,1,1,1,1,1,1,1,1,1,1,1,1,1,1,1,1,1,1,1,1,1,1,1,1,1,1,1,1,1,1,1,1,1,1,1,1,1,1,1,1,1,1,1,1,1,1,1,1,1,1,1,1,1,1,1,1,1,1,1,1,1,1,1,1,1,1,1,1,1,1,1,1,1,1,1,1,1,1,1,1,1,1,1,
1,1,1,1,1,1,1,1,1,1,1,1,1,1,1,1,1,1,1,1,1,1,1,1,1,1,1,1,1,1,1,1,1,1,1,1,1,1,1,1,1,1,1,1,1,1,1,1,1,1,1,1,1,1,1,1,1,1,1,1,1,1,1,1,1,1,1,1,1,1,1,1,1,1,1,1,1,1,1,1,1,1,1,1,1,1,1,1,1,1,1,1,1,1,1,1,1,1,1,1,1,1,1,1,1,1,1,1,1,1,1,1,1,1,1,1,1,1,1,1,1,1,1,1,1,1,1,1,
1,1,1,1,1,1,1,1,1,1,1,1,1,1,1,1,1,1,1,1,1,1,1,1,1,1,1,1,1,1,1,1,1,1,1,1,1,1,1,1,1,1,1,1,1,1,1,1,1,1,1,1,1,1,1,1,1,1,1,1,1,1,1,1,1,1,1,1,1,1,1,1,1,1,1,1,1,1,1,1,1,1,1,1,1,1,1,1,1,1,1,1,1,1,1,1,1,1,1,1,1,1,1,1,1,1,1,1,1,1,1,1,1,1,1,1,1,1,1,1,1,1,1,1,1,1,1,1,
1,1,1,1,1,1,1,1,1,1,1,1,1,1,1,1,1,1,1,1,1,1,1,1,1,1,1,1,1,1,1,1,1,1,1,1,1,1,1,1,1,1,1,1,1,1,1,1,1,1,1,1,1,1,1,1,1,1,1,1,1,1,1,1,1,1,1,1,1,1,1,1,1,1,1,1,1,1,1,1,1,1,1,1,1,1,1,1,1,1,1,1,1,1,1,1,1,1,1,1,1,1,1,1,1,1,1,1,1,1,1,1,1,1,1,1,1,1,1,1,1,1,1,1,1,1,1,1,
1,1,1,1,1,1,1,1,1,1,1,1,1,1,1,1,1,1,1,1,1,1,1,1,1,1,1,1,1,1,1,1,1,1,1,1,1,1,1,1,1,1,1,1,1,1,1,1,1,1,1,1,1,1,1,1,1,1,1,1,1,1,1,1,1,1,1,1,1,1,1,1,1,1,1,1,1,1,1,1,1,1,1,1,1,1,1,1,1,1,1,1,1,1,1,1,1,1,1,1,1,1,1,1,1,1,1,1,1,1,1,1,1,1,1,1,1,1,1,1,1,1,1,1,1,1,1,1,
1,1,1,1,1,1,1,1,1,1,1,1,1,1,1,1,1,1,1,1,1,1,1,1,1,1,1,1,1,1,1,1,1,1,1,1,1,1,1,1,1,1,1,1,1,1,1,1,1,1,1,1,1,1,1,1,1,1,1,1,1,1,1,1,1,1,1,1,1,1,1,1,1,1,1,1,1,1,1,1,1,1,1,1,1,1,1,1,1,1,1,1,1,1,1,1,1,1,1,1,1,1,1,1,1,1,1,1,1,1,1,1,1,1,1,1,1,1,1,1,1,1,1,1,1,1,1,1,
1,1,1,1,1,1,1,1,1,1,1,1,1,1,1,1,1,1,1,1,1,1,1,1,1,1,1,1,1,1,1,1,1,1,1,1,1,1,1,1,1,1,1,1,1,1,1,1,1,1,1,1,1,1,1,1,1,1,1,1,1,1,1,1,1,1,1,1,1,1,1,1,1,1,1,1,1,1,1,1,1,1,1,1,1,1,1,1,1,1,1,1,1,1,1,1,1,1,1,1,1,1,1,1,1,1,1,1,1,1,1,1,1,1,1,1,1,1,1,1,1,1,1,1,1,1,1,1,
1,1,1,1,1,1,1,1,1,1,1,1,1,1,1,1,1,1,1,1,1,1,1,1,1,1,1,1,1,1,1,1,1,1,1,1,1,1,1,1,1,1,1,1,1,1,1,1,1,1,1,1,1,1,1,1,1,1,1,1,1,1,1,1,1,1,1,1,1,1,1,1,1,1,1,1,1,1,1,1,1,1,1,1,1,1,1,1,1,1,1,1,1,1,1,1,1,1,1,1,1,1,1,1,1,1,1,1,1,1,1,1,1,1,1,1,1,1,1,1,1,1,1,1,1,1,1,1,
1,1,1,1,1,1,1,1,1,1,1,1,1,1,1,1,1,1,1,1,1,1,1,1,1,1,1,1,1,1,1,1,1,1,1,1,1,1,1,1,1,1,1,1,1,1,1,1,1,1,1,1,1,1,1,1,1,1,1,1,1,1,1,1,1,1,1,1,1,1,1,1,1,1,1,1,1,1,1,1,1,1,1,1,1,1,1,1,1,1,1,1,1,1,1,1,1,1,1,1,1,1,1,1,1,1,1,1,1,1,1,1,1,1,1,1,1,1,1,1,1,1,1,1,1,1,1,1,
1,1,1,1,1,1,1,1,1,1,1,1,1,1,1,1,1,1,1,1,1,1,1,1,1,1,1,1,1,1,1,1,1,1,1,1,1,1,1,1,1,1,1,1,1,1,1,1,1,1,1,1,1,1,1,1,1,1,1,1,1,1,1,1,1,1,1,1,1,1,1,1,1,1,1,1,1,1,1,1,1,1,1,1,1,1,1,1,1,1,1,1,1,1,1,1,1,1,1,1,1,1,1,1,1,1,1,1,1,1,1,1,1,1,1,1,1,1,1,1,1,1,1,1,1,1,1,1,
1,1,1,1,1,1,1,1,1,1,1,1,1,1,1,1,1,1,1,1,1,1,1,1,1,1,1,1,1,1,1,1,1,1,1,1,1,1,1,1,1,1,1,1,1,1,1,1,1,1,1,1,1,1,1,1,1,1,1,1,1,1,1,1,1,1,1,1,1,1,1,1,1,1,1,1,1,1,1,1,1,1,1,1,1,1,1,1,1,1,1,1,1,1,1,1,1,1,1,1,1,1,1,1,1,1,1,1,1,1,1,1,1,1,1,1,1,1,1,1,1,1,1,1,1,1,1,1,
1,1,1,1,1,1,1,1,1,1,1,1,1,1,1,1,1,1,1,1,1,1,1,1,1,1,1,1,1,1,1,1,1,1,1,1,1,1,1,1,1,1,1,1,1,1,1,1,1,1,1,1,1,1,1,1,1,1,1,1,1,1,1,1,1,1,1,1,1,1,1,1,1,1,1,1,1,1,1,1,1,1,1,1,1,1,1,1,1,1,1,1,1,1,1,1,1,1,1,1,1,1,1,1,1,1,1,1,1,1,1,1,1,1,1,1,1,1,1,1,1,1,1,1,1,1,1,1,
1,1,1,1,1,1,1,1,1,1,1,1,1,1,1,1,1,1,1,1,1,1,1,1,1,1,1,1,1,1,1,1,1,1,1,1,1,1,1,1,1,1,1,1,1,1,1,1,1,1,1,1,1,1,1,1,1,1,1,1,1,1,1,1,1,1,1,1,1,1,1,1,1,1,1,1,1,1,1,1,1,1,1,1,1,1,1,1,1,1,1,1,1,1,1,1,1,1,1,1,1,1,1,1,1,1,1,1,1,1,1,1,1,1,1,1,1,1,1,1,1,1,1,1,1,1,1,1,
1,1,1,1,1,1,1,1,1,1,1,1,1,1,1,1,1,1,1,1,1,1,1,1,1,1,1,1,1,1,1,1,1,1,1,1,1,1,1,1,1,1,1,1,1,1,1,1,1,1,1,1,1,1,1,1,1,1,1,1,1,1,1,1,1,1,1,1,1,1,1,1,1,1,1,1,1,1,1,1,1,1,1,1,1,1,1,1,1,1,1,1,1,1,1,1,1,1,1,1,1,1,1,1,1,1,1,1,1,1,1,1,1,1,1,1,1,1,1,1,1,1,1,1,1,1,1,1,
1,1,1,1,1,1,1,1,1,1,1,1,1,1,1,1,1,1,1,1,1,1,1,1,1,1,1,1,1,1,1,1,1,1,1,1,1,1,1,1,1,1,1,1,1,1,1,1,1,1,1,1,1,1,1,1,1,1,1,1,1,1,1,1,1,1,1,1,1,1,1,1,1,1,1,1,1,1,1,1,1,1,1,1,1,1,1,1,1,1,1,1,1,1,1,1,1,1,1,1,1,1,1,1,1,1,1,1,1,1,1,1,1,1,1,1,1,1,1,1,1,1,1,1,1,1,1,1,
1,1,1,1,1,1,1,1,1,1,1,1,1,1,1,1,1,1,1,1,1,1,1,1,1,1,1,1,1,1,1,1,1,1,1,1,1,1,1,1,1,1,1,1,1,1,1,1,1,1,1,1,1,1,1,1,1,1,1,1,1,1,1,1,1,1,1,1,1,1,1,1,1,1,1,1,1,1,1,1,1,1,1,1,1,1,1,1,1,1,1,1,1,1,1,1,1,1,1,1,1,1,1,1,1,1,1,1,1,1,1,1,1,1,1,1,1,1,1,1,1,1,1,1,1,1,1,1,
1,1,1,1,1,1,1,1,1,1,1,1,1,1,1,1,1,1,1,1,1,1,1,1,1,1,1,1,1,1,1,1,1,1,1,1,1,1,1,1,1,1,1,1,1,1,1,1,1,1,1,1,1,1,1,1,1,1,1,1,1,1,1,1,1,1,1,1,1,1,1,1,1,1,1,1,1,1,1,1,1,1,1,1,1,1,1,1,1,1,1,1,1,1,1,1,1,1,1,1,1,1,1,1,1,1,1,1,1,1,1,1,1,1,1,1,1,1,1,1,1,1,1,1,1,1,1,1,
1,1,1,1,1,1,1,1,1,1,1,1,1,1,1,1,1,1,1,1,1,1,1,1,1,1,1,1,1,1,1,1,1,1,1,1,1,1,1,1,1,1,1,1,1,1,1,1,1,1,1,1,1,1,1,1,1,1,1,1,1,1,1,1,1,1,1,1,1,1,1,1,1,1,1,1,1,1,1,1,1,1,1,1,1,1,1,1,1,1,1,1,1,1,1,1,1,1,1,1,1,1,1,1,1,1,1,1,1,1,1,1,1,1,1,1,1,1,1,1,1,1,1,1,1,1,1,1,
1,1,1,1,1,1,1,1,1,1,1,1,1,1,1,1,1,1,1,1,1,1,1,1,1,1,1,1,1,1,1,1,1,1,1,1,1,1,1,1,1,1,1,1,1,1,1,1,1,1,1,1,1,1,1,1,1,1,1,1,1,1,1,1,1,1,1,1,1,1,1,1,1,1,1,1,1,1,1,1,1,1,1,1,1,1,1,1,1,1,1,1,1,1,1,1,1,1,1,1,1,1,1,1,1,1,1,1,1,1,1,1,1,1,1,1,1,1,1,1,1,1,1,1,1,1,1,1,
1,1,1,1,1,1,1,1,1,1,1,1,1,1,1,1,1,1,1,1,1,1,1,1,1,1,1,1,1,1,1,1,1,1,1,1,1,1,1,1,1,1,1,1,1,1,1,1,1,1,1,1,1,1,1,1,1,1,1,1,1,1,1,1,1,1,1,1,1,1,1,1,1,1,1,1,1,1,1,1,1,1,1,1,1,1,1,1,1,1,1,1,1,1,1,1,1,1,1,1,1,1,1,1,1,1,1,1,1,1,1,1,1,1,1,1,1,1,1,1,1,1,1,1,1,1,1,1,
1,1,1,1,1,1,1,1,1,1,1,1,1,1,1,1,1,1,1,1,1,1,1,1,1,1,1,1,1,1,1,1,1,1,1,1,1,1,1,1,1,1,1,1,1,1,1,1,1,1,1,1,1,1,1,1,1,1,1,1,1,1,1,1,1,1,1,1,1,1,1,1,1,1,1,1,1,1,1,1,1,1,1,1,1,1,1,1,1,1,1,1,1,1,1,1,1,1,1,1,1,1,1,1,1,1,1,1,1,1,1,1,1,1,1,1,1,1,1,1,1,1,1,1,1,1,1,1,
1,1,1,1,1,1,1,1,1,1,1,1,1,1,1,1,1,1,1,1,1,1,1,1,1,1,1,1,1,1,1,1,1,1,1,1,1,1,1,1,1,1,1,1,1,1,1,1,1,1,1,1,1,1,1,1,1,1,1,1,1,1,1,1,1,1,1,1,1,1,1,1,1,1,1,1,1,1,1,1,1,1,1,1,1,1,1,1,1,1,1,1,1,1,1,1,1,1,1,1,1,1,1,1,1,1,1,1,1,1,1,1,1,1,1,1,1,1,1,1,1,1,1,1,1,1,1,1,
1,1,1,1,1,1,1,1,1,1,1,1,1,1,1,1,1,1,1,1,1,1,1,1,1,1,1,1,1,1,1,1,1,1,1,1,1,1,1,1,1,1,1,1,1,1,1,1,1,1,1,1,1,1,1,1,1,1,1,1,1,1,1,1,1,1,1,1,1,1,1,1,1,1,1,1,1,1,1,1,1,1,1,1,1,1,1,1,1,1,1,1,1,1,1,1,1,1,1,1,1,1,1,1,1,1,1,1,1,1,1,1,1,1,1,1,1,1,1,1,1,1,1,1,1,1,1,1,
1,1,1,1,1,1,1,1,1,1,1,1,1,1,1,1,1,1,1,1,1,1,1,1,1,1,1,1,1,1,1,1,1,1,1,1,1,1,1,1,1,1,1,1,1,1,1,1,1,1,1,1,1,1,1,1,1,1,1,1,1,1,1,1,1,1,1,1,1,1,1,1,1,1,1,1,1,1,1,1,1,1,1,1,1,1,1,1,1,1,1,1,1,1,1,1,1,1,1,1,1,1,1,1,1,1,1,1,1,1,1,1,1,1,1,1,1,1,1,1,1,1,1,1,1,1,1,1,
1,1,1,1,1,1,1,1,1,1,1,1,1,1,1,1,1,1,1,1,1,1,1,1,1,1,1,1,1,1,1,1,1,1,1,1,1,1,1,1,1,1,1,1,1,1,1,1,1,1,1,1,1,1,1,1,1,1,1,1,1,1,1,1,1,1,1,1,1,1,1,1,1,1,1,1,1,1,1,1,1,1,1,1,1,1,1,1,1,1,1,1,1,1,1,1,1,1,1,1,1,1,1,1,1,1,1,1,1,1,1,1,1,1,1,1,1,1,1,1,1,1,1,1,1,1,1,1,
1,1,1,1,1,1,1,1,1,1,1,1,1,1,1,1,1,1,1,1,1,1,1,1,1,1,1,1,1,1,1,1,1,1,1,1,1,1,1,1,1,1,1,1,1,1,1,1,1,1,1,1,1,1,1,1,1,1,1,1,1,1,1,1,1,1,1,1,1,1,1,1,1,1,1,1,1,1,1,1,1,1,1,1,1,1,1,1,1,1,1,1,1,1,1,1,1,1,1,1,1,1,1,1,1,1,1,1,1,1,1,1,1,1,1,1,1,1,1,1,1,1,1,1,1,1,1,1,
1,1,1,1,1,1,1,1,1,1,1,1,1,1,1,1,1,1,1,1,1,1,1,1,1,1,1,1,1,1,1,1,1,1,1,1,1,1,1,1,1,1,1,1,1,1,1,1,1,1,1,1,1,1,1,1,1,1,1,1,1,1,1,1,1,1,1,1,1,1,1,1,1,1,1,1,1,1,1,1,1,1,1,1,1,1,1,1,1,1,1,1,1,1,1,1,1,1,1,1,1,1,1,1,1,1,1,1,1,1,1,1,1,1,1,1,1,1,1,1,1,1,1,1,1,1,1,1,
1,1,1,1,1,1,1,1,1,1,1,1,1,1,1,1,1,1,1,1,1,1,1,1,1,1,1,1,1,1,1,1,1,1,1,1,1,1,1,1,1,1,1,1,1,1,1,1,1,1,1,1,1,1,1,1,1,1,1,1,1,1,1,1,1,1,1,1,1,1,1,1,1,1,1,1,1,1,1,1,1,1,1,1,1,1,1,1,1,1,1,1,1,1,1,1,1,1,1,1,1,1,1,1,1,1,1,1,1,1,1,1,1,1,1,1,1,1,1,1,1,1,1,1,1,1,1,1,
1,1,1,1,1,1,1,1,1,1,1,1,1,1,1,1,1,1,1,1,1,1,1,1,1,1,1,1,1,1,1,1,1,1,1,1,1,1,1,1,1,1,1,1,1,1,1,1,1,1,1,1,1,1,1,1,1,1,1,1,1,1,1,1,1,1,1,1,1,1,1,1,1,1,1,1,1,1,1,1,1,1,1,1,1,1,1,1,1,1,1,1,1,1,1,1,1,1,1,1,1,1,1,1,1,1,1,1,1,1,1,1,1,1,1,1,1,1,1,1,1,1,1,1,1,1,1,1,
1,1,1,1,1,1,1,1,1,1,1,1,1,1,1,1,1,1,1,1,1,1,1,1,1,1,1,1,1,1,1,1,1,1,1,1,1,1,1,1,1,1,1,1,1,1,1,1,1,1,1,1,1,1,1,1,1,1,1,1,1,1,1,1,1,1,1,1,1,1,1,1,1,1,1,1,1,1,1,1,1,1,1,1,1,1,1,1,1,1,1,1,1,1,1,1,1,1,1,1,1,1,1,1,1,1,1,1,1,1,1,1,1,1,1,1,1,1,1,1,1,1,1,1,1,1,1,1,
1,1,1,1,1,1,1,1,1,1,1,1,1,1,1,1,1,1,1,1,1,1,1,1,1,1,1,1,1,1,1,1,1,1,1,1,1,1,1,1,1,1,1,1,1,1,1,1,1,1,1,1,1,1,1,1,1,1,1,1,1,1,1,1,1,1,1,1,1,1,1,1,1,1,1,1,1,1,1,1,1,1,1,1,1,1,1,1,1,1,1,1,1,1,1,1,1,1,1,1,1,1,1,1,1,1,1,1,1,1,1,1,1,1,1,1,1,1,1,1,1,1,1,1,1,1,1,1,
1,1,1,1,1,1,1,1,1,1,1,1,1,1,1,1,1,1,1,1,1,1,1,1,1,1,1,1,1,1,1,1,1,1,1,1,1,1,1,1,1,1,1,1,1,1,1,1,1,1,1,1,1,1,1,1,1,1,1,1,1,1,1,1,1,1,1,1,1,1,1,1,1,1,1,1,1,1,1,1,1,1,1,1,1,1,1,1,1,1,1,1,1,1,1,1,1,1,1,1,1,1,1,1,1,1,1,1,1,1,1,1,1,1,1,1,1,1,1,1,1,1,1,1,1,1,1,1,
1,1,1,1,1,1,1,1,1,1,1,1,1,1,1,1,1,1,1,1,1,1,1,1,1,1,1,1,1,1,1,1,1,1,1,1,1,1,1,1,1,1,1,1,1,1,1,1,1,1,1,1,1,1,1,1,1,1,1,1,1,1,1,1,1,1,1,1,1,1,1,1,1,1,1,1,1,1,1,1,1,1,1,1,1,1,1,1,1,1,1,1,1,1,1,1,1,1,1,1,1,1,1,1,1,1,1,1,1,1,1,1,1,1,1,1,1,1,1,1,1,1,1,1,1,1,1,1,
1,1,1,1,1,1,1,1,1,1,1,1,1,1,1,1,1,1,1,1,1,1,1,1,1,1,1,1,1,1,1,1,1,1,1,1,1,1,1,1,1,1,1,1,1,1,1,1,1,1,1,1,1,1,1,1,1,1,1,1,1,1,1,1,1,1,1,1,1,1,1,1,1,1,1,1,1,1,1,1,1,1,1,1,1,1,1,1,1,1,1,1,1,1,1,1,1,1,1,1,1,1,1,1,1,1,1,1,1,1,1,1,1,1,1,1,1,1,1,1,1,1,1,1,1,1,1,1,
1,1,1,1,1,1,1,1,1,1,1,1,1,1,1,1,1,1,1,1,1,1,1,1,1,1,1,1,1,1,1,1,1,1,1,1,1,1,1,1,1,1,1,1,1,1,1,1,1,1,1,1,1,1,1,1,1,1,1,1,1,1,1,1,1,1,1,1,1,1,1,1,1,1,1,1,1,1,1,1,1,1,1,1,1,1,1,1,1,1,1,1,1,1,1,1,1,1,1,1,1,1,1,1,1,1,1,1,1,1,1,1,1,1,1,1,1,1,1,1,1,1,1,1,1,1,1,1,
1,1,1,1,1,1,1,1,1,1,1,1,1,1,1,1,1,1,1,1,1,1,1,1,1,1,1,1,1,1,1,1,1,1,1,1,1,1,1,1,1,1,1,1,1,1,1,1,1,1,1,1,1,1,1,1,1,1,1,1,1,1,1,1,1,1,1,1,1,1,1,1,1,1,1,1,1,1,1,1,1,1,1,1,1,1,1,1,1,1,1,1,1,1,1,1,1,1,1,1,1,1,1,1,1,1,1,1,1,1,1,1,1,1,1,1,1,1,1,1,1,1,1,1,1,1,1,1,
1,1,1,1,1,1,1,1,1,1,1,1,1,1,1,1,1,1,1,1,1,1,1,1,1,1,1,1,1,1,1,1,1,1,1,1,1,1,1,1,1,1,1,1,1,1,1,1,1,1,1,1,1,1,1,1,1,1,1,1,1,1,1,1,1,1,1,1,1,1,1,1,1,1,1,1,1,1,1,1,1,1,1,1,1,1,1,1,1,1,1,1,1,1,1,1,1,1,1,1,1,1,1,1,1,1,1,1,1,1,1,1,1,1,1,1,1,1,1,1,1,1,1,1,1,1,1,1,
1,1,1,1,1,1,1,1,1,1,1,1,1,1,1,1,1,1,1,1,1,1,1,1,1,1,1,1,1,1,1,1,1,1,1,1,1,1,1,1,1,1,1,1,1,1,1,1,1,1,1,1,1,1,1,1,1,1,1,1,1,1,1,1,1,1,1,1,1,1,1,1,1,1,1,1,1,1,1,1,1,1,1,1,1,1,1,1,1,1,1,1,1,1,1,1,1,1,1,1,1,1,1,1,1,1,1,1,1,1,1,1,1,1,1,1,1,1,1,1,1,1,1,1,1,1,1,1,
1,1,1,1,1,1,1,1,1,1,1,1,1,1,1,1,1,1,1,1,1,1,1,1,1,1,1,1,1,1,1,1,1,1,1,1,1,1,1,1,1,1,1,1,1,1,1,1,1,1,1,1,1,1,1,1,1,1,1,1,1,1,1,1,1,1,1,1,1,1,1,1,1,1,1,1,1,1,1,1,1,1,1,1,1,1,1,1,1,1,1,1,1,1,1,1,1,1,1,1,1,1,1,1,1,1,1,1,1,1,1,1,1,1,1,1,1,1,1,1,1,1,1,1,1,1,1,1,
1,1,1,1,1,1,1,1,1,1,1,1,1,1,1,1,1,1,1,1,1,1,1,1,1,1,1,1,1,1,1,1,1,1,1,1,1,1,1,1,1,1,1,1,1,1,1,1,1,1,1,1,1,1,1,1,1,1,1,1,1,1,1,1,1,1,1,1,1,1,1,1,1,1,1,1,1,1,1,1,1,1,1,1,1,1,1,1,1,1,1,1,1,1,1,1,1,1,1,1,1,1,1,1,1,1,1,1,1,1,1,1,1,1,1,1,1,1,1,1,1,1,1,1,1,1,1,1,
1,1,1,1,1,1,1,1,1,1,1,1,1,1,1,1,1,1,1,1,1,1,1,1,1,1,1,1,1,1,1,1,1,1,1,1,1,1,1,1,1,1,1,1,1,1,1,1,1,1,1,1,1,1,1,1,1,1,1,1,1,1,1,1,1,1,1,1,1,1,1,1,1,1,1,1,1,1,1,1,1,1,1,1,1,1,1,1,1,1,1,1,1,1,1,1,1,1,1,1,1,1,1,1,1,1,1,1,1,1,1,1,1,1,1,1,1,1,1,1,1,1,1,1,1,1,1,1,
1,1,1,1,1,1,1,1,1,1,1,1,1,1,1,1,1,1,1,1,1,1,1,1,1,1,1,1,1,1,1,1,1,1,1,1,1,1,1,1,1,1,1,1,1,1,1,1,1,1,1,1,1,1,1,1,1,1,1,1,1,1,1,1,1,1,1,1,1,1,1,1,1,1,1,1,1,1,1,1,1,1,1,1,1,1,1,1,1,1,1,1,1,1,1,1,1,1,1,1,1,1,1,1,1,1,1,1,1,1,1,1,1,1,1,1,1,1,1,1,1,1,1,1,1,1,1,1,
1,1,1,1,1,1,1,1,1,1,1,1,1,1,1,1,1,1,1,1,1,1,1,1,1,1,1,1,1,1,1,1,1,1,1,1,1,1,1,1,1,1,1,1,1,1,1,1,1,1,1,1,1,1,1,1,1,1,1,1,1,1,1,1,1,1,1,1,1,1,1,1,1,1,1,1,1,1,1,1,1,1,1,1,1,1,1,1,1,1,1,1,1,1,1,1,1,1,1,1,1,1,1,1,1,1,1,1,1,1,1,1,1,1,1,1,1,1,1,1,1,1,1,1,1,1,1,1,
1,1,1,1,1,1,1,1,1,1,1,1,1,1,1,1,1,1,1,1,1,1,1,1,1,1,1,1,1,1,1,1,1,1,1,1,1,1,1,1,1,1,1,1,1,1,1,1,1,1,1,1,1,1,1,1,1,1,1,1,1,1,1,1,1,1,1,1,1,1,1,1,1,1,1,1,1,1,1,1,1,1,1,1,1,1,1,1,1,1,1,1,1,1,1,1,1,1,1,1,1,1,1,1,1,1,1,1,1,1,1,1,1,1,1,1,1,1,1,1,1,1,1,1,1,1,1,1,
1,1,1,1,1,1,1,1,1,1,1,1,1,1,1,1,1,1,1,1,1,1,1,1,1,1,1,1,1,1,1,1,1,1,1,1,1,1,1,1,1,1,1,1,1,1,1,1,1,1,1,1,1,1,1,1,1,1,1,1,1,1,1,1,1,1,1,1,1,1,1,1,1,1,1,1,1,1,1,1,1,1,1,1,1,1,1,1,1,1,1,1,1,1,1,1,1,1,1,1,1,1,1,1,1,1,1,1,1,1,1,1,1,1,1,1,1,1,1,1,1,1,1,1,1,1,1,1,
1,1,1,1,1,1,1,1,1,1,1,1,1,1,1,1,1,1,1,1,1,1,1,1,1,1,1,1,1,1,1,1,1,1,1,1,1,1,1,1,1,1,1,1,1,1,1,1,1,1,1,1,1,1,1,1,1,1,1,1,1,1,1,1,1,1,1,1,1,1,1,1,1,1,1,1,1,1,1,1,1,1,1,1,1,1,1,1,1,1,1,1,1,1,1,1,1,1,1,1,1,1,1,1,1,1,1,1,1,1,1,1,1,1,1,1,1,1,1,1,1,1,1,1,1,1,1,1,
1,1,1,1,1,1,1,1,1,1,1,1,1,1,1,1,1,1,1,1,1,1,1,1,1,1,1,1,1,1,1,1,1,1,1,1,1,1,1,1,1,1,1,1,1,1,1,1,1,1,1,1,1,1,1,1,1,1,1,1,1,1,1,1,1,1,1,1,1,1,1,1,1,1,1,1,1,1,1,1,1,1,1,1,1,1,1,1,1,1,1,1,1,1,1,1,1,1,1,1,1,1,1,1,1,1,1,1,1,1,1,1,1,1,1,1,1,1,1,1,1,1,1,1,1,1,1,1,
1,1,1,1,1,1,1,1,1,1,1,1,1,1,1,1,1,1,1,1,1,1,1,1,1,1,1,1,1,1,1,1,1,1,1,1,1,1,1,1,1,1,1,1,1,1,1,1,1,1,1,1,1,1,1,1,1,1,1,1,1,1,1,1,1,1,1,1,1,1,1,1,1,1,1,1,1,1,1,1,1,1,1,1,1,1,1,1,1,1,1,1,1,1,1,1,1,1,1,1,1,1,1,1,1,1,1,1,1,1,1,1,1,1,1,1,1,1,1,1,1,1,1,1,1,1,1,1,
1,1,1,1,1,1,1,1,1,1,1,1,1,1,1,1,1,1,1,1,1,1,1,1,1,1,1,1,1,1,1,1,1,1,1,1,1,1,1,1,1,1,1,1,1,1,1,1,1,1,1,1,1,1,1,1,1,1,1,1,1,1,1,1,1,1,1,1,1,1,1,1,1,1,1,1,1,1,1,1,1,1,1,1,1,1,1,1,1,1,1,1,1,1,1,1,1,1,1,1,1,1,1,1,1,1,1,1,1,1,1,1,1,1,1,1,1,1,1,1,1,1,1,1,1,1,1,1,
1,1,1,1,1,1,1,1,1,1,1,1,1,1,1,1,1,1,1,1,1,1,1,1,1,1,1,1,1,1,1,1,1,1,1,1,1,1,1,1,1,1,1,1,1,1,1,1,1,1,1,1,1,1,1,1,1,1,1,1,1,1,1,1,1,1,1,1,1,1,1,1,1,1,1,1,1,1,1,1,1,1,1,1,1,1,1,1,1,1,1,1,1,1,1,1,1,1,1,1,1,1,1,1,1,1,1,1,1,1,1,1,1,1,1,1,1,1,1,1,1,1,1,1,1,1,1,1,
1,1,1,1,1,1,1,1,1,1,1,1,1,1,1,1,1,1,1,1,1,1,1,1,1,1,1,1,1,1,1,1,1,1,1,1,1,1,1,1,1,1,1,1,1,1,1,1,1,1,1,1,1,1,1,1,1,1,1,1,1,1,1,1,1,1,1,1,1,1,1,1,1,1,1,1,1,1,1,1,1,1,1,1,1,1,1,1,1,1,1,1,1,1,1,1,1,1,1,1,1,1,1,1,1,1,1,1,1,1,1,1,1,1,1,1,1,1,1,1,1,1,1,1,1,1,1,1,
1,1,1,1,1,1,1,1,1,1,1,1,1,1,1,1,1,1,1,1,1,1,1,1,1,1,1,1,1,1,1,1,1,1,1,1,1,1,1,1,1,1,1,1,1,1,1,1,1,1,1,1,1,1,1,1,1,1,1,1,1,1,1,1,1,1,1,1,1,1,1,1,1,1,1,1,1,1,1,1,1,1,1,1,1,1,1,1,1,1,1,1,1,1,1,1,1,1,1,1,1,1,1,1,1,1,1,1,1,1,1,1,1,1,1,1,1,1,1,1,1,1,1,1,1,1,1,1,
1,1,1,1,1,1,1,1,1,1,1,1,1,1,1,1,1,1,1,1,1,1,1,1,1,1,1,1,1,1,1,1,1,1,1,1,1,1,1,1,1,1,1,1,1,1,1,1,1,1,1,1,1,1,1,1,1,1,1,1,1,1,1,1,1,1,1,1,1,1,1,1,1,1,1,1,1,1,1,1,1,1,1,1,1,1,1,1,1,1,1,1,1,1,1,1,1,1,1,1,1,1,1,1,1,1,1,1,1,1,1,1,1,1,1,1,1,1,1,1,1,1,1,1,1,1,1,1,
1,1,1,1,1,1,1,1,1,1,1,1,1,1,1,1,1,1,1,1,1,1,1,1,1,1,1,1,1,1,1,1,1,1,1,1,1,1,1,1,1,1,1,1,1,1,1,1,1,1,1,1,1,1,1,1,1,1,1,1,1,1,1,1,1,1,1,1,1,1,1,1,1,1,1,1,1,1,1,1,1,1,1,1,1,1,1,1,1,1,1,1,1,1,1,1,1,1,1,1,1,1,1,1,1,1,1,1,1,1,1,1,1,1,1,1,1,1,1,1,1,1,1,1,1,1,1,1,
1,1,1,1,1,1,1,1,1,1,1,1,1,1,1,1,1,1,1,1,1,1,1,1,1,1,1,1,1,1,1,1,1,1,1,1,1,1,1,1,1,1,1,1,1,1,1,1,1,1,1,1,1,1,1,1,1,1,1,1,1,1,1,1,1,1,1,1,1,1,1,1,1,1,1,1,1,1,1,1,1,1,1,1,1,1,1,1,1,1,1,1,1,1,1,1,1,1,1,1,1,1,1,1,1,1,1,1,1,1,1,1,1,1,1,1,1,1,1,1,1,1,1,1,1,1,1,1,
1,1,1,1,1,1,1,1,1,1,1,1,1,1,1,1,1,1,1,1,1,1,1,1,1,1,1,1,1,1,1,1,1,1,1,1,1,1,1,1,1,1,1,1,1,1,1,1,1,1,1,1,1,1,1,1,1,1,1,1,1,1,1,1,1,1,1,1,1,1,1,1,1,1,1,1,1,1,1,1,1,1,1,1,1,1,1,1,1,1,1,1,1,1,1,1,1,1,1,1,1,1,1,1,1,1,1,1,1,1,1,1,1,1,1,1,1,1,1,1,1,1,1,1,1,1,1,1,
1,1,1,1,1,1,1,1,1,1,1,1,1,1,1,1,1,1,1,1,1,1,1,1,1,1,1,1,1,1,1,1,1,1,1,1,1,1,1,1,1,1,1,1,1,1,1,1,1,1,1,1,1,1,1,1,1,1,1,1,1,1,1,1,1,1,1,1,1,1,1,1,1,1,1,1,1,1,1,1,1,1,1,1,1,1,1,1,1,1,1,1,1,1,1,1,1,1,1,1,1,1,1,1,1,1,1,1,1,1,1,1,1,1,1,1,1,1,1,1,1,1,1,1,1,1,1,1,
1,1,1,1,1,1,1,1,1,1,1,1,1,1,1,1,1,1,1,1,1,1,1,1,1,1,1,1,1,1,1,1,1,1,1,1,1,1,1,1,1,1,1,1,1,1,1,1,1,1,1,1,1,1,1,1,1,1,1,1,1,1,1,1,1,1,1,1,1,1,1,1,1,1,1,1,1,1,1,1,1,1,1,1,1,1,1,1,1,1,1,1,1,1,1,1,1,1,1,1,1,1,1,1,1,1,1,1,1,1,1,1,1,1,1,1,1,1,1,1,1,1,1,1,1,1,1,1,
1,1,1,1,1,1,1,1,1,1,1,1,1,1,1,1,1,1,1,1,1,1,1,1,1,1,1,1,1,1,1,1,1,1,1,1,1,1,1,1,1,1,1,1,1,1,1,1,1,1,1,1,1,1,1,1,1,1,1,1,1,1,1,1,1,1,1,1,1,1,1,1,1,1,1,1,1,1,1,1,1,1,1,1,1,1,1,1,1,1,1,1,1,1,1,1,1,1,1,1,1,1,1,1,1,1,1,1,1,1,1,1,1,1,1,1,1,1,1,1,1,1,1,1,1,1,1,1,
1,1,1,1,1,1,1,1,1,1,1,1,1,1,1,1,1,1,1,1,1,1,1,1,1,1,1,1,1,1,1,1,1,1,1,1,1,1,1,1,1,1,1,1,1,1,1,1,1,1,1,1,1,1,1,1,1,1,1,1,1,1,1,1,1,1,1,1,1,1,1,1,1,1,1,1,1,1,1,1,1,1,1,1,1,1,1,1,1,1,1,1,1,1,1,1,1,1,1,1,1,1,1,1,1,1,1,1,1,1,1,1,1,1,1,1,1,1,1,1,1,1,1,1,1,1,1,1,
1,1,1,1,1,1,1,1,1,1,1,1,1,1,1,1,1,1,1,1,1,1,1,1,1,1,1,1,1,1,1,1,1,1,1,1,1,1,1,1,1,1,1,1,1,1,1,1,1,1,1,1,1,1,1,1,1,1,1,1,1,1,1,1,1,1,1,1,1,1,1,1,1,1,1,1,1,1,1,1,1,1,1,1,1,1,1,1,1,1,1,1,1,1,1,1,1,1,1,1,1,1,1,1,1,1,1,1,1,1,1,1,1,1,1,1,1,1,1,1,1,1,1,1,1,1,1,1,
1,1,1,1,1,1,1,1,1,1,1,1,1,1,1,1,1,1,1,1,1,1,1,1,1,1,1,1,1,1,1,1,1,1,1,1,1,1,1,1,1,1,1,1,1,1,1,1,1,1,1,1,1,1,1,1,1,1,1,1,1,1,1,1,1,1,1,1,1,1,1,1,1,1,1,1,1,1,1,1,1,1,1,1,1,1,1,1,1,1,1,1,1,1,1,1,1,1,1,1,1,1,1,1,1,1,1,1,1,1,1,1,1,1,1,1,1,1,1,1,1,1,1,1,1,1,1,1,
1,1,1,1,1,1,1,1,1,1,1,1,1,1,1,1,1,1,1,1,1,1,1,1,1,1,1,1,1,1,1,1,1,1,1,1,1,1,1,1,1,1,1,1,1,1,1,1,1,1,1,1,1,1,1,1,1,1,1,1,1,1,1,1,1,1,1,1,1,1,1,1,1,1,1,1,1,1,1,1,1,1,1,1,1,1,1,1,1,1,1,1,1,1,1,1,1,1,1,1,1,1,1,1,1,1,1,1,1,1,1,1,1,1,1,1,1,1,1,1,1,1,1,1,1,1,1,1,
1,1,1,1,1,1,1,1,1,1,1,1,1,1,1,1,1,1,1,1,1,1,1,1,1,1,1,1,1,1,1,1,1,1,1,1,1,1,1,1,1,1,1,1,1,1,1,1,1,1,1,1,1,1,1,1,1,1,1,1,1,1,1,1,1,1,1,1,1,1,1,1,1,1,1,1,1,1,1,1,1,1,1,1,1,1,1,1,1,1,1,1,1,1,1,1,1,1,1,1,1,1,1,1,1,1,1,1,1,1,1,1,1,1,1,1,1,1,1,1,1,1,1,1,1,1,1,1,
1,1,1,1,1,1,1,1,1,1,1,1,1,1,1,1,1,1,1,1,1,1,1,1,1,1,1,1,1,1,1,1,1,1,1,1,1,1,1,1,1,1,1,1,1,1,1,1,1,1,1,1,1,1,1,1,1,1,1,1,1,1,1,1,1,1,1,1,1,1,1,1,1,1,1,1,1,1,1,1,1,1,1,1,1,1,1,1,1,1,1,1,1,1,1,1,1,1,1,1,1,1,1,1,1,1,1,1,1,1,1,1,1,1,1,1,1,1,1,1,1,1,1,1,1,1,1,1,
1,1,1,1,1,1,1,1,1,1,1,1,1,1,1,1,1,1,1,1,1,1,1,1,1,1,1,1,1,1,1,1,1,1,1,1,1,1,1,1,1,1,1,1,1,1,1,1,1,1,1,1,1,1,1,1,1,1,1,1,1,1,1,1,1,1,1,1,1,1,1,1,1,1,1,1,1,1,1,1,1,1,1,1,1,1,1,1,1,1,1,1,1,1,1,1,1,1,1,1,1,1,1,1,1,1,1,1,1,1,1,1,1,1,1,1,1,1,1,1,1,1,1,1,1,1,1,1,
1,1,1,1,1,1,1,1,1,1,1,1,1,1,1,1,1,1,1,1,1,1,1,1,1,1,1,1,1,1,1,1,1,1,1,1,1,1,1,1,1,1,1,1,1,1,1,1,1,1,1,1,1,1,1,1,1,1,1,1,1,1,1,1,1,1,1,1,1,1,1,1,1,1,1,1,1,1,1,1,1,1,1,1,1,1,1,1,1,1,1,1,1,1,1,1,1,1,1,1,1,1,1,1,1,1,1,1,1,1,1,1,1,1,1,1,1,1,1,1,1,1,1,1,1,1,1,1,
1,1,1,1,1,1,1,1,1,1,1,1,1,1,1,1,1,1,1,1,1,1,1,1,1,1,1,1,1,1,1,1,1,1,1,1,1,1,1,1,1,1,1,1,1,1,1,1,1,1,1,1,1,1,1,1,1,1,1,1,1,1,1,1,1,1,1,1,1,1,1,1,1,1,1,1,1,1,1,1,1,1,1,1,1,1,1,1,1,1,1,1,1,1,1,1,1,1,1,1,1,1,1,1,1,1,1,1,1,1,1,1,1,1,1,1,1,1,1,1,1,1,1,1,1,1,1,1,
1,1,1,1,1,1,1,1,1,1,1,1,1,1,1,1,1,1,1,1,1,1,1,1,1,1,1,1,1,1,1,1,1,1,1,1,1,1,1,1,1,1,1,1,1,1,1,1,1,1,1,1,1,1,1,1,1,1,1,1,1,1,1,1,1,1,1,1,1,1,1,1,1,1,1,1,1,1,1,1,1,1,1,1,1,1,1,1,1,1,1,1,1,1,1,1,1,1,1,1,1,1,1,1,1,1,1,1,1,1,1,1,1,1,1,1,1,1,1,1,1,1,1,1,1,1,1,1,
1,1,1,1,1,1,1,1,1,1,1,1,1,1,1,1,1,1,1,1,1,1,1,1,1,1,1,1,1,1,1,1,1,1,1,1,1,1,1,1,1,1,1,1,1,1,1,1,1,1,1,1,1,1,1,1,1,1,1,1,1,1,1,1,1,1,1,1,1,1,1,1,1,1,1,1,1,1,1,1,1,1,1,1,1,1,1,1,1,1,1,1,1,1,1,1,1,1,1,1,1,1,1,1,1,1,1,1,1,1,1,1,1,1,1,1,1,1,1,1,1,1,1,1,1,1,1,1,
1,1,1,1,1,1,1,1,1,1,1,1,1,1,1,1,1,1,1,1,1,1,1,1,1,1,1,1,1,1,1,1,1,1,1,1,1,1,1,1,1,1,1,1,1,1,1,1,1,1,1,1,1,1,1,1,1,1,1,1,1,1,1,1,1,1,1,1,1,1,1,1,1,1,1,1,1,1,1,1,1,1,1,1,1,1,1,1,1,1,1,1,1,1,1,1,1,1,1,1,1,1,1,1,1,1,1,1,1,1,1,1,1,1,1,1,1,1,1,1,1,1,1,1,1,1,1,1,
1,1,1,1,1,1,1,1,1,1,1,1,1,1,1,1,1,1,1,1,1,1,1,1,1,1,1,1,1,1,1,1,1,1,1,1,1,1,1,1,1,1,1,1,1,1,1,1,1,1,1,1,1,1,1,1,1,1,1,1,1,1,1,1,1,1,1,1,1,1,1,1,1,1,1,1,1,1,1,1,1,1,1,1,1,1,1,1,1,1,1,1,1,1,1,1,1,1,1,1,1,1,1,1,1,1,1,1,1,1,1,1,1,1,1,1,1,1,1,1,1,1,1,1,1,1,1,1,
1,1,1,1,1,1,1,1,1,1,1,1,1,1,1,1,1,1,1,1,1,1,1,1,1,1,1,1,1,1,1,1,1,1,1,1,1,1,1,1,1,1,1,1,1,1,1,1,1,1,1,1,1,1,1,1,1,1,1,1,1,1,1,1,1,1,1,1,1,1,1,1,1,1,1,1,1,1,1,1,1,1,1,1,1,1,1,1,1,1,1,1,1,1,1,1,1,1,1,1,1,1,1,1,1,1,1,1,1,1,1,1,1,1,1,1,1,1,1,1,1,1,1,1,1,1,1,1,
1,1,1,1,1,1,1,1,1,1,1,1,1,1,1,1,1,1,1,1,1,1,1,1,1,1,1,1,1,1,1,1,1,1,1,1,1,1,1,1,1,1,1,1,1,1,1,1,1,1,1,1,1,1,1,1,1,1,1,1,1,1,1,1,1,1,1,1,1,1,1,1,1,1,1,1,1,1,1,1,1,1,1,1,1,1,1,1,1,1,1,1,1,1,1,1,1,1,1,1,1,1,1,1,1,1,1,1,1,1,1,1,1,1,1,1,1,1,1,1,1,1,1,1,1,1,1,1,
1,1,1,1,1,1,1,1,1,1,1,1,1,1,1,1,1,1,1,1,1,1,1,1,1,1,1,1,1,1,1,1,1,1,1,1,1,1,1,1,1,1,1,1,1,1,1,1,1,1,1,1,1,1,1,1,1,1,1,1,1,1,1,1,1,1,1,1,1,1,1,1,1,1,1,1,1,1,1,1,1,1,1,1,1,1,1,1,1,1,1,1,1,1,1,1,1,1,1,1,1,1,1,1,1,1,1,1,1,1,1,1,1,1,1,1,1,1,1,1,1,1,1,1,1,1,1,1,
1,1,1,1,1,1,1,1,1,1,1,1,1,1,1,1,1,1,1,1,1,1,1,1,1,1,1,1,1,1,1,1,1,1,1,1,1,1,1,1,1,1,1,1,1,1,1,1,1,1,1,1,1,1,1,1,1,1,1,1,1,1,1,1,1,1,1,1,1,1,1,1,1,1,1,1,1,1,1,1,1,1,1,1,1,1,1,1,1,1,1,1,1,1,1,1,1,1,1,1,1,1,1,1,1,1,1,1,1,1,1,1,1,1,1,1,1,1,1,1,1,1,1,1,1,1,1,1,
1,1,1,1,1,1,1,1,1,1,1,1,1,1,1,1,1,1,1,1,1,1,1,1,1,1,1,1,1,1,1,1,1,1,1,1,1,1,1,1,1,1,1,1,1,1,1,1,1,1,1,1,1,1,1,1,1,1,1,1,1,1,1,1,1,1,1,1,1,1,1,1,1,1,1,1,1,1,1,1,1,1,1,1,1,1,1,1,1,1,1,1,1,1,1,1,1,1,1,1,1,1,1,1,1,1,1,1,1,1,1,1,1,1,1,1,1,1,1,1,1,1,1,1,1,1,1,1,
1,1,1,1,1,1,1,1,1,1,1,1,1,1,1,1,1,1,1,1,1,1,1,1,1,1,1,1,1,1,1,1,1,1,1,1,1,1,1,1,1,1,1,1,1,1,1,1,1,1,1,1,1,1,1,1,1,1,1,1,1,1,1,1,1,1,1,1,1,1,1,1,1,1,1,1,1,1,1,1,1,1,1,1,1,1,1,1,1,1,1,1,1,1,1,1,1,1,1,1,1,1,1,1,1,1,1,1,1,1,1,1,1,1,1,1,1,1,1,1,1,1,1,1,1,1,1,1,
1,1,1,1,1,1,1,1,1,1,1,1,1,1,1,1,1,1,1,1,1,1,1,1,1,1,1,1,1,1,1,1,1,1,1,1,1,1,1,1,1,1,1,1,1,1,1,1,1,1,1,1,1,1,1,1,1,1,1,1,1,1,1,1,1,1,1,1,1,1,1,1,1,1,1,1,1,1,1,1,1,1,1,1,1,1,1,1,1,1,1,1,1,1,1,1,1,1,1,1,1,1,1,1,1,1,1,1,1,1,1,1,1,1,1,1,1,1,1,1,1,1,1,1,1,1,1,1,
1,1,1,1,1,1,1,1,1,1,1,1,1,1,1,1,1,1,1,1,1,1,1,1,1,1,1,1,1,1,1,1,1,1,1,1,1,1,1,1,1,1,1,1,1,1,1,1,1,1,1,1,1,1,1,1,1,1,1,1,1,1,1,1,1,1,1,1,1,1,1,1,1,1,1,1,1,1,1,1,1,1,1,1,1,1,1,1,1,1,1,1,1,1,1,1,1,1,1,1,1,1,1,1,1,1,1,1,1,1,1,1,1,1,1,1,1,1,1,1,1,1,1,1,1,1,1,1,
1,1,1,1,1,1,1,1,1,1,1,1,1,1,1,1,1,1,1,1,1,1,1,1,1,1,1,1,1,1,1,1,1,1,1,1,1,1,1,1,1,1,1,1,1,1,1,1,1,1,1,1,1,1,1,1,1,1,1,1,1,1,1,1,1,1,1,1,1,1,1,1,1,1,1,1,1,1,1,1,1,1,1,1,1,1,1,1,1,1,1,1,1,1,1,1,1,1,1,1,1,1,1,1,1,1,1,1,1,1,1,1,1,1,1,1,1,1,1,1,1,1,1,1,1,1,1,1,
1,1,1,1,1,1,1,1,1,1,1,1,1,1,1,1,1,1,1,1,1,1,1,1,1,1,1,1,1,1,1,1,1,1,1,1,1,1,1,1,1,1,1,1,1,1,1,1,1,1,1,1,1,1,1,1,1,1,1,1,1,1,1,1,1,1,1,1,1,1,1,1,1,1,1,1,1,1,1,1,1,1,1,1,1,1,1,1,1,1,1,1,1,1,1,1,1,1,1,1,1,1,1,1,1,1,1,1,1,1,1,1,1,1,1,1,1,1,1,1,1,1,1,1,1,1,1,1,
1,1,1,1,1,1,1,1,1,1,1,1,1,1,1,1,1,1,1,1,1,1,1,1,1,1,1,1,1,1,1,1,1,1,1,1,1,1,1,1,1,1,1,1,1,1,1,1,1,1,1,1,1,1,1,1,1,1,1,1,1,1,1,1,1,1,1,1,1,1,1,1,1,1,1,1,1,1,1,1,1,1,1,1,1,1,1,1,1,1,1,1,1,1,1,1,1,1,1,1,1,1,1,1,1,1,1,1,1,1,1,1,1,1,1,1,1,1,1,1,1,1,1,1,1,1,1,1,
1,1,1,1,1,1,1,1,1,1,1,1,1,1,1,1,1,1,1,1,1,1,1,1,1,1,1,1,1,1,1,1,1,1,1,1,1,1,1,1,1,1,1,1,1,1,1,1,1,1,1,1,1,1,1,1,1,1,1,1,1,1,1,1,1,1,1,1,1,1,1,1,1,1,1,1,1,1,1,1,1,1,1,1,1,1,1,1,1,1,1,1,1,1,1,1,1,1,1,1,1,1,1,1,1,1,1,1,1,1,1,1,1,1,1,1,1,1,1,1,1,1,1,1,1,1,1,1,
1,1,1,1,1,1,1,1,1,1,1,1,1,1,1,1,1,1,1,1,1,1,1,1,1,1,1,1,1,1,1,1,1,1,1,1,1,1,1,1,1,1,1,1,1,1,1,1,1,1,1,1,1,1,1,1,1,1,1,1,1,1,1,1,1,1,1,1,1,1,1,1,1,1,1,1,1,1,1,1,1,1,1,1,1,1,1,1,1,1,1,1,1,1,1,1,1,1,1,1,1,1,1,1,1,1,1,1,1,1,1,1,1,1,1,1,1,1,1,1,1,1,1,1,1,1,1,1,
1,1,1,1,1,1,1,1,1,1,1,1,1,1,1,1,1,1,1,1,1,1,1,1,1,1,1,1,1,1,1,1,1,1,1,1,1,1,1,1,1,1,1,1,1,1,1,1,1,1,1,1,1,1,1,1,1,1,1,1,1,1,1,1,1,1,1,1,1,1,1,1,1,1,1,1,1,1,1,1,1,1,1,1,1,1,1,1,1,1,1,1,1,1,1,1,1,1,1,1,1,1,1,1,1,1,1,1,1,1,1,1,1,1,1,1,1,1,1,1,1,1,1,1,1,1,1,1,
1,1,1,1,1,1,1,1,1,1,1,1,1,1,1,1,1,1,1,1,1,1,1,1,1,1,1,1,1,1,1,1,1,1,1,1,1,1,1,1,1,1,1,1,1,1,1,1,1,1,1,1,1,1,1,1,1,1,1,1,1,1,1,1,1,1,1,1,1,1,1,1,1,1,1,1,1,1,1,1,1,1,1,1,1,1,1,1,1,1,1,1,1,1,1,1,1,1,1,1,1,1,1,1,1,1,1,1,1,1,1,1,1,1,1,1,1,1,1,1,1,1,1,1,1,1,1,1,
1,1,1,1,1,1,1,1,1,1,1,1,1,1,1,1,1,1,1,1,1,1,1,1,1,1,1,1,1,1,1,1,1,1,1,1,1,1,1,1,1,1,1,1,1,1,1,1,1,1,1,1,1,1,1,1,1,1,1,1,1,1,1,1,1,1,1,1,1,1,1,1,1,1,1,1,1,1,1,1,1,1,1,1,1,1,1,1,1,1,1,1,1,1,1,1,1,1,1,1,1,1,1,1,1,1,1,1,1,1,1,1,1,1,1,1,1,1,1,1,1,1,1,1,1,1,1,1,
1,1,1,1,1,1,1,1,1,1,1,1,1,1,1,1,1,1,1,1,1,1,1,1,1,1,1,1,1,1,1,1,1,1,1,1,1,1,1,1,1,1,1,1,1,1,1,1,1,1,1,1,1,1,1,1,1,1,1,1,1,1,1,1,1,1,1,1,1,1,1,1,1,1,1,1,1,1,1,1,1,1,1,1,1,1,1,1,1,1,1,1,1,1,1,1,1,1,1,1,1,1,1,1,1,1,1,1,1,1,1,1,1,1,1,1,1,1,1,1,1,1,1,1,1,1,1,1,
1,1,1,1,1,1,1,1,1,1,1,1,1,1,1,1,1,1,1,1,1,1,1,1,1,1,1,1,1,1,1,1,1,1,1,1,1,1,1,1,1,1,1,1,1,1,1,1,1,1,1,1,1,1,1,1,1,1,1,1,1,1,1,1,1,1,1,1,1,1,1,1,1,1,1,1,1,1,1,1,1,1,1,1,1,1,1,1,1,1,1,1,1,1,1,1,1,1,1,1,1,1,1,1,1,1,1,1,1,1,1,1,1,1,1,1,1,1,1,1,1,1,1,1,1,1,1,1,
1,1,1,1,1,1,1,1,1,1,1,1,1,1,1,1,1,1,1,1,1,1,1,1,1,1,1,1,1,1,1,1,1,1,1,1,1,1,1,1,1,1,1,1,1,1,1,1,1,1,1,1,1,1,1,1,1,1,1,1,1,1,1,1,1,1,1,1,1,1,1,1,1,1,1,1,1,1,1,1,1,1,1,1,1,1,1,1,1,1,1,1,1,1,1,1,1,1,1,1,1,1,1,1,1,1,1,1,1,1,1,1,1,1,1,1,1,1,1,1,1,1,1,1,1,1,1,1,
1,1,1,1,1,1,1,1,1,1,1,1,1,1,1,1,1,1,1,1,1,1,1,1,1,1,1,1,1,1,1,1,1,1,1,1,1,1,1,1,1,1,1,1,1,1,1,1,1,1,1,1,1,1,1,1,1,1,1,1,1,1,1,1,1,1,1,1,1,1,1,1,1,1,1,1,1,1,1,1,1,1,1,1,1,1,1,1,1,1,1,1,1,1,1,1,1,1,1,1,1,1,1,1,1,1,1,1,1,1,1,1,1,1,1,1,1,1,1,1,1,1,1,1,1,1,1,1,
1,1,1,1,1,1,1,1,1,1,1,1,1,1,1,1,1,1,1,1,1,1,1,1,1,1,1,1,1,1,1,1,1,1,1,1,1,1,1,1,1,1,1,1,1,1,1,1,1,1,1,1,1,1,1,1,1,1,1,1,1,1,1,1,1,1,1,1,1,1,1,1,1,1,1,1,1,1,1,1,1,1,1,1,1,1,1,1,1,1,1,1,1,1,1,1,1,1,1,1,1,1,1,1,1,1,1,1,1,1,1,1,1,1,1,1,1,1,1,1,1,1,1,1,1,1,1,1,
1,1,1,1,1,1,1,1,1,1,1,1,1,1,1,1,1,1,1,1,1,1,1,1,1,1,1,1,1,1,1,1,1,1,1,1,1,1,1,1,1,1,1,1,1,1,1,1,1,1,1,1,1,1,1,1,1,1,1,1,1,1,1,1,1,1,1,1,1,1,1,1,1,1,1,1,1,1,1,1,1,1,1,1,1,1,1,1,1,1,1,1,1,1,1,1,1,1,1,1,1,1,1,1,1,1,1,1,1,1,1,1,1,1,1,1,1,1,1,1,1,1,1,1,1,1,1,1,
1,1,1,1,1,1,1,1,1,1,1,1,1,1,1,1,1,1,1,1,1,1,1,1,1,1,1,1,1,1,1,1,1,1,1,1,1,1,1,1,1,1,1,1,1,1,1,1,1,1,1,1,1,1,1,1,1,1,1,1,1,1,1,1,1,1,1,1,1,1,1,1,1,1,1,1,1,1,1,1,1,1,1,1,1,1,1,1,1,1,1,1,1,1,1,1,1,1,1,1,1,1,1,1,1,1,1,1,1,1,1,1,1,1,1,1,1,1,1,1,1,1,1,1,1,1,1,1,
1,1,1,1,1,1,1,1,1,1,1,1,1,1,1,1,1,1,1,1,1,1,1,1,1,1,1,1,1,1,1,1,1,1,1,1,1,1,1,1,1,1,1,1,1,1,1,1,1,1,1,1,1,1,1,1,1,1,1,1,1,1,1,1,1,1,1,1,1,1,1,1,1,1,1,1,1,1,1,1,1,1,1,1,1,1,1,1,1,1,1,1,1,1,1,1,1,1,1,1,1,1,1,1,1,1,1,1,1,1,1,1,1,1,1,1,1,1,1,1,1,1,1,1,1,1,1,1,
1,1,1,1,1,1,1,1,1,1,1,1,1,1,1,1,1,1,1,1,1,1,1,1,1,1,1,1,1,1,1,1,1,1,1,1,1,1,1,1,1,1,1,1,1,1,1,1,1,1,1,1,1,1,1,1,1,1,1,1,1,1,1,1,1,1,1,1,1,1,1,1,1,1,1,1,1,1,1,1,1,1,1,1,1,1,1,1,1,1,1,1,1,1,1,1,1,1,1,1,1,1,1,1,1,1,1,1,1,1,1,1,1,1,1,1,1,1,1,1,1,1,1,1,1,1,1,1,
1,1,1,1,1,1,1,1,1,1,1,1,1,1,1,1,1,1,1,1,1,1,1,1,1,1,1,1,1,1,1,1,1,1,1,1,1,1,1,1,1,1,1,1,1,1,1,1,1,1,1,1,1,1,1,1,1,1,1,1,1,1,1,1,1,1,1,1,1,1,1,1,1,1,1,1,1,1,1,1,1,1,1,1,1,1,1,1,1,1,1,1,1,1,1,1,1,1,1,1,1,1,1,1,1,1,1,1,1,1,1,1,1,1,1,1,1,1,1,1,1,1,1,1,1,1,1,1,
1,1,1,1,1,1,1,1,1,1,1,1,1,1,1,1,1,1,1,1,1,1,1,1,1,1,1,1,1,1,1,1,1,1,1,1,1,1,1,1,1,1,1,1,1,1,1,1,1,1,1,1,1,1,1,1,1,1,1,1,1,1,1,1,1,1,1,1,1,1,1,1,1,1,1,1,1,1,1,1,1,1,1,1,1,1,1,1,1,1,1,1,1,1,1,1,1,1,1,1,1,1,1,1,1,1,1,1,1,1,1,1,1,1,1,1,1,1,1,1,1,1,1,1,1,1,1,1,
1,1,1,1,1,1,1,1,1,1,1,1,1,1,1,1,1,1,1,1,1,1,1,1,1,1,1,1,1,1,1,1,1,1,1,1,1,1,1,1,1,1,1,1,1,1,1,1,1,1,1,1,1,1,1,1,1,1,1,1,1,1,1,1,1,1,1,1,1,1,1,1,1,1,1,1,1,1,1,1,1,1,1,1,1,1,1,1,1,1,1,1,1,1,1,1,1,1,1,1,1,1,1,1,1,1,1,1,1,1,1,1,1,1,1,1,1,1,1,1,1,1,1,1,1,1,1,1,
1,1,1,1,1,1,1,1,1,1,1,1,1,1,1,1,1,1,1,1,1,1,1,1,1,1,1,1,1,1,1,1,1,1,1,1,1,1,1,1,1,1,1,1,1,1,1,1,1,1,1,1,1,1,1,1,1,1,1,1,1,1,1,1,1,1,1,1,1,1,1,1,1,1,1,1,1,1,1,1,1,1,1,1,1,1,1,1,1,1,1,1,1,1,1,1,1,1,1,1,1,1,1,1,1,1,1,1,1,1,1,1,1,1,1,1,1,1,1,1,1,1,1,1,1,1,1,1,
1,1,1,1,1,1,1,1,1,1,1,1,1,1,1,1,1,1,1,1,1,1,1,1,1,1,1,1,1,1,1,1,1,1,1,1,1,1,1,1,1,1,1,1,1,1,1,1,1,1,1,1,1,1,1,1,1,1,1,1,1,1,1,1,1,1,1,1,1,1,1,1,1,1,1,1,1,1,1,1,1,1,1,1,1,1,1,1,1,1,1,1,1,1,1,1,1,1,1,1,1,1,1,1,1,1,1,1,1,1,1,1,1,1,1,1,1,1,1,1,1,1,1,1,1,1,1,1,
1,1,1,1,1,1,1,1,1,1,1,1,1,1,1,1,1,1,1,1,1,1,1,1,1,1,1,1,1,1,1,1,1,1,1,1,1,1,1,1,1,1,1,1,1,1,1,1,1,1,1,1,1,1,1,1,1,1,1,1,1,1,1,1,1,1,1,1,1,1,1,1,1,1,1,1,1,1,1,1,1,1,1,1,1,1,1,1,1,1,1,1,1,1,1,1,1,1,1,1,1,1,1,1,1,1,1,1,1,1,1,1,1,1,1,1,1,1,1,1,1,1,1,1,1,1,1,1,
1,1,1,1,1,1,1,1,1,1,1,1,1,1,1,1,1,1,1,1,1,1,1,1,1,1,1,1,1,1,1,1,1,1,1,1,1,1,1,1,1,1,1,1,1,1,1,1,1,1,1,1,1,1,1,1,1,1,1,1,1,1,1,1,1,1,1,1,1,1,1,1,1,1,1,1,1,1,1,1,1,1,1,1,1,1,1,1,1,1,1,1,1,1,1,1,1,1,1,1,1,1,1,1,1,1,1,1,1,1,1,1,1,1,1,1,1,1,1,1,1,1,1,1,1,1,1,1,
1,1,1,1,1,1,1,1,1,1,1,1,1,1,1,1,1,1,1,1,1,1,1,1,1,1,1,1,1,1,1,1,1,1,1,1,1,1,1,1,1,1,1,1,1,1,1,1,1,1,1,1,1,1,1,1,1,1,1,1,1,1,1,1,1,1,1,1,1,1,1,1,1,1,1,1,1,1,1,1,1,1,1,1,1,1,1,1,1,1,1,1,1,1,1,1,1,1,1,1,1,1,1,1,1,1,1,1,1,1,1,1,1,1,1,1,1,1,1,1,1,1,1,1,1,1,1,1,
1,1,1,1,1,1,1,1,1,1,1,1,1,1,1,1,1,1,1,1,1,1,1,1,1,1,1,1,1,1,1,1,1,1,1,1,1,1,1,1,1,1,1,1,1,1,1,1,1,1,1,1,1,1,1,1,1,1,1,1,1,1,1,1,1,1,1,1,1,1,1,1,1,1,1,1,1,1,1,1,1,1,1,1,1,1,1,1,1,1,1,1,1,1,1,1,1,1,1,1,1,1,1,1,1,1,1,1,1,1,1,1,1,1,1,1,1,1,1,1,1,1,1,1,1,1,1,1,
1,1,1,1,1,1,1,1,1,1,1,1,1,1,1,1,1,1,1,1,1,1,1,1,1,1,1,1,1,1,1,1,1,1,1,1,1,1,1,1,1,1,1,1,1,1,1,1,1,1,1,1,1,1,1,1,1,1,1,1,1,1,1,1,1,1,1,1,1,1,1,1,1,1,1,1,1,1,1,1,1,1,1,1,1,1,1,1,1,1,1,1,1,1,1,1,1,1,1,1,1,1,1,1,1,1,1,1,1,1,1,1,1,1,1,1,1,1,1,1,1,1,1,1,1,1,1,1,
1,1,1,1,1,1,1,1,1,1,1,1,1,1,1,1,1,1,1,1,1,1,1,1,1,1,1,1,1,1,1,1,1,1,1,1,1,1,1,1,1,1,1,1,1,1,1,1,1,1,1,1,1,1,1,1,1,1,1,1,1,1,1,1,1,1,1,1,1,1,1,1,1,1,1,1,1,1,1,1,1,1,1,1,1,1,1,1,1,1,1,1,1,1,1,1,1,1,1,1,1,1,1,1,1,1,1,1,1,1,1,1,1,1,1,1,1,1,1,1,1,1,1,1,1,1,1,1,
1,1,1,1,1,1,1,1,1,1,1,1,1,1,1,1,1,1,1,1,1,1,1,1,1,1,1,1,1,1,1,1,1,1,1,1,1,1,1,1,1,1,1,1,1,1,1,1,1,1,1,1,1,1,1,1,1,1,1,1,1,1,1,1,1,1,1,1,1,1,1,1,1,1,1,1,1,1,1,1,1,1,1,1,1,1,1,1,1,1,1,1,1,1,1,1,1,1,1,1,1,1,1,1,1,1,1,1,1,1,1,1,1,1,1,1,1,1,1,1,1,1,1,1,1,1,1,1,
1,1,1,1,1,1,1,1,1,1,1,1,1,1,1,1,1,1,1,1,1,1,1,1,1,1,1,1,1,1,1,1,1,1,1,1,1,1,1,1,1,1,1,1,1,1,1,1,1,1,1,1,1,1,1,1,1,1,1,1,1,1,1,1,1,1,1,1,1,1,1,1,1,1,1,1,1,1,1,1,1,1,1,1,1,1,1,1,1,1,1,1,1,1,1,1,1,1,1,1,1,1,1,1,1,1,1,1,1,1,1,1,1,1,1,1,1,1,1,1,1,1,1,1,1,1,1,1,
1,1,1,1,1,1,1,1,1,1,1,1,1,1,1,1,1,1,1,1,1,1,1,1,1,1,1,1,1,1,1,1,1,1,1,1,1,1,1,1,1,1,1,1,1,1,1,1,1,1,1,1,1,1,1,1,1,1,1,1,1,1,1,1,1,1,1,1,1,1,1,1,1,1,1,1,1,1,1,1,1,1,1,1,1,1,1,1,1,1,1,1,1,1,1,1,1,1,1,1,1,1,1,1,1,1,1,1,1,1,1,1,1,1,1,1,1,1,1,1,1,1,1,1,1,1,1,1,
1,1,1,1,1,1,1,1,1,1,1,1,1,1,1,1,1,1,1,1,1,1,1,1,1,1,1,1,1,1,1,1,1,1,1,1,1,1,1,1,1,1,1,1,1,1,1,1,1,1,1,1,1,1,1,1,1,1,1,1,1,1,1,1,1,1,1,1,1,1,1,1,1,1,1,1,1,1,1,1,1,1,1,1,1,1,1,1,1,1,1,1,1,1,1,1,1,1,1,1,1,1,1,1,1,1,1,1,1,1,1,1,1,1,1,1,1,1,1,1,1,1,1,1,1,1,1,1,
1,1,1,1,1,1,1,1,1,1,1,1,1,1,1,1,1,1,1,1,1,1,1,1,1,1,1,1,1,1,1,1,1,1,1,1,1,1,1,1,1,1,1,1,1,1,1,1,1,1,1,1,1,1,1,1,1,1,1,1,1,1,1,1,1,1,1,1,1,1,1,1,1,1,1,1,1,1,1,1,1,1,1,1,1,1,1,1,1,1,1,1,1,1,1,1,1,1,1,1,1,1,1,1,1,1,1,1,1,1,1,1,1,1,1,1,1,1,1,1,1,1,1,1,1,1,1,1,
1,1,1,1,1,1,1,1,1,1,1,1,1,1,1,1,1,1,1,1,1,1,1,1,1,1,1,1,1,1,1,1,1,1,1,1,1,1,1,1,1,1,1,1,1,1,1,1,1,1,1,1,1,1,1,1,1,1,1,1,1,1,1,1,1,1,1,1,1,1,1,1,1,1,1,1,1,1,1,1,1,1,1,1,1,1,1,1,1,1,1,1,1,1,1,1,1,1,1,1,1,1,1,1,1,1,1,1,1,1,1,1,1,1,1,1,1,1,1,1,1,1,1,1,1,1,1,1,
1,1,1,1,1,1,1,1,1,1,1,1,1,1,1,1,1,1,1,1,1,1,1,1,1,1,1,1,1,1,1,1,1,1,1,1,1,1,1,1,1,1,1,1,1,1,1,1,1,1,1,1,1,1,1,1,1,1,1,1,1,1,1,1,1,1,1,1,1,1,1,1,1,1,1,1,1,1,1,1,1,1,1,1,1,1,1,1,1,1,1,1,1,1,1,1,1,1,1,1,1,1,1,1,1,1,1,1,1,1,1,1,1,1,1,1,1,1,1,1,1,1,1,1,1,1,1,1,
1,1,1,1,1,1,1,1,1,1,1,1,1,1,1,1,1,1,1,1,1,1,1,1,1,1,1,1,1,1,1,1,1,1,1,1,1,1,1,1,1,1,1,1,1,1,1,1,1,1,1,1,1,1,1,1,1,1,1,1,1,1,1,1,1,1,1,1,1,1,1,1,1,1,1,1,1,1,1,1,1,1,1,1,1,1,1,1,1,1,1,1,1,1,1,1,1,1,1,1,1,1,1,1,1,1,1,1,1,1,1,1,1,1,1,1,1,1,1,1,1,1,1,1,1,1,1,1,
1,1,1,1,1,1,1,1,1,1,1,1,1,1,1,1,1,1,1,1,1,1,1,1,1,1,1,1,1,1,1,1,1,1,1,1,1,1,1,1,1,1,1,1,1,1,1,1,1,1,1,1,1,1,1,1,1,1,1,1,1,1,1,1,1,1,1,1,1,1,1,1,1,1,1,1,1,1,1,1,1,1,1,1,1,1,1,1,1,1,1,1,1,1,1,1,1,1,1,1,1,1,1,1,1,1,1,1,1,1,1,1,1,1,1,1,1,1,1,1,1,1,1,1,1,1,1,1,
1,1,1,1,1,1,1,1,1,1,1,1,1,1,1,1,1,1,1,1,1,1,1,1,1,1,1,1,1,1,1,1,1,1,1,1,1,1,1,1,1,1,1,1,1,1,1,1,1,1,1,1,1,1,1,1,1,1,1,1,1,1,1,1,1,1,1,1,1,1,1,1,1,1,1,1,1,1,1,1,1,1,1,1,1,1,1,1,1,1,1,1,1,1,1,1,1,1,1,1,1,1,1,1,1,1,1,1,1,1,1,1,1,1,1,1,1,1,1,1,1,1,1,1,1,1,1,1,
1,1,1,1,1,1,1,1,1,1,1,1,1,1,1,1,1,1,1,1,1,1,1,1,1,1,1,1,1,1,1,1,1,1,1,1,1,1,1,1,1,1,1,1,1,1,1,1,1,1,1,1,1,1,1,1,1,1,1,1,1,1,1,1,1,1,1,1,1,1,1,1,1,1,1,1,1,1,1,1,1,1,1,1,1,1,1,1,1,1,1,1,1,1,1,1,1,1,1,1,1,1,1,1,1,1,1,1,1,1,1,1,1,1,1,1,1,1,1,1,1,1,1,1,1,1,1,1,
1,1,1,1,1,1,1,1,1,1,1,1,1,1,1,1,1,1,1,1,1,1,1,1,1,1,1,1,1,1,1,1,1,1,1,1,1,1,1,1,1,1,1,1,1,1,1,1,1,1,1,1,1,1,1,1,1,1,1,1,1,1,1,1,1,1,1,1,1,1,1,1,1,1,1,1,1,1,1,1,1,1,1,1,1,1,1,1,1,1,1,1,1,1,1,1,1,1,1,1,1,1,1,1,1,1,1,1,1,1,1,1,1,1,1,1,1,1,1,1,1,1,1,1,1,1,1,1,
1,1,1,1,1,1,1,1,1,1,1,1,1,1,1,1,1,1,1,1,1,1,1,1,1,1,1,1,1,1,1,1,1,1,1,1,1,1,1,1,1,1,1,1,1,1,1,1,1,1,1,1,1,1,1,1,1,1,1,1,1,1,1,1,1,1,1,1,1,1,1,1,1,1,1,1,1,1,1,1,1,1,1,1,1,1,1,1,1,1,1,1,1,1,1,1,1,1,1,1,1,1,1,1,1,1,1,1,1,1,1,1,1,1,1,1,1,1,1,1,1,1,1,1,1,1,1,1,
1,1,1,1,1,1,1,1,1,1,1,1,1,1,1,1,1,1,1,1,1,1,1,1,1,1,1,1,1,1,1,1,1,1,1,1,1,1,1,1,1,1,1,1,1,1,1,1,1,1,1,1,1,1,1,1,1,1,1,1,1,1,1,1,1,1,1,1,1,1,1,1,1,1,1,1,1,1,1,1,1,1,1,1,1,1,1,1,1,1,1,1,1,1,1,1,1,1,1,1,1,1,1,1,1,1,1,1,1,1,1,1,1,1,1,1,1,1,1,1,1,1,1,1,1,1,1,1,
1,1,1,1,1,1,1,1,1,1,1,1,1,1,1,1,1,1,1,1,1,1,1,1,1,1,1,1,1,1,1,1,1,1,1,1,1,1,1,1,1,1,1,1,1,1,1,1,1,1,1,1,1,1,1,1,1,1,1,1,1,1,1,1,1,1,1,1,1,1,1,1,1,1,1,1,1,1,1,1,1,1,1,1,1,1,1,1,1,1,1,1,1,1,1,1,1,1,1,1,1,1,1,1,1,1,1,1,1,1,1,1,1,1,1,1,1,1,1,1,1,1,1,1,1,1,1,1,
1,1,1,1,1,1,1,1,1,1,1,1,1,1,1,1,1,1,1,1,1,1,1,1,1,1,1,1,1,1,1,1,1,1,1,1,1,1,1,1,1,1,1,1,1,1,1,1,1,1,1,1,1,1,1,1,1,1,1,1,1,1,1,1,1,1,1,1,1,1,1,1,1,1,1,1,1,1,1,1,1,1,1,1,1,1,1,1,1,1,1,1,1,1,1,1,1,1,1,1,1,1,1,1,1,1,1,1,1,1,1,1,1,1,1,1,1,1,1,1,1,1,1,1,1,1,1,1,
1,1,1,1,1,1,1,1,1,1,1,1,1,1,1,1,1,1,1,1,1,1,1,1,1,1,1,1,1,1,1,1,1,1,1,1,1,1,1,1,1,1,1,1,1,1,1,1,1,1,1,1,1,1,1,1,1,1,1,1,1,1,1,1,1,1,1,1,1,1,1,1,1,1,1,1,1,1,1,1,1,1,1,1,1,1,1,1,1,1,1,1,1,1,1,1,1,1,1,1,1,1,1,1,1,1,1,1,1,1,1,1,1,1,1,1,1,1,1,1,1,1,1,1,1,1,1,1,
1,1,1,1,1,1,1,1,1,1,1,1,1,1,1,1,1,1,1,1,1,1,1,1,1,1,1,1,1,1,1,1,1,1,1,1,1,1,1,1,1,1,1,1,1,1,1,1,1,1,1,1,1,1,1,1,1,1,1,1,1,1,1,1,1,1,1,1,1,1,1,1,1,1,1,1,1,1,1,1,1,1,1,1,1,1,1,1,1,1,1,1,1,1,1,1,1,1,1,1,1,1,1,1,1,1,1,1,1,1,1,1,1,1,1,1,1,1,1,1,1,1,1,1,1,1,1,1,
1,1,1,1,1,1,1,1,1,1,1,1,1,1,1,1,1,1,1,1,1,1,1,1,1,1,1,1,1,1,1,1,1,1,1,1,1,1,1,1,1,1,1,1,1,1,1,1,1,1,1,1,1,1,1,1,1,1,1,1,1,1,1,1,1,1,1,1,1,1,1,1,1,1,1,1,1,1,1,1,1,1,1,1,1,1,1,1,1,1,1,1,1,1,1,1,1,1,1,1,1,1,1,1,1,1,1,1,1,1,1,1,1,1,1,1,1,1,1,1,1,1,1,1,1,1,1,1,
1,1,1,1,1,1,1,1,1,1,1,1,1,1,1,1,1,1,1,1,1,1,1,1,1,1,1,1,1,1,1,1,1,1,1,1,1,1,1,1,1,1,1,1,1,1,1,1,1,1,1,1,1,1,1,1,1,1,1,1,1,1,1,1,1,1,1,1,1,1,1,1,1,1,1,1,1,1,1,1,1,1,1,1,1,1,1,1,1,1,1,1,1,1,1,1,1,1,1,1,1,1,1,1,1,1,1,1,1,1,1,1,1,1,1,1,1,1,1,1,1,1,1,1,1,1,1,1,
1,1,1,1,1,1,1,1,1,1,1,1,1,1,1,1,1,1,1,1,1,1,1,1,1,1,1,1,1,1,1,1,1,1,1,1,1,1,1,1,1,1,1,1,1,1,1,1,1,1,1,1,1,1,1,1,1,1,1,1,1,1,1,1,1,1,1,1,1,1,1,1,1,1,1,1,1,1,1,1,1,1,1,1,1,1,1,1,1,1,1,1,1,1,1,1,1,1,1,1,1,1,1,1,1,1,1,1,1,1,1,1,1,1,1,1,1,1,1,1,1,1,1,1,1,1,1,1,
1,1,1,1,1,1,1,1,1,1,1,1,1,1,1,1,1,1,1,1,1,1,1,1,1,1,1,1,1,1,1,1,1,1,1,1,1,1,1,1,1,1,1,1,1,1,1,1,1,1,1,1,1,1,1,1,1,1,1,1,1,1,1,1,1,1,1,1,1,1,1,1,1,1,1,1,1,1,1,1,1,1,1,1,1,1,1,1,1,1,1,1,1,1,1,1,1,1,1,1,1,1,1,1,1,1,1,1,1,1,1,1,1,1,1,1,1,1,1,1,1,1,1,1,1,1,1,1,
1,1,1,1,1,1,1,1,1,1,1,1,1,1,1,1,1,1,1,1,1,1,1,1,1,1,1,1,1,1,1,1,1,1,1,1,1,1,1,1,1,1,1,1,1,1,1,1,1,1,1,1,1,1,1,1,1,1,1,1,1,1,1,1,1,1,1,1,1,1,1,1,1,1,1,1,1,1,1,1,1,1,1,1,1,1,1,1,1,1,1,1,1,1,1,1,1,1,1,1,1,1,1,1,1,1,1,1,1,1,1,1,1,1,1,1,1,1,1,1,1,1,1,1,1,1,1,1,
1,1,1,1,1,1,1,1,1,1,1,1,1,1,1,1,1,1,1,1,1,1,1,1,1,1,1,1,1,1,1,1,1,1,1,1,1,1,1,1,1,1,1,1,1,1,1,1,1,1,1,1,1,1,1,1,1,1,1,1,1,1,1,1,1,1,1,1,1,1,1,1,1,1,1,1,1,1,1,1,1,1,1,1,1,1,1,1,1,1,1,1,1,1,1,1,1,1,1,1,1,1,1,1,1,1,1,1,1,1,1,1,1,1,1,1,1,1,1,1,1,1,1,1,1,1,1,1,
1,1,1,1,1,1,1,1,1,1,1,1,1,1,1,1,1,1,1,1,1,1,1,1,1,1,1,1,1,1,1,1,1,1,1,1,1,1,1,1,1,1,1,1,1,1,1,1,1,1,1,1,1,1,1,1,1,1,1,1,1,1,1,1,1,1,1,1,1,1,1,1,1,1,1,1,1,1,1,1,1,1,1,1,1,1,1,1,1,1,1,1,1,1,1,1,1,1,1,1,1,1,1,1,1,1,1,1,1,1,1,1,1,1,1,1,1,1,1,1,1,1,1,1,1,1,1,1,
1,1,1,1,1,1,1,1,1,1,1,1,1,1,1,1,1,1,1,1,1,1,1,1,1,1,1,1,1,1,1,1,1,1,1,1,1,1,1,1,1,1,1,1,1,1,1,1,1,1,1,1,1,1,1,1,1,1,1,1,1,1,1,1,1,1,1,1,1,1,1,1,1,1,1,1,1,1,1,1,1,1,1,1,1,1,1,1,1,1,1,1,1,1,1,1,1,1,1,1,1,1,1,1,1,1,1,1,1,1,1,1,1,1,1,1,1,1,1,1,1,1,1,1,1,1,1,1,
1,1,1,1,1,1,1,1,1,1,1,1,1,1,1,1,1,1,1,1,1,1,1,1,1,1,1,1,1,1,1,1,1,1,1,1,1,1,1,1,1,1,1,1,1,1,1,1,1,1,1,1,1,1,1,1,1,1,1,1,1,1,1,1,1,1,1,1,1,1,1,1,1,1,1,1,1,1,1,1,1,1,1,1,1,1,1,1,1,1,1,1,1,1,1,1,1,1,1,1,1,1,1,1,1,1,1,1,1,1,1,1,1,1,1,1,1,1,1,1,1,1,1,1,1,1,1,1,
1,1,1,1,1,1,1,1,1,1,1,1,1,1,1,1,1,1,1,1,1,1,1,1,1,1,1,1,1,1,1,1,1,1,1,1,1,1,1,1,1,1,1,1,1,1,1,1,1,1,1,1,1,1,1,1,1,1,1,1,1,1,1,1,1,1,1,1,1,1,1,1,1,1,1,1,1,1,1,1,1,1,1,1,1,1,1,1,1,1,1,1,1,1,1,1,1,1,1,1,1,1,1,1,1,1,1,1,1,1,1,1,1,1,1,1,1,1,1,1,1,1,1,1,1,1,1,1,
1,1,1,1,1,1,1,1,1,1,1,1,1,1,1,1,1,1,1,1,1,1,1,1,1,1,1,1,1,1,1,1,1,1,1,1,1,1,1,1,1,1,1,1,1,1,1,1,1,1,1,1,1,1,1,1,1,1,1,1,1,1,1,1,1,1,1,1,1,1,1,1,1,1,1,1,1,1,1,1,1,1,1,1,1,1,1,1,1,1,1,1,1,1,1,1,1,1,1,1,1,1,1,1,1,1,1,1,1,1,1,1,1,1,1,1,1,1,1,1,1,1,1,1,1,1,1,1,
1,1,1,1,1,1,1,1,1,1,1,1,1,1,1,1,1,1,1,1,1,1,1,1,1,1,1,1,1,1,1,1,1,1,1,1,1,1,1,1,1,1,1,1,1,1,1,1,1,1,1,1,1,1,1,1,1,1,1,1,1,1,1,1,1,1,1,1,1,1,1,1,1,1,1,1,1,1,1,1,1,1,1,1,1,1,1,1,1,1,1,1,1,1,1,1,1,1,1,1,1,1,1,1,1,1,1,1,1,1,1,1,1,1,1,1,1,1,1,1,1,1,1,1,1,1,1,1,
1,1,1,1,1,1,1,1,1,1,1,1,1,1,1,1,1,1,1,1,1,1,1,1,1,1,1,1,1,1,1,1,1,1,1,1,1,1,1,1,1,1,1,1,1,1,1,1,1,1,1,1,1,1,1,1,1,1,1,1,1,1,1,1,1,1,1,1,1,1,1,1,1,1,1,1,1,1,1,1,1,1,1,1,1,1,1,1,1,1,1,1,1,1,1,1,1,1,1,1,1,1,1,1,1,1,1,1,1,1,1,1,1,1,1,1,1,1,1,1,1,1,1,1,1,1,1,1,
1,1,1,1,1,1,1,1,1,1,1,1,1,1,1,1,1,1,1,1,1,1,1,1,1,1,1,1,1,1,1,1,1,1,1,1,1,1,1,1,1,1,1,1,1,1,1,1,1,1,1,1,1,1,1,1,1,1,1,1,1,1,1,1,1,1,1,1,1,1,1,1,1,1,1,1,1,1,1,1,1,1,1,1,1,1,1,1,1,1,1,1,1,1,1,1,1,1,1,1,1,1,1,1,1,1,1,1,1,1,1,1,1,1,1,1,1,1,1,1,1,1,1,1,1,1,1,1,
1,1,1,1,1,1,1,1,1,1,1,1,1,1,1,1,1,1,1,1,1,1,1,1,1,1,1,1,1,1,1,1,1,1,1,1,1,1,1,1,1,1,1,1,1,1,1,1,1,1,1,1,1,1,1,1,1,1,1,1,1,1,1,1,1,1,1,1,1,1,1,1,1,1,1,1,1,1,1,1,1,1,1,1,1,1,1,1,1,1,1,1,1,1,1,1,1,1,1,1,1,1,1,1,1,1,1,1,1,1,1,1,1,1,1,1,1,1,1,1,1,1,1,1,1,1,1,1,
1,1,1,1,1,1,1,1,1,1,1,1,1,1,1,1,1,1,1,1,1,1,1,1,1,1,1,1,1,1,1,1,1,1,1,1,1,1,1,1,1,1,1,1,1,1,1,1,1,1,1,1,1,1,1,1,1,1,1,1,1,1,1,1,1,1,1,1,1,1,1,1,1,1,1,1,1,1,1,1,1,1,1,1,1,1,1,1,1,1,1,1,1,1,1,1,1,1,1,1,1,1,1,1,1,1,1,1,1,1,1,1,1,1,1,1,1,1,1,1,1,1,1,1,1,1,1,1,
1,1,1,1,1,1,1,1,1,1,1,1,1,1,1,1,1,1,1,1,1,1,1,1,1,1,1,1,1,1,1,1,1,1,1,1,1,1,1,1,1,1,1,1,1,1,1,1,1,1,1,1,1,1,1,1,1,1,1,1,1,1,1,1,1,1,1,1,1,1,1,1,1,1,1,1,1,1,1,1,1,1,1,1,1,1,1,1,1,1,1,1,1,1,1,1,1,1,1,1,1,1,1,1,1,1,1,1,1,1,1,1,1,1,1,1,1,1,1,1,1,1,1,1,1,1,1,1,
1,1,1,1,1,1,1,1,1,1,1,1,1,1,1,1,1,1,1,1,1,1,1,1,1,1,1,1,1,1,1,1,1,1,1,1,1,1,1,1,1,1,1,1,1,1,1,1,1,1,1,1,1,1,1,1,1,1,1,1,1,1,1,1,1,1,1,1,1,1,1,1,1,1,1,1,1,1,1,1,1,1,1,1,1,1,1,1,1,1,1,1,1,1,1,1,1,1,1,1,1,1,1,1,1,1,1,1,1,1,1,1,1,1,1,1,1,1,1,1,1,1,1,1,1,1,1,1,
1,1,1,1,1,1,1,1,1,1,1,1,1,1,1,1,1,1,1,1,1,1,1,1,1,1,1,1,1,1,1,1,1,1,1,1,1,1,1,1,1,1,1,1,1,1,1,1,1,1,1,1,1,1,1,1,1,1,1,1,1,1,1,1,1,1,1,1,1,1,1,1,1,1,1,1,1,1,1,1,1,1,1,1,1,1,1,1,1,1,1,1,1,1,1,1,1,1,1,1,1,1,1,1,1,1,1,1,1,1,1,1,1,1,1,1,1,1,1,1,1,1,1,1,1,1,1,1,
1,1,1,1,1,1,1,1,1,1,1,1,1,1,1,1,1,1,1,1,1,1,1,1,1,1,1,1,1,1,1,1,1,1,1,1,1,1,1,1,1,1,1,1,1,1,1,1,1,1,1,1,1,1,1,1,1,1,1,1,1,1,1,1,1,1,1,1,1,1,1,1,1,1,1,1,1,1,1,1,1,1,1,1,1,1,1,1,1,1,1,1,1,1,1,1,1,1,1,1,1,1,1,1,1,1,1,1,1,1,1,1,1,1,1,1,1,1,1,1,1,1,1,1,1,1,1,1,
1,1,1,1,1,1,1,1,1,1,1,1,1,1,1,1,1,1,1,1,1,1,1,1,1,1,1,1,1,1,1,1,1,1,1,1,1,1,1,1,1,1,1,1,1,1,1,1,1,1,1,1,1,1,1,1,1,1,1,1,1,1,1,1,1,1,1,1,1,1,1,1,1,1,1,1,1,1,1,1,1,1,1,1,1,1,1,1,1,1,1,1,1,1,1,1,1,1,1,1,1,1,1,1,1,1,1,1,1,1,1,1,1,1,1,1,1,1,1,1,1,1,1,1,1,1,1,1,
1,1,1,1,1,1,1,1,1,1,1,1,1,1,1,1,1,1,1,1,1,1,1,1,1,1,1,1,1,1,1,1,1,1,1,1,1,1,1,1,1,1,1,1,1,1,1,1,1,1,1,1,1,1,1,1,1,1,1,1,1,1,1,1,1,1,1,1,1,1,1,1,1,1,1,1,1,1,1,1,1,1,1,1,1,1,1,1,1,1,1,1,1,1,1,1,1,1,1,1,1,1,1,1,1,1,1,1,1,1,1,1,1,1,1,1,1,1,1,1,1,1,1,1,1,1,1,1,
1,1,1,1,1,1,1,1,1,1,1,1,1,1,1,1,1,1,1,1,1,1,1,1,1,1,1,1,1,1,1,1,1,1,1,1,1,1,1,1,1,1,1,1,1,1,1,1,1,1,1,1,1,1,1,1,1,1,1,1,1,1,1,1,1,1,1,1,1,1,1,1,1,1,1,1,1,1,1,1,1,1,1,1,1,1,1,1,1,1,1,1,1,1,1,1,1,1,1,1,1,1,1,1,1,1,1,1,1,1,1,1,1,1,1,1,1,1,1,1,1,1,1,1,1,1,1,1,
1,1,1,1,1,1,1,1,1,1,1,1,1,1,1,1,1,1,1,1,1,1,1,1,1,1,1,1,1,1,1,1,1,1,1,1,1,1,1,1,1,1,1,1,1,1,1,1,1,1,1,1,1,1,1,1,1,1,1,1,1,1,1,1,1,1,1,1,1,1,1,1,1,1,1,1,1,1,1,1,1,1,1,1,1,1,1,1,1,1,1,1,1,1,1,1,1,1,1,1,1,1,1,1,1,1,1,1,1,1,1,1,1,1,1,1,1,1,1,1,1,1,1,1,1,1,1,1,
1,1,1,1,1,1,1,1,1,1,1,1,1,1,1,1,1,1,1,1,1,1,1,1,1,1,1,1,1,1,1,1,1,1,1,1,1,1,1,1,1,1,1,1,1,1,1,1,1,1,1,1,1,1,1,1,1,1,1,1,1,1,1,1,1,1,1,1,1,1,1,1,1,1,1,1,1,1,1,1,1,1,1,1,1,1,1,1,1,1,1,1,1,1,1,1,1,1,1,1,1,1,1,1,1,1,1,1,1,1,1,1,1,1,1,1,1,1,1,1,1,1,1,1,1,1,1,1,
1,1,1,1,1,1,1,1,1,1,1,1,1,1,1,1,1,1,1,1,1,1,1,1,1,1,1,1,1,1,1,1,1,1,1,1,1,1,1,1,1,1,1,1,1,1,1,1,1,1,1,1,1,1,1,1,1,1,1,1,1,1,1,1,1,1,1,1,1,1,1,1,1,1,1,1,1,1,1,1,1,1,1,1,1,1,1,1,1,1,1,1,1,1,1,1,1,1,1,1,1,1,1,1,1,1,1,1,1,1,1,1,1,1,1,1,1,1,1,1,1,1,1,1,1,1,1,1,
1,1,1,1,1,1,1,1,1,1,1,1,1,1,1,1,1,1,1,1,1,1,1,1,1,1,1,1,1,1,1,1,1,1,1,1,1,1,1,1,1,1,1,1,1,1,1,1,1,1,1,1,1,1,1,1,1,1,1,1,1,1,1,1,1,1,1,1,1,1,1,1,1,1,1,1,1,1,1,1,1,1,1,1,1,1,1,1,1,1,1,1,1,1,1,1,1,1,1,1,1,1,1,1,1,1,1,1,1,1,1,1,1,1,1,1,1,1,1,1,1,1,1,1,1,1,1,1,
1,1,1,1,1,1,1,1,1,1,1,1,1,1,1,1,1,1,1,1,1,1,1,1,1,1,1,1,1,1,1,1,1,1,1,1,1,1,1,1,1,1,1,1,1,1,1,1,1,1,1,1,1,1,1,1,1,1,1,1,1,1,1,1,1,1,1,1,1,1,1,1,1,1,1,1,1,1,1,1,1,1,1,1,1,1,1,1,1,1,1,1,1,1,1,1,1,1,1,1,1,1,1,1,1,1,1,1,1,1,1,1,1,1,1,1,1,1,1,1,1,1,1,1,1,1,1,1,
1,1,1,1,1,1,1,1,1,1,1,1,1,1,1,1,1,1,1,1,1,1,1,1,1,1,1,1,1,1,1,1,1,1,1,1,1,1,1,1,1,1,1,1,1,1,1,1,1,1,1,1,1,1,1,1,1,1,1,1,1,1,1,1,1,1,1,1,1,1,1,1,1,1,1,1,1,1,1,1,1,1,1,1,1,1,1,1,1,1,1,1,1,1,1,1,1,1,1,1,1,1,1,1,1,1,1,1,1,1,1,1,1,1,1,1,1,1,1,1,1,1,1,1,1,1,1,1,
1,1,1,1,1,1,1,1,1,1,1,1,1,1,1,1,1,1,1,1,1,1,1,1,1,1,1,1,1,1,1,1,1,1,1,1,1,1,1,1,1,1,1,1,1,1,1,1,1,1,1,1,1,1,1,1,1,1,1,1,1,1,1,1,1,1,1,1,1,1,1,1,1,1,1,1,1,1,1,1,1,1,1,1,1,1,1,1,1,1,1,1,1,1,1,1,1,1,1,1,1,1,1,1,1,1,1,1,1,1,1,1,1,1,1,1,1,1,1,1,1,1,1,1,1,1,1,1,
1,1,1,1,1,1,1,1,1,1,1,1,1,1,1,1,1,1,1,1,1,1,1,1,1,1,1,1,1,1,1,1,1,1,1,1,1,1,1,1,1,1,1,1,1,1,1,1,1,1,1,1,1,1,1,1,1,1,1,1,1,1,1,1,1,1,1,1,1,1,1,1,1,1,1,1,1,1,1,1,1,1,1,1,1,1,1,1,1,1,1,1,1,1,1,1,1,1,1,1,1,1,1,1,1,1,1,1,1,1,1,1,1,1,1,1,1,1,1,1,1,1,1,1,1,1,1,1,
1,1,1,1,1,1,1,1,1,1,1,1,1,1,1,1,1,1,1,1,1,1,1,1,1,1,1,1,1,1,1,1,1,1,1,1,1,1,1,1,1,1,1,1,1,1,1,1,1,1,1,1,1,1,1,1,1,1,1,1,1,1,1,1,1,1,1,1,1,1,1,1,1,1,1,1,1,1,1,1,1,1,1,1,1,1,1,1,1,1,1,1,1,1,1,1,1,1,1,1,1,1,1,1,1,1,1,1,1,1,1,1,1,1,1,1,1,1,1,1,1,1,1,1,1,1,1,1,
1,1,1,1,1,1,1,1,1,1,1,1,1,1,1,1,1,1,1,1,1,1,1,1,1,1,1,1,1,1,1,1,1,1,1,1,1,1,1,1,1,1,1,1,1,1,1,1,1,1,1,1,1,1,1,1,1,1,1,1,1,1,1,1,1,1,1,1,1,1,1,1,1,1,1,1,1,1,1,1,1,1,1,1,1,1,1,1,1,1,1,1,1,1,1,1,1,1,1,1,1,1,1,1,1,1,1,1,1,1,1,1,1,1,1,1,1,1,1,1,1,1,1,1,1,1,1,1,
1,1,1,1,1,1,1,1,1,1,1,1,1,1,1,1,1,1,1,1,1,1,1,1,1,1,1,1,1,1,1,1,1,1,1,1,1,1,1,1,1,1,1,1,1,1,1,1,1,1,1,1,1,1,1,1,1,1,1,1,1,1,1,1,1,1,1,1,1,1,1,1,1,1,1,1,1,1,1,1,1,1,1,1,1,1,1,1,1,1,1,1,1,1,1,1,1,1,1,1,1,1,1,1,1,1,1,1,1,1,1,1,1,1,1,1,1,1,1,1,1,1,1,1,1,1,1,1,
1,1,1,1,1,1,1,1,1,1,1,1,1,1,1,1,1,1,1,1,1,1,1,1,1,1,1,1,1,1,1,1,1,1,1,1,1,1,1,1,1,1,1,1,1,1,1,1,1,1,1,1,1,1,1,1,1,1,1,1,1,1,1,1,1,1,1,1,1,1,1,1,1,1,1,1,1,1,1,1,1,1,1,1,1,1,1,1,1,1,1,1,1,1,1,1,1,1,1,1,1,1,1,1,1,1,1,1,1,1,1,1,1,1,1,1,1,1,1,1,1,1,1,1,1,1,1,1,
1,1,1,1,1,1,1,1,1,1,1,1,1,1,1,1,1,1,1,1,1,1,1,1,1,1,1,1,1,1,1,1,1,1,1,1,1,1,1,1,1,1,1,1,1,1,1,1,1,1,1,1,1,1,1,1,1,1,1,1,1,1,1,1,1,1,1,1,1,1,1,1,1,1,1,1,1,1,1,1,1,1,1,1,1,1,1,1,1,1,1,1,1,1,1,1,1,1,1,1,1,1,1,1,1,1,1,1,1,1,1,1,1,1,1,1,1,1,1,1,1,1,1,1,1,1,1,1,
1,1,1,1,1,1,1,1,1,1,1,1,1,1,1,1,1,1,1,1,1,1,1,1,1,1,1,1,1,1,1,1,1,1,1,1,1,1,1,1,1,1,1,1,1,1,1,1,1,1,1,1,1,1,1,1,1,1,1,1,1,1,1,1,1,1,1,1,1,1,1,1,1,1,1,1,1,1,1,1,1,1,1,1,1,1,1,1,1,1,1,1,1,1,1,1,1,1,1,1,1,1,1,1,1,1,1,1,1,1,1,1,1,1,1,1,1,1,1,1,1,1,1,1,1,1,1,1,
1,1,1,1,1,1,1,1,1,1,1,1,1,1,1,1,1,1,1,1,1,1,1,1,1,1,1,1,1,1,1,1,1,1,1,1,1,1,1,1,1,1,1,1,1,1,1,1,1,1,1,1,1,1,1,1,1,1,1,1,1,1,1,1,1,1,1,1,1,1,1,1,1,1,1,1,1,1,1,1,1,1,1,1,1,1,1,1,1,1,1,1,1,1,1,1,1,1,1,1,1,1,1,1,1,1,1,1,1,1,1,1,1,1,1,1,1,1,1,1,1,1,1,1,1,1,1,1,
1,1,1,1,1,1,1,1,1,1,1,1,1,1,1,1,1,1,1,1,1,1,1,1,1,1,1,1,1,1,1,1,1,1,1,1,1,1,1,1,1,1,1,1,1,1,1,1,1,1,1,1,1,1,1,1,1,1,1,1,1,1,1,1,1,1,1,1,1,1,1,1,1,1,1,1,1,1,1,1,1,1,1,1,1,1,1,1,1,1,1,1,1,1,1,1,1,1,1,1,1,1,1,1,1,1,1,1,1,1,1,1,1,1,1,1,1,1,1,1,1,1,1,1,1,1,1,1,
1,1,1,1,1,1,1,1,1,1,1,1,1,1,1,1,1,1,1,1,1,1,1,1,1,1,1,1,1,1,1,1,1,1,1,1,1,1,1,1,1,1,1,1,1,1,1,1,1,1,1,1,1,1,1,1,1,1,1,1,1,1,1,1,1,1,1,1,1,1,1,1,1,1,1,1,1,1,1,1,1,1,1,1,1,1,1,1,1,1,1,1,1,1,1,1,1,1,1,1,1,1,1,1,1,1,1,1,1,1,1,1,1,1,1,1,1,1,1,1,1,1,1,1,1,1,1,1,
1,1,1,1,1,1,1,1,1,1,1,1,1,1,1,1,1,1,1,1,1,1,1,1,1,1,1,1,1,1,1,1,1,1,1,1,1,1,1,1,1,1,1,1,1,1,1,1,1,1,1,1,1,1,1,1,1,1,1,1,1,1,1,1,1,1,1,1,1,1,1,1,1,1,1,1,1,1,1,1,1,1,1,1,1,1,1,1,1,1,1,1,1,1,1,1,1,1,1,1,1,1,1,1,1,1,1,1,1,1,1,1,1,1,1,1,1,1,1,1,1,1,1,1,1,1,1,1,
1,1,1,1,1,1,1,1,1,1,1,1,1,1,1,1,1,1,1,1,1,1,1,1,1,1,1,1,1,1,1,1,1,1,1,1,1,1,1,1,1,1,1,1,1,1,1,1,1,1,1,1,1,1,1,1,1,1,1,1,1,1,1,1,1,1,1,1,1,1,1,1,1,1,1,1,1,1,1,1,1,1,1,1,1,1,1,1,1,1,1,1,1,1,1,1,1,1,1,1,1,1,1,1,1,1,1,1,1,1,1,1,1,1,1,1,1,1,1,1,1,1,1,1,1,1,1,1,
1,1,1,1,1,1,1,1,1,1,1,1,1,1,1,1,1,1,1,1,1,1,1,1,1,1,1,1,1,1,1,1,1,1,1,1,1,1,1,1,1,1,1,1,1,1,1,1,1,1,1,1,1,1,1,1,1,1,1,1,1,1,1,1,1,1,1,1,1,1,1,1,1,1,1,1,1,1,1,1,1,1,1,1,1,1,1,1,1,1,1,1,1,1,1,1,1,1,1,1,1,1,1,1,1,1,1,1,1,1,1,1,1,1,1,1,1,1,1,1,1,1,1,1,1,1,1,1,
1,1,1,1,1,1,1,1,1,1,1,1,1,1,1,1,1,1,1,1,1,1,1,1,1,1,1,1,1,1,1,1,1,1,1,1,1,1,1,1,1,1,1,1,1,1,1,1,1,1,1,1,1,1,1,1,1,1,1,1,1,1,1,1,1,1,1,1,1,1,1,1,1,1,1,1,1,1,1,1,1,1,1,1,1,1,1,1,1,1,1,1,1,1,1,1,1,1,1,1,1,1,1,1,1,1,1,1,1,1,1,1,1,1,1,1,1,1,1,1,1,1,1,1,1,1,1,1,
1,1,1,1,1,1,1,1,1,1,1,1,1,1,1,1,1,1,1,1,1,1,1,1,1,1,1,1,1,1,1,1,1,1,1,1,1,1,1,1,1,1,1,1,1,1,1,1,1,1,1,1,1,1,1,1,1,1,1,1,1,1,1,1,1,1,1,1,1,1,1,1,1,1,1,1,1,1,1,1,1,1,1,1,1,1,1,1,1,1,1,1,1,1,1,1,1,1,1,1,1,1,1,1,1,1,1,1,1,1,1,1,1,1,1,1,1,1,1,1,1,1,1,1,1,1,1,1,
1,1,1,1,1,1,1,1,1,1,1,1,1,1,1,1,1,1,1,1,1,1,1,1,1,1,1,1,1,1,1,1,1,1,1,1,1,1,1,1,1,1,1,1,1,1,1,1,1,1,1,1,1,1,1,1,1,1,1,1,1,1,1,1,1,1,1,1,1,1,1,1,1,1,1,1,1,1,1,1,1,1,1,1,1,1,1,1,1,1,1,1,1,1,1,1,1,1,1,1,1,1,1,1,1,1,1,1,1,1,1,1,1,1,1,1,1,1,1,1,1,1,1,1,1,1,1,1,
1,1,1,1,1,1,1,1,1,1,1,1,1,1,1,1,1,1,1,1,1,1,1,1,1,1,1,1,1,1,1,1,1,1,1,1,1,1,1,1,1,1,1,1,1,1,1,1,1,1,1,1,1,1,1,1,1,1,1,1,1,1,1,1,1,1,1,1,1,1,1,1,1,1,1,1,1,1,1,1,1,1,1,1,1,1,1,1,1,1,1,1,1,1,1,1,1,1,1,1,1,1,1,1,1,1,1,1,1,1,1,1,1,1,1,1,1,1,1,1,1,1,1,1,1,1,1,1,
1,1,1,1,1,1,1,1,1,1,1,1,1,1,1,1,1,1,1,1,1,1,1,1,1,1,1,1,1,1,1,1,1,1,1,1,1,1,1,1,1,1,1,1,1,1,1,1,1,1,1,1,1,1,1,1,1,1,1,1,1,1,1,1,1,1,1,1,1,1,1,1,1,1,1,1,1,1,1,1,1,1,1,1,1,1,1,1,1,1,1,1,1,1,1,1,1,1,1,1,1,1,1,1,1,1,1,1,1,1,1,1,1,1,1,1,1,1,1,1,1,1,1,1,1,1,1,1,
1,1,1,1,1,1,1,1,1,1,1,1,1,1,1,1,1,1,1,1,1,1,1,1,1,1,1,1,1,1,1,1,1,1,1,1,1,1,1,1,1,1,1,1,1,1,1,1,1,1,1,1,1,1,1,1,1,1,1,1,1,1,1,1,1,1,1,1,1,1,1,1,1,1,1,1,1,1,1,1,1,1,1,1,1,1,1,1,1,1,1,1,1,1,1,1,1,1,1,1,1,1,1,1,1,1,1,1,1,1,1,1,1,1,1,1,1,1,1,1,1,1,1,1,1,1,1,1,
1,1,1,1,1,1,1,1,1,1,1,1,1,1,1,1,1,1,1,1,1,1,1,1,1,1,1,1,1,1,1,1,1,1,1,1,1,1,1,1,1,1,1,1,1,1,1,1,1,1,1,1,1,1,1,1,1,1,1,1,1,1,1,1,1,1,1,1,1,1,1,1,1,1,1,1,1,1,1,1,1,1,1,1,1,1,1,1,1,1,1,1,1,1,1,1,1,1,1,1,1,1,1,1,1,1,1,1,1,1,1,1,1,1,1,1,1,1,1,1,1,1,1,1,1,1,1,1,
1,1,1,1,1,1,1,1,1,1,1,1,1,1,1,1,1,1,1,1,1,1,1,1,1,1,1,1,1,1,1,1,1,1,1,1,1,1,1,1,1,1,1,1,1,1,1,1,1,1,1,1,1,1,1,1,1,1,1,1,1,1,1,1,1,1,1,1,1,1,1,1,1,1,1,1,1,1,1,1,1,1,1,1,1,1,1,1,1,1,1,1,1,1,1,1,1,1,1,1,1,1,1,1,1,1,1,1,1,1,1,1,1,1,1,1,1,1,1,1,1,1,1,1,1,1,1,1,
1,1,1,1,1,1,1,1,1,1,1,1,1,1,1,1,1,1,1,1,1,1,1,1,1,1,1,1,1,1,1,1,1,1,1,1,1,1,1,1,1,1,1,1,1,1,1,1,1,1,1,1,1,1,1,1,1,1,1,1,1,1,1,1,1,1,1,1,1,1,1,1,1,1,1,1,1,1,1,1,1,1,1,1,1,1,1,1,1,1,1,1,1,1,1,1,1,1,1,1,1,1,1,1,1,1,1,1,1,1,1,1,1,1,1,1,1,1,1,1,1,1,1,1,1,1,1,1,
1,1,1,1,1,1,1,1,1,1,1,1,1,1,1,1,1,1,1,1,1,1,1,1,1,1,1,1,1,1,1,1,1,1,1,1,1,1,1,1,1,1,1,1,1,1,1,1,1,1,1,1,1,1,1,1,1,1,1,1,1,1,1,1,1,1,1,1,1,1,1,1,1,1,1,1,1,1,1,1,1,1,1,1,1,1,1,1,1,1,1,1,1,1,1,1,1,1,1,1,1,1,1,1,1,1,1,1,1,1,1,1,1,1,1,1,1,1,1,1,1,1,1,1,1,1,1,1,
1,1,1,1,1,1,1,1,1,1,1,1,1,1,1,1,1,1,1,1,1,1,1,1,1,1,1,1,1,1,1,1,1,1,1,1,1,1,1,1,1,1,1,1,1,1,1,1,1,1,1,1,1,1,1,1,1,1,1,1,1,1,1,1,1,1,1,1,1,1,1,1,1,1,1,1,1,1,1,1,1,1,1,1,1,1,1,1,1,1,1,1,1,1,1,1,1,1,1,1,1,1,1,1,1,1,1,1,1,1,1,1,1,1,1,1,1,1,1,1,1,1,1,1,1,1,1,1,
1,1,1,1,1,1,1,1,1,1,1,1,1,1,1,1,1,1,1,1,1,1,1,1,1,1,1,1,1,1,1,1,1,1,1,1,1,1,1,1,1,1,1,1,1,1,1,1,1,1,1,1,1,1,1,1,1,1,1,1,1,1,1,1,1,1,1,1,1,1,1,1,1,1,1,1,1,1,1,1,1,1,1,1,1,1,1,1,1,1,1,1,1,1,1,1,1,1,1,1,1,1,1,1,1,1,1,1,1,1,1,1,1,1,1,1,1,1,1,1,1,1,1,1,1,1,1,1,
1,1,1,1,1,1,1,1,1,1,1,1,1,1,1,1,1,1,1,1,1,1,1,1,1,1,1,1,1,1,1,1,1,1,1,1,1,1,1,1,1,1,1,1,1,1,1,1,1,1,1,1,1,1,1,1,1,1,1,1,1,1,1,1,1,1,1,1,1,1,1,1,1,1,1,1,1,1,1,1,1,1,1,1,1,1,1,1,1,1,1,1,1,1,1,1,1,1,1,1,1,1,1,1,1,1,1,1,1,1,1,1,1,1,1,1,1,1,1,1,1,1,1,1,1,1,1,1,
1,1,1,1,1,1,1,1,1,1,1,1,1,1,1,1,1,1,1,1,1,1,1,1,1,1,1,1,1,1,1,1,1,1,1,1,1,1,1,1,1,1,1,1,1,1,1,1,1,1,1,1,1,1,1,1,1,1,1,1,1,1,1,1,1,1,1,1,1,1,1,1,1,1,1,1,1,1,1,1,1,1,1,1,1,1,1,1,1,1,1,1,1,1,1,1,1,1,1,1,1,1,1,1,1,1,1,1,1,1,1,1,1,1,1,1,1,1,1,1,1,1,1,1,1,1,1,1,
1,1,1,1,1,1,1,1,1,1,1,1,1,1,1,1,1,1,1,1,1,1,1,1,1,1,1,1,1,1,1,1,1,1,1,1,1,1,1,1,1,1,1,1,1,1,1,1,1,1,1,1,1,1,1,1,1,1,1,1,1,1,1,1,1,1,1,1,1,1,1,1,1,1,1,1,1,1,1,1,1,1,1,1,1,1,1,1,1,1,1,1,1,1,1,1,1,1,1,1,1,1,1,1,1,1,1,1,1,1,1,1,1,1,1,1,1,1,1,1,1,1,1,1,1,1,1,1,
1,1,1,1,1,1,1,1,1,1,1,1,1,1,1,1,1,1,1,1,1,1,1,1,1,1,1,1,1,1,1,1,1,1,1,1,1,1,1,1,1,1,1,1,1,1,1,1,1,1,1,1,1,1,1,1,1,1,1,1,1,1,1,1,1,1,1,1,1,1,1,1,1,1,1,1,1,1,1,1,1,1,1,1,1,1,1,1,1,1,1,1,1,1,1,1,1,1,1,1,1,1,1,1,1,1,1,1,1,1,1,1,1,1,1,1,1,1,1,1,1,1,1,1,1,1,1,1,
1,1,1,1,1,1,1,1,1,1,1,1,1,1,1,1,1,1,1,1,1,1,1,1,1,1,1,1,1,1,1,1,1,1,1,1,1,1,1,1,1,1,1,1,1,1,1,1,1,1,1,1,1,1,1,1,1,1,1,1,1,1,1,1,1,1,1,1,1,1,1,1,1,1,1,1,1,1,1,1,1,1,1,1,1,1,1,1,1,1,1,1,1,1,1,1,1,1,1,1,1,1,1,1,1,1,1,1,1,1,1,1,1,1,1,1,1,1,1,1,1,1,1,1,1,1,1,1,
1,1,1,1,1,1,1,1,1,1,1,1,1,1,1,1,1,1,1,1,1,1,1,1,1,1,1,1,1,1,1,1,1,1,1,1,1,1,1,1,1,1,1,1,1,1,1,1,1,1,1,1,1,1,1,1,1,1,1,1,1,1,1,1,1,1,1,1,1,1,1,1,1,1,1,1,1,1,1,1,1,1,1,1,1,1,1,1,1,1,1,1,1,1,1,1,1,1,1,1,1,1,1,1,1,1,1,1,1,1,1,1,1,1,1,1,1,1,1,1,1,1,1,1,1,1,1,1,
1,1,1,1,1,1,1,1,1,1,1,1,1,1,1,1,1,1,1,1,1,1,1,1,1,1,1,1,1,1,1,1,1,1,1,1,1,1,1,1,1,1,1,1,1,1,1,1,1,1,1,1,1,1,1,1,1,1,1,1,1,1,1,1,1,1,1,1,1,1,1,1,1,1,1,1,1,1,1,1,1,1,1,1,1,1,1,1,1,1,1,1,1,1,1,1,1,1,1,1,1,1,1,1,1,1,1,1,1,1,1,1,1,1,1,1,1,1,1,1,1,1,1,1,1,1,1,1,
1,1,1,1,1,1,1,1,1,1,1,1,1,1,1,1,1,1,1,1,1,1,1,1,1,1,1,1,1,1,1,1,1,1,1,1,1,1,1,1,1,1,1,1,1,1,1,1,1,1,1,1,1,1,1,1,1,1,1,1,1,1,1,1,1,1,1,1,1,1,1,1,1,1,1,1,1,1,1,1,1,1,1,1,1,1,1,1,1,1,1,1,1,1,1,1,1,1,1,1,1,1,1,1,1,1,1,1,1,1,1,1,1,1,1,1,1,1,1,1,1,1,1,1,1,1,1,1,
1,1,1,1,1,1,1,1,1,1,1,1,1,1,1,1,1,1,1,1,1,1,1,1,1,1,1,1,1,1,1,1,1,1,1,1,1,1,1,1,1,1,1,1,1,1,1,1,1,1,1,1,1,1,1,1,1,1,1,1,1,1,1,1,1,1,1,1,1,1,1,1,1,1,1,1,1,1,1,1,1,1,1,1,1,1,1,1,1,1,1,1,1,1,1,1,1,1,1,1,1,1,1,1,1,1,1,1,1,1,1,1,1,1,1,1,1,1,1,1,1,1,1,1,1,1,1,1,
1,1,1,1,1,1,1,1,1,1,1,1,1,1,1,1,1,1,1,1,1,1,1,1,1,1,1,1,1,1,1,1,1,1,1,1,1,1,1,1,1,1,1,1,1,1,1,1,1,1,1,1,1,1,1,1,1,1,1,1,1,1,1,1,1,1,1,1,1,1,1,1,1,1,1,1,1,1,1,1,1,1,1,1,1,1,1,1,1,1,1,1,1,1,1,1,1,1,1,1,1,1,1,1,1,1,1,1,1,1,1,1,1,1,1,1,1,1,1,1,1,1,1,1,1,1,1,1,
1,1,1,1,1,1,1,1,1,1,1,1,1,1,1,1,1,1,1,1,1,1,1,1,1,1,1,1,1,1,1,1,1,1,1,1,1,1,1,1,1,1,1,1,1,1,1,1,1,1,1,1,1,1,1,1,1,1,1,1,1,1,1,1,1,1,1,1,1,1,1,1,1,1,1,1,1,1,1,1,1,1,1,1,1,1,1,1,1,1,1,1,1,1,1,1,1,1,1,1,1,1,1,1,1,1,1,1,1,1,1,1,1,1,1,1,1,1,1,1,1,1,1,1,1,1,1,1,
1,1,1,1,1,1,1,1,1,1,1,1,1,1,1,1,1,1,1,1,1,1,1,1,1,1,1,1,1,1,1,1,1,1,1,1,1,1,1,1,1,1,1,1,1,1,1,1,1,1,1,1,1,1,1,1,1,1,1,1,1,1,1,1,1,1,1,1,1,1,1,1,1,1,1,1,1,1,1,1,1,1,1,1,1,1,1,1,1,1,1,1,1,1,1,1,1,1,1,1,1,1,1,1,1,1,1,1,1,1,1,1,1,1,1,1,1,1,1,1,1,1,1,1,1,1,1,1,
1,1,1,1,1,1,1,1,1,1,1,1,1,1,1,1,1,1,1,1,1,1,1,1,1,1,1,1,1,1,1,1,1,1,1,1,1,1,1,1,1,1,1,1,1,1,1,1,1,1,1,1,1,1,1,1,1,1,1,1,1,1,1,1,1,1,1,1,1,1,1,1,1,1,1,1,1,1,1,1,1,1,1,1,1,1,1,1,1,1,1,1,1,1,1,1,1,1,1,1,1,1,1,1,1,1,1,1,1,1,1,1,1,1,1,1,1,1,1,1,1,1,1,1,1,1,1,1,
1,1,1,1,1,1,1,1,1,1,1,1,1,1,1,1,1,1,1,1,1,1,1,1,1,1,1,1,1,1,1,1,1,1,1,1,1,1,1,1,1,1,1,1,1,1,1,1,1,1,1,1,1,1,1,1,1,1,1,1,1,1,1,1,1,1,1,1,1,1,1,1,1,1,1,1,1,1,1,1,1,1,1,1,1,1,1,1,1,1,1,1,1,1,1,1,1,1,1,1,1,1,1,1,1,1,1,1,1,1,1,1,1,1,1,1,1,1,1,1,1,1,1,1,1,1,1,1,
1,1,1,1,1,1,1,1,1,1,1,1,1,1,1,1,1,1,1,1,1,1,1,1,1,1,1,1,1,1,1,1,1,1,1,1,1,1,1,1,1,1,1,1,1,1,1,1,1,1,1,1,1,1,1,1,1,1,1,1,1,1,1,1,1,1,1,1,1,1,1,1,1,1,1,1,1,1,1,1,1,1,1,1,1,1,1,1,1,1,1,1,1,1,1,1,1,1,1,1,1,1,1,1,1,1,1,1,1,1,1,1,1,1,1,1,1,1,1,1,1,1,1,1,1,1,1,1,
1,1,1,1,1,1,1,1,1,1,1,1,1,1,1,1,1,1,1,1,1,1,1,1,1,1,1,1,1,1,1,1,1,1,1,1,1,1,1,1,1,1,1,1,1,1,1,1,1,1,1,1,1,1,1,1,1,1,1,1,1,1,1,1,1,1,1,1,1,1,1,1,1,1,1,1,1,1,1,1,1,1,1,1,1,1,1,1,1,1,1,1,1,1,1,1,1,1,1,1,1,1,1,1,1,1,1,1,1,1,1,1,1,1,1,1,1,1,1,1,1,1,1,1,1,1,1,1,
1,1,1,1,1,1,1,1,1,1,1,1,1,1,1,1,1,1,1,1,1,1,1,1,1,1,1,1,1,1,1,1,1,1,1,1,1,1,1,1,1,1,1,1,1,1,1,1,1,1,1,1,1,1,1,1,1,1,1,1,1,1,1,1,1,1,1,1,1,1,1,1,1,1,1,1,1,1,1,1,1,1,1,1,1,1,1,1,1,1,1,1,1,1,1,1,1,1,1,1,1,1,1,1,1,1,1,1,1,1,1,1,1,1,1,1,1,1,1,1,1,1,1,1,1,1,1,1,
1,1,1,1,1,1,1,1,1,1,1,1,1,1,1,1,1,1,1,1,1,1,1,1,1,1,1,1,1,1,1,1,1,1,1,1,1,1,1,1,1,1,1,1,1,1,1,1,1,1,1,1,1,1,1,1,1,1,1,1,1,1,1,1,1,1,1,1,1,1,1,1,1,1,1,1,1,1,1,1,1,1,1,1,1,1,1,1,1,1,1,1,1,1,1,1,1,1,1,1,1,1,1,1,1,1,1,1,1,1,1,1,1,1,1,1,1,1,1,1,1,1,1,1,1,1,1,1,
1,1,1,1,1,1,1,1,1,1,1,1,1,1,1,1,1,1,1,1,1,1,1,1,1,1,1,1,1,1,1,1,1,1,1,1,1,1,1,1,1,1,1,1,1,1,1,1,1,1,1,1,1,1,1,1,1,1,1,1,1,1,1,1,1,1,1,1,1,1,1,1,1,1,1,1,1,1,1,1,1,1,1,1,1,1,1,1,1,1,1,1,1,1,1,1,1,1,1,1,1,1,1,1,1,1,1,1,1,1,1,1,1,1,1,1,1,1,1,1,1,1,1,1,1,1,1,1,
1,1,1,1,1,1,1,1,1,1,1,1,1,1,1,1,1,1,1,1,1,1,1,1,1,1,1,1,1,1,1,1,1,1,1,1,1,1,1,1,1,1,1,1,1,1,1,1,1,1,1,1,1,1,1,1,1,1,1,1,1,1,1,1,1,1,1,1,1,1,1,1,1,1,1,1,1,1,1,1,1,1,1,1,1,1,1,1,1,1,1,1,1,1,1,1,1,1,1,1,1,1,1,1,1,1,1,1,1,1,1,1,1,1,1,1,1,1,1,1,1,1,1,1,1,1,1,1,
1,1,1,1,1,1,1,1,1,1,1,1,1,1,1,1,1,1,1,1,1,1,1,1,1,1,1,1,1,1,1,1,1,1,1,1,1,1,1,1,1,1,1,1,1,1,1,1,1,1,1,1,1,1,1,1,1,1,1,1,1,1,1,1,1,1,1,1,1,1,1,1,1,1,1,1,1,1,1,1,1,1,1,1,1,1,1,1,1,1,1,1,1,1,1,1,1,1,1,1,1,1,1,1,1,1,1,1,1,1,1,1,1,1,1,1,1,1,1,1,1,1,1,1,1,1,1,1,
1,1,1,1,1,1,1,1,1,1,1,1,1,1,1,1,1,1,1,1,1,1,1,1,1,1,1,1,1,1,1,1,1,1,1,1,1,1,1,1,1,1,1,1,1,1,1,1,1,1,1,1,1,1,1,1,1,1,1,1,1,1,1,1,1,1,1,1,1,1,1,1,1,1,1,1,1,1,1,1,1,1,1,1,1,1,1,1,1,1,1,1,1,1,1,1,1,1,1,1,1,1,1,1,1,1,1,1,1,1,1,1,1,1,1,1,1,1,1,1,1,1,1,1,1,1,1,1,
1,1,1,1,1,1,1,1,1,1,1,1,1,1,1,1,1,1,1,1,1,1,1,1,1,1,1,1,1,1,1,1,1,1,1,1,1,1,1,1,1,1,1,1,1,1,1,1,1,1,1,1,1,1,1,1,1,1,1,1,1,1,1,1,1,1,1,1,1,1,1,1,1,1,1,1,1,1,1,1,1,1,1,1,1,1,1,1,1,1,1,1,1,1,1,1,1,1,1,1,1,1,1,1,1,1,1,1,1,1,1,1,1,1,1,1,1,1,1,1,1,1,1,1,1,1,1,1,
1,1,1,1,1,1,1,1,1,1,1,1,1,1,1,1,1,1,1,1,1,1,1,1,1,1,1,1,1,1,1,1,1,1,1,1,1,1,1,1,1,1,1,1,1,1,1,1,1,1,1,1,1,1,1,1,1,1,1,1,1,1,1,1,1,1,1,1,1,1,1,1,1,1,1,1,1,1,1,1,1,1,1,1,1,1,1,1,1,1,1,1,1,1,1,1,1,1,1,1,1,1,1,1,1,1,1,1,1,1,1,1,1,1,1,1,1,1,1,1,1,1,1,1,1,1,1,1,
1,1,1,1,1,1,1,1,1,1,1,1,1,1,1,1,1,1,1,1,1,1,1,1,1,1,1,1,1,1,1,1,1,1,1,1,1,1,1,1,1,1,1,1,1,1,1,1,1,1,1,1,1,1,1,1,1,1,1,1,1,1,1,1,1,1,1,1,1,1,1,1,1,1,1,1,1,1,1,1,1,1,1,1,1,1,1,1,1,1,1,1,1,1,1,1,1,1,1,1,1,1,1,1,1,1,1,1,1,1,1,1,1,1,1,1,1,1,1,1,1,1,1,1,1,1,1,1,
1,1,1,1,1,1,1,1,1,1,1,1,1,1,1,1,1,1,1,1,1,1,1,1,1,1,1,1,1,1,1,1,1,1,1,1,1,1,1,1,1,1,1,1,1,1,1,1,1,1,1,1,1,1,1,1,1,1,1,1,1,1,1,1,1,1,1,1,1,1,1,1,1,1,1,1,1,1,1,1,1,1,1,1,1,1,1,1,1,1,1,1,1,1,1,1,1,1,1,1,1,1,1,1,1,1,1,1,1,1,1,1,1,1,1,1,1,1,1,1,1,1,1,1,1,1,1,1,
1,1,1,1,1,1,1,1,1,1,1,1,1,1,1,1,1,1,1,1,1,1,1,1,1,1,1,1,1,1,1,1,1,1,1,1,1,1,1,1,1,1,1,1,1,1,1,1,1,1,1,1,1,1,1,1,1,1,1,1,1,1,1,1,1,1,1,1,1,1,1,1,1,1,1,1,1,1,1,1,1,1,1,1,1,1,1,1,1,1,1,1,1,1,1,1,1,1,1,1,1,1,1,1,1,1,1,1,1,1,1,1,1,1,1,1,1,1,1,1,1,1,1,1,1,1,1,1,
1,1,1,1,1,1,1,1,1,1,1,1,1,1,1,1,1,1,1,1,1,1,1,1,1,1,1,1,1,1,1,1,1,1,1,1,1,1,1,1,1,1,1,1,1,1,1,1,1,1,1,1,1,1,1,1,1,1,1,1,1,1,1,1,1,1,1,1,1,1,1,1,1,1,1,1,1,1,1,1,1,1,1,1,1,1,1,1,1,1,1,1,1,1,1,1,1,1,1,1,1,1,1,1,1,1,1,1,1,1,1,1,1,1,1,1,1,1,1,1,1,1,1,1,1,1,1,1,
1,1,1,1,1,1,1,1,1,1,1,1,1,1,1,1,1,1,1,1,1,1,1,1,1,1,1,1,1,1,1,1,1,1,1,1,1,1,1,1,1,1,1,1,1,1,1,1,1,1,1,1,1,1,1,1,1,1,1,1,1,1,1,1,1,1,1,1,1,1,1,1,1,1,1,1,1,1,1,1,1,1,1,1,1,1,1,1,1,1,1,1,1,1,1,1,1,1,1,1,1,1,1,1,1,1,1,1,1,1,1,1,1,1,1,1,1,1,1,1,1,1,1,1,1,1,1,1,
1,1,1,1,1,1,1,1,1,1,1,1,1,1,1,1,1,1,1,1,1,1,1,1,1,1,1,1,1,1,1,1,1,1,1,1,1,1,1,1,1,1,1,1,1,1,1,1,1,1,1,1,1,1,1,1,1,1,1,1,1,1,1,1,1,1,1,1,1,1,1,1,1,1,1,1,1,1,1,1,1,1,1,1,1,1,1,1,1,1,1,1,1,1,1,1,1,1,1,1,1,1,1,1,1,1,1,1,1,1,1,1,1,1,1,1,1,1,1,1,1,1,1,1,1,1,1,1,
1,1,1,1,1,1,1,1,1,1,1,1,1,1,1,1,1,1,1,1,1,1,1,1,1,1,1,1,1,1,1,1,1,1,1,1,1,1,1,1,1,1,1,1,1,1,1,1,1,1,1,1,1,1,1,1,1,1,1,1,1,1,1,1,1,1,1,1,1,1,1,1,1,1,1,1,1,1,1,1,1,1,1,1,1,1,1,1,1,1,1,1,1,1,1,1,1,1,1,1,1,1,1,1,1,1,1,1,1,1,1,1,1,1,1,1,1,1,1,1,1,1,1,1,1,1,1,1,
1,1,1,1,1,1,1,1,1,1,1,1,1,1,1,1,1,1,1,1,1,1,1,1,1,1,1,1,1,1,1,1,1,1,1,1,1,1,1,1,1,1,1,1,1,1,1,1,1,1,1,1,1,1,1,1,1,1,1,1,1,1,1,1,1,1,1,1,1,1,1,1,1,1,1,1,1,1,1,1,1,1,1,1,1,1,1,1,1,1,1,1,1,1,1,1,1,1,1,1,1,1,1,1,1,1,1,1,1,1,1,1,1,1,1,1,1,1,1,1,1,1,1,1,1,1,1,1,
1,1,1,1,1,1,1,1,1,1,1,1,1,1,1,1,1,1,1,1,1,1,1,1,1,1,1,1,1,1,1,1,1,1,1,1,1,1,1,1,1,1,1,1,1,1,1,1,1,1,1,1,1,1,1,1,1,1,1,1,1,1,1,1,1,1,1,1,1,1,1,1,1,1,1,1,1,1,1,1,1,1,1,1,1,1,1,1,1,1,1,1,1,1,1,1,1,1,1,1,1,1,1,1,1,1,1,1,1,1,1,1,1,1,1,1,1,1,1,1,1,1,1,1,1,1,1,1,
1,1,1,1,1,1,1,1,1,1,1,1,1,1,1,1,1,1,1,1,1,1,1,1,1,1,1,1,1,1,1,1,1,1,1,1,1,1,1,1,1,1,1,1,1,1,1,1,1,1,1,1,1,1,1,1,1,1,1,1,1,1,1,1,1,1,1,1,1,1,1,1,1,1,1,1,1,1,1,1,1,1,1,1,1,1,1,1,1,1,1,1,1,1,1,1,1,1,1,1,1,1,1,1,1,1,1,1,1,1,1,1,1,1,1,1,1,1,1,1,1,1,1,1,1,1,1,1,
1,1,1,1,1,1,1,1,1,1,1,1,1,1,1,1,1,1,1,1,1,1,1,1,1,1,1,1,1,1,1,1,1,1,1,1,1,1,1,1,1,1,1,1,1,1,1,1,1,1,1,1,1,1,1,1,1,1,1,1,1,1,1,1,1,1,1,1,1,1,1,1,1,1,1,1,1,1,1,1,1,1,1,1,1,1,1,1,1,1,1,1,1,1,1,1,1,1,1,1,1,1,1,1,1,1,1,1,1,1,1,1,1,1,1,1,1,1,1,1,1,1,1,1,1,1,1,1,
1,1,1,1,1,1,1,1,1,1,1,1,1,1,1,1,1,1,1,1,1,1,1,1,1,1,1,1,1,1,1,1,1,1,1,1,1,1,1,1,1,1,1,1,1,1,1,1,1,1,1,1,1,1,1,1,1,1,1,1,1,1,1,1,1,1,1,1,1,1,1,1,1,1,1,1,1,1,1,1,1,1,1,1,1,1,1,1,1,1,1,1,1,1,1,1,1,1,1,1,1,1,1,1,1,1,1,1,1,1,1,1,1,1,1,1,1,1,1,1,1,1,1,1,1,1,1,1,
1,1,1,1,1,1,1,1,1,1,1,1,1,1,1,1,1,1,1,1,1,1,1,1,1,1,1,1,1,1,1,1,1,1,1,1,1,1,1,1,1,1,1,1,1,1,1,1,1,1,1,1,1,1,1,1,1,1,1,1,1,1,1,1,1,1,1,1,1,1,1,1,1,1,1,1,1,1,1,1,1,1,1,1,1,1,1,1,1,1,1,1,1,1,1,1,1,1,1,1,1,1,1,1,1,1,1,1,1,1,1,1,1,1,1,1,1,1,1,1,1,1,1,1,1,1,1,1,
1,1,1,1,1,1,1,1,1,1,1,1,1,1,1,1,1,1,1,1,1,1,1,1,1,1,1,1,1,1,1,1,1,1,1,1,1,1,1,1,1,1,1,1,1,1,1,1,1,1,1,1,1,1,1,1,1,1,1,1,1,1,1,1,1,1,1,1,1,1,1,1,1,1,1,1,1,1,1,1,1,1,1,1,1,1,1,1,1,1,1,1,1,1,1,1,1,1,1,1,1,1,1,1,1,1,1,1,1,1,1,1,1,1,1,1,1,1,1,1,1,1,1,1,1,1,1,1,
1,1,1,1,1,1,1,1,1,1,1,1,1,1,1,1,1,1,1,1,1,1,1,1,1,1,1,1,1,1,1,1,1,1,1,1,1,1,1,1,1,1,1,1,1,1,1,1,1,1,1,1,1,1,1,1,1,1,1,1,1,1,1,1,1,1,1,1,1,1,1,1,1,1,1,1,1,1,1,1,1,1,1,1,1,1,1,1,1,1,1,1,1,1,1,1,1,1,1,1,1,1,1,1,1,1,1,1,1,1,1,1,1,1,1,1,1,1,1,1,1,1,1,1,1,1,1,1,
1,1,1,1,1,1,1,1,1,1,1,1,1,1,1,1,1,1,1,1,1,1,1,1,1,1,1,1,1,1,1,1,1,1,1,1,1,1,1,1,1,1,1,1,1,1,1,1,1,1,1,1,1,1,1,1,1,1,1,1,1,1,1,1,1,1,1,1,1,1,1,1,1,1,1,1,1,1,1,1,1,1,1,1,1,1,1,1,1,1,1,1,1,1,1,1,1,1,1,1,1,1,1,1,1,1,1,1,1,1,1,1,1,1,1,1,1,1,1,1,1,1,1,1,1,1,1,1,
1,1,1,1,1,1,1,1,1,1,1,1,1,1,1,1,1,1,1,1,1,1,1,1,1,1,1,1,1,1,1,1,1,1,1,1,1,1,1,1,1,1,1,1,1,1,1,1,1,1,1,1,1,1,1,1,1,1,1,1,1,1,1,1,1,1,1,1,1,1,1,1,1,1,1,1,1,1,1,1,1,1,1,1,1,1,1,1,1,1,1,1,1,1,1,1,1,1,1,1,1,1,1,1,1,1,1,1,1,1,1,1,1,1,1,1,1,1,1,1,1,1,1,1,1,1,1,1,
1,1,1,1,1,1,1,1,1,1,1,1,1,1,1,1,1,1,1,1,1,1,1,1,1,1,1,1,1,1,1,1,1,1,1,1,1,1,1,1,1,1,1,1,1,1,1,1,1,1,1,1,1,1,1,1,1,1,1,1,1,1,1,1,1,1,1,1,1,1,1,1,1,1,1,1,1,1,1,1,1,1,1,1,1,1,1,1,1,1,1,1,1,1,1,1,1,1,1,1,1,1,1,1,1,1,1,1,1,1,1,1,1,1,1,1,1,1,1,1,1,1,1,1,1,1,1,1,
1,1,1,1,1,1,1,1,1,1,1,1,1,1,1,1,1,1,1,1,1,1,1,1,1,1,1,1,1,1,1,1,1,1,1,1,1,1,1,1,1,1,1,1,1,1,1,1,1,1,1,1,1,1,1,1,1,1,1,1,1,1,1,1,1,1,1,1,1,1,1,1,1,1,1,1,1,1,1,1,1,1,1,1,1,1,1,1,1,1,1,1,1,1,1,1,1,1,1,1,1,1,1,1,1,1,1,1,1,1,1,1,1,1,1,1,1,1,1,1,1,1,1,1,1,1,1,1,
1,1,1,1,1,1,1,1,1,1,1,1,1,1,1,1,1,1,1,1,1,1,1,1,1,1,1,1,1,1,1,1,1,1,1,1,1,1,1,1,1,1,1,1,1,1,1,1,1,1,1,1,1,1,1,1,1,1,1,1,1,1,1,1,1,1,1,1,1,1,1,1,1,1,1,1,1,1,1,1,1,1,1,1,1,1,1,1,1,1,1,1,1,1,1,1,1,1,1,1,1,1,1,1,1,1,1,1,1,1,1,1,1,1,1,1,1,1,1,1,1,1,1,1,1,1,1,1,
1,1,1,1,1,1,1,1,1,1,1,1,1,1,1,1,1,1,1,1,1,1,1,1,1,1,1,1,1,1,1,1,1,1,1,1,1,1,1,1,1,1,1,1,1,1,1,1,1,1,1,1,1,1,1,1,1,1,1,1,1,1,1,1,1,1,1,1,1,1,1,1,1,1,1,1,1,1,1,1,1,1,1,1,1,1,1,1,1,1,1,1,1,1,1,1,1,1,1,1,1,1,1,1,1,1,1,1,1,1,1,1,1,1,1,1,1,1,1,1,1,1,1,1,1,1,1,1,
1,1,1,1,1,1,1,1,1,1,1,1,1,1,1,1,1,1,1,1,1,1,1,1,1,1,1,1,1,1,1,1,1,1,1,1,1,1,1,1,1,1,1,1,1,1,1,1,1,1,1,1,1,1,1,1,1,1,1,1,1,1,1,1,1,1,1,1,1,1,1,1,1,1,1,1,1,1,1,1,1,1,1,1,1,1,1,1,1,1,1,1,1,1,1,1,1,1,1,1,1,1,1,1,1,1,1,1,1,1,1,1,1,1,1,1,1,1,1,1,1,1,1,1,1,1,1,1,
1,1,1,1,1,1,1,1,1,1,1,1,1,1,1,1,1,1,1,1,1,1,1,1,1,1,1,1,1,1,1,1,1,1,1,1,1,1,1,1,1,1,1,1,1,1,1,1,1,1,1,1,1,1,1,1,1,1,1,1,1,1,1,1,1,1,1,1,1,1,1,1,1,1,1,1,1,1,1,1,1,1,1,1,1,1,1,1,1,1,1,1,1,1,1,1,1,1,1,1,1,1,1,1,1,1,1,1,1,1,1,1,1,1,1,1,1,1,1,1,1,1,1,1,1,1,1,1,
1,1,1,1,1,1,1,1,1,1,1,1,1,1,1,1,1,1,1,1,1,1,1,1,1,1,1,1,1,1,1,1,1,1,1,1,1,1,1,1,1,1,1,1,1,1,1,1,1,1,1,1,1,1,1,1,1,1,1,1,1,1,1,1,1,1,1,1,1,1,1,1,1,1,1,1,1,1,1,1,1,1,1,1,1,1,1,1,1,1,1,1,1,1,1,1,1,1,1,1,1,1,1,1,1,1,1,1,1,1,1,1,1,1,1,1,1,1,1,1,1,1,1,1,1,1,1,1,
1,1,1,1,1,1,1,1,1,1,1,1,1,1,1,1,1,1,1,1,1,1,1,1,1,1,1,1,1,1,1,1,1,1,1,1,1,1,1,1,1,1,1,1,1,1,1,1,1,1,1,1,1,1,1,1,1,1,1,1,1,1,1,1,1,1,1,1,1,1,1,1,1,1,1,1,1,1,1,1,1,1,1,1,1,1,1,1,1,1,1,1,1,1,1,1,1,1,1,1,1,1,1,1,1,1,1,1,1,1,1,1,1,1,1,1,1,1,1,1,1,1,1,1,1,1,1,1,
1,1,1,1,1,1,1,1,1,1,1,1,1,1,1,1,1,1,1,1,1,1,1,1,1,1,1,1,1,1,1,1,1,1,1,1,1,1,1,1,1,1,1,1,1,1,1,1,1,1,1,1,1,1,1,1,1,1,1,1,1,1,1,1,1,1,1,1,1,1,1,1,1,1,1,1,1,1,1,1,1,1,1,1,1,1,1,1,1,1,1,1,1,1,1,1,1,1,1,1,1,1,1,1,1,1,1,1,1,1,1,1,1,1,1,1,1,1,1,1,1,1,1,1,1,1,1,1,
1,1,1,1,1,1,1,1,1,1,1,1,1,1,1,1,1,1,1,1,1,1,1,1,1,1,1,1,1,1,1,1,1,1,1,1,1,1,1,1,1,1,1,1,1,1,1,1,1,1,1,1,1,1,1,1,1,1,1,1,1,1,1,1,1,1,1,1,1,1,1,1,1,1,1,1,1,1,1,1,1,1,1,1,1,1,1,1,1,1,1,1,1,1,1,1,1,1,1,1,1,1,1,1,1,1,1,1,1,1,1,1,1,1,1,1,1,1,1,1,1,1,1,1,1,1,1,1,
1,1,1,1,1,1,1,1,1,1,1,1,1,1,1,1,1,1,1,1,1,1,1,1,1,1,1,1,1,1,1,1,1,1,1,1,1,1,1,1,1,1,1,1,1,1,1,1,1,1,1,1,1,1,1,1,1,1,1,1,1,1,1,1,1,1,1,1,1,1,1,1,1,1,1,1,1,1,1,1,1,1,1,1,1,1,1,1,1,1,1,1,1,1,1,1,1,1,1,1,1,1,1,1,1,1,1,1,1,1,1,1,1,1,1,1,1,1,1,1,1,1,1,1,1,1,1,1,
1,1,1,1,1,1,1,1,1,1,1,1,1,1,1,1,1,1,1,1,1,1,1,1,1,1,1,1,1,1,1,1,1,1,1,1,1,1,1,1,1,1,1,1,1,1,1,1,1,1,1,1,1,1,1,1,1,1,1,1,1,1,1,1,1,1,1,1,1,1,1,1,1,1,1,1,1,1,1,1,1,1,1,1,1,1,1,1,1,1,1,1,1,1,1,1,1,1,1,1,1,1,1,1,1,1,1,1,1,1,1,1,1,1,1,1,1,1,1,1,1,1,1,1,1,1,1,1,
1,1,1,1,1,1,1,1,1,1,1,1,1,1,1,1,1,1,1,1,1,1,1,1,1,1,1,1,1,1,1,1,1,1,1,1,1,1,1,1,1,1,1,1,1,1,1,1,1,1,1,1,1,1,1,1,1,1,1,1,1,1,1,1,1,1,1,1,1,1,1,1,1,1,1,1,1,1,1,1,1,1,1,1,1,1,1,1,1,1,1,1,1,1,1,1,1,1,1,1,1,1,1,1,1,1,1,1,1,1,1,1,1,1,1,1,1,1,1,1,1,1,1,1,1,1,1,1,
1,1,1,1,1,1,1,1,1,1,1,1,1,1,1,1,1,1,1,1,1,1,1,1,1,1,1,1,1,1,1,1,1,1,1,1,1,1,1,1,1,1,1,1,1,1,1,1,1,1,1,1,1,1,1,1,1,1,1,1,1,1,1,1,1,1,1,1,1,1,1,1,1,1,1,1,1,1,1,1,1,1,1,1,1,1,1,1,1,1,1,1,1,1,1,1,1,1,1,1,1,1,1,1,1,1,1,1,1,1,1,1,1,1,1,1,1,1,1,1,1,1,1,1,1,1,1,1,
1,1,1,1,1,1,1,1,1,1,1,1,1,1,1,1,1,1,1,1,1,1,1,1,1,1,1,1,1,1,1,1,1,1,1,1,1,1,1,1,1,1,1,1,1,1,1,1,1,1,1,1,1,1,1,1,1,1,1,1,1,1,1,1,1,1,1,1,1,1,1,1,1,1,1,1,1,1,1,1,1,1,1,1,1,1,1,1,1,1,1,1,1,1,1,1,1,1,1,1,1,1,1,1,1,1,1,1,1,1,1,1,1,1,1,1,1,1,1,1,1,1,1,1,1,1,1,1,
1,1,1,1,1,1,1,1,1,1,1,1,1,1,1,1,1,1,1,1,1,1,1,1,1,1,1,1,1,1,1,1,1,1,1,1,1,1,1,1,1,1,1,1,1,1,1,1,1,1,1,1,1,1,1,1,1,1,1,1,1,1,1,1,1,1,1,1,1,1,1,1,1,1,1,1,1,1,1,1,1,1,1,1,1,1,1,1,1,1,1,1,1,1,1,1,1,1,1,1,1,1,1,1,1,1,1,1,1,1,1,1,1,1,1,1,1,1,1,1,1,1,1,1,1,1,1,1,
1,1,1,1,1,1,1,1,1,1,1,1,1,1,1,1,1,1,1,1,1,1,1,1,1,1,1,1,1,1,1,1,1,1,1,1,1,1,1,1,1,1,1,1,1,1,1,1,1,1,1,1,1,1,1,1,1,1,1,1,1,1,1,1,1,1,1,1,1,1,1,1,1,1,1,1,1,1,1,1,1,1,1,1,1,1,1,1,1,1,1,1,1,1,1,1,1,1,1,1,1,1,1,1,1,1,1,1,1,1,1,1,1,1,1,1,1,1,1,1,1,1,1,1,1,1,1,1
</data>
 </layer>
 <objectgroup id="5" name="Triggers">
  <object id="2159" name="portal_a" type="Teleport" x="793.109" y="642.04" width="14.3564" height="63.8614">
   <properties>
    <property name="destination" value="portal_b"/>
   </properties>
  </object>
  <object id="2164" type="DamageTrigger" x="517.861" y="578.178" width="45.5446" height="53.9604"/>
  <object id="2165" x="574.297" y="550.455"/>
  <object id="2166" name="portal_b" type="Teleport" x="485.678" y="18183.6" width="17.8218" height="61.3861">
   <properties>
    <property name="destination" value="portal_a"/>
   </properties>
  </object>
 </objectgroup>
 <layer id="3" name="Walls" width="128" height="353">
  <data encoding="csv">
0,0,0,0,0,0,0,0,0,0,0,0,0,0,0,0,0,0,0,0,0,0,0,0,0,0,0,0,0,0,0,0,0,0,0,0,0,0,0,0,0,0,0,0,0,0,0,0,0,0,0,0,0,0,0,0,0,0,0,0,0,0,0,0,0,0,0,0,0,0,0,0,0,0,0,0,0,0,0,0,0,0,0,0,0,0,0,0,0,0,0,0,0,0,0,0,0,0,0,0,0,0,0,0,0,0,0,0,0,0,0,0,0,0,0,0,0,0,0,0,0,0,0,0,0,0,0,0,
0,0,0,0,0,0,0,0,0,0,0,0,0,0,0,0,0,0,0,0,0,0,0,0,0,0,0,0,0,0,0,0,0,0,0,0,0,0,0,0,0,0,0,0,0,0,0,0,0,0,0,0,0,0,0,0,0,0,0,0,0,0,0,0,0,0,0,0,0,0,0,0,0,0,0,0,0,0,0,0,0,0,0,0,0,0,0,0,0,0,0,0,0,0,0,0,0,0,0,0,0,0,0,0,0,0,0,0,0,0,0,0,0,0,0,0,0,0,0,0,0,0,0,0,0,0,0,0,
0,0,0,0,0,0,0,0,0,0,0,0,0,0,0,0,0,0,0,0,0,0,0,0,0,0,0,0,0,0,0,0,0,0,0,0,0,0,0,0,0,0,0,0,0,0,0,0,0,0,0,0,0,0,0,0,0,0,0,0,0,0,0,0,0,0,0,0,0,0,0,0,0,0,0,0,0,0,0,0,0,0,0,0,0,0,0,0,0,0,0,0,0,0,0,0,0,0,0,0,0,0,0,0,0,0,0,0,0,0,0,0,0,0,0,0,0,0,0,0,0,0,0,0,0,0,0,0,
0,0,0,0,0,0,0,0,0,0,0,0,0,0,0,0,0,0,0,0,0,0,0,0,0,0,0,0,0,0,0,0,0,0,0,0,0,0,0,0,0,0,0,0,0,0,0,0,0,0,0,0,0,0,0,0,0,0,0,0,0,0,0,0,0,0,0,0,0,0,0,0,0,0,0,0,0,0,0,0,0,0,0,0,0,0,0,0,0,0,0,0,0,0,0,0,0,0,0,0,0,0,0,0,0,0,0,0,0,0,0,0,0,0,0,0,0,0,0,0,0,0,0,0,0,0,0,0,
0,0,0,0,0,0,0,0,0,0,0,0,0,0,0,0,0,0,0,0,0,0,0,0,0,0,0,0,0,0,0,0,0,0,0,0,0,0,0,0,0,0,0,0,0,0,0,0,0,0,0,0,0,0,0,0,0,0,0,0,0,0,0,0,0,0,0,0,0,0,0,0,0,0,0,0,0,0,0,0,0,0,0,0,0,0,0,0,0,0,0,0,0,0,0,0,0,0,0,0,0,0,0,0,0,0,0,0,0,0,0,0,0,0,0,0,0,0,0,0,0,0,0,0,0,0,0,0,
0,0,0,0,0,0,0,0,0,0,0,0,0,0,0,0,0,0,0,0,0,0,0,0,0,0,0,0,0,0,0,0,0,0,0,0,0,0,0,0,0,0,0,0,0,0,0,0,0,0,0,0,0,0,0,0,0,0,0,0,0,0,0,0,0,0,0,0,0,0,0,0,0,0,0,0,0,0,0,0,0,0,0,0,0,0,0,0,0,0,0,0,0,0,0,0,0,0,0,0,0,0,0,0,0,0,0,0,0,0,0,0,0,0,0,0,0,0,0,0,0,0,0,0,0,0,0,0,
0,0,0,0,0,0,0,0,0,0,0,0,0,0,0,0,0,0,0,0,0,0,0,0,0,0,0,0,0,0,0,0,0,0,0,0,0,0,0,0,0,0,0,0,0,0,0,0,0,0,0,0,0,0,0,0,0,0,0,0,0,0,0,0,0,0,0,0,0,0,0,0,0,0,0,0,0,0,0,0,0,0,0,0,0,0,0,0,0,0,0,0,0,0,0,0,0,0,0,0,0,0,0,0,0,0,0,0,0,0,0,0,0,0,0,0,0,0,0,0,0,0,0,0,0,0,0,0,
0,0,0,0,0,0,0,0,0,0,0,0,0,0,0,0,0,0,0,0,0,0,0,0,0,0,0,0,0,0,0,0,0,0,0,0,0,0,0,0,0,0,0,0,0,0,0,0,0,0,0,0,0,0,0,0,0,0,0,0,0,0,0,0,0,0,0,0,0,0,0,0,0,0,0,0,0,0,0,0,0,0,0,0,0,0,0,0,0,0,0,0,0,0,0,0,0,0,0,0,0,0,0,0,0,0,0,0,0,0,0,0,0,0,0,0,0,0,0,0,0,0,0,0,0,0,0,0,
0,0,0,0,0,0,0,0,0,0,0,0,0,0,0,0,0,0,0,0,0,0,0,0,0,0,0,0,0,0,0,0,0,0,0,0,0,0,0,0,0,0,0,0,0,0,0,0,0,0,0,0,0,0,0,0,0,0,0,0,0,0,0,0,0,0,0,0,0,0,0,0,0,0,0,0,0,0,0,0,0,0,0,0,0,0,0,0,0,0,0,0,0,0,0,0,0,0,0,0,0,0,0,0,0,0,0,0,0,0,0,0,0,0,0,0,0,0,0,0,0,0,0,0,0,0,0,0,
0,0,0,0,0,0,0,0,2671,0,0,0,0,0,0,0,0,0,0,0,0,0,0,0,0,0,0,0,0,0,0,0,0,0,0,0,0,0,0,0,0,0,0,0,0,0,0,0,0,0,0,0,0,0,0,0,0,0,0,0,0,0,0,0,0,0,0,0,0,0,0,0,0,0,0,0,0,0,0,0,0,0,0,0,0,0,0,0,0,0,0,0,0,0,0,0,0,0,0,0,0,0,0,0,0,0,0,0,0,0,0,0,0,0,0,0,0,0,0,0,0,0,0,0,0,0,0,0,
0,0,0,0,0,0,0,0,0,0,0,0,2703,0,0,0,0,0,0,0,0,0,0,0,0,0,0,0,0,0,0,0,0,0,0,0,0,0,0,0,0,0,0,0,0,0,0,0,0,0,0,0,0,0,0,0,0,0,0,0,0,0,0,0,0,0,0,0,0,0,0,0,0,0,0,0,0,0,0,0,0,0,0,0,0,0,0,0,0,0,0,0,0,0,0,0,0,0,0,0,0,0,0,0,0,0,0,0,0,0,0,0,0,0,0,0,0,0,0,0,0,0,0,0,0,0,0,0,
0,0,0,0,0,0,0,0,0,0,0,0,0,0,0,0,0,0,0,0,0,0,0,0,0,0,0,0,0,0,0,0,0,0,0,0,0,0,0,0,0,0,0,0,0,0,0,0,0,0,0,0,0,0,0,0,0,0,0,0,0,0,0,0,0,0,0,0,0,0,0,0,0,0,0,0,0,0,0,0,0,0,0,0,0,0,0,0,0,0,0,0,0,0,0,0,0,0,0,0,0,0,0,0,0,0,0,0,0,0,0,0,0,0,0,0,0,0,0,0,0,0,0,0,0,0,0,0,
0,0,0,0,0,0,0,0,0,0,0,0,0,0,0,0,0,0,0,0,0,0,0,0,0,0,0,0,0,0,0,0,0,0,0,0,0,0,0,0,0,0,0,0,0,0,0,0,0,0,0,0,0,0,0,0,0,0,0,0,0,0,0,0,0,0,0,0,0,0,0,0,0,0,0,0,0,0,0,0,0,0,0,0,0,0,0,0,0,0,0,0,0,0,0,0,0,0,0,0,0,0,0,0,0,0,0,0,0,0,0,0,0,0,0,0,0,0,0,0,0,0,0,0,0,0,0,0,
0,0,0,0,2,0,0,59,0,0,1188,0,0,1189,0,0,1190,0,0,1191,0,0,1192,0,0,1193,0,0,1194,0,0,1195,0,0,1196,0,0,1197,0,0,1198,0,0,1199,0,0,1200,0,0,1201,0,0,1202,0,0,1203,0,0,1204,0,0,1205,0,0,1206,0,0,1207,0,0,1208,0,0,1209,0,0,1210,0,0,1211,0,0,1212,0,0,1213,0,0,1214,0,0,1215,0,0,1216,0,0,1217,0,0,1218,0,0,1219,0,0,1220,0,0,1221,0,0,1222,0,0,1223,0,0,1224,0,0,1225,0,0,0,0,0,0,
0,0,0,0,0,0,0,0,0,0,0,0,0,0,0,0,0,0,0,0,0,0,0,0,0,0,0,0,0,0,0,0,0,0,0,0,0,0,0,0,0,0,0,0,0,0,0,0,0,0,0,0,0,0,0,0,0,0,0,0,0,0,0,0,0,0,0,0,0,0,0,0,0,0,0,0,0,0,0,0,0,0,0,0,0,0,0,0,0,0,0,0,0,0,0,0,0,0,0,0,0,0,0,0,0,0,0,0,0,0,0,0,0,0,0,0,0,0,0,0,0,0,0,0,0,0,0,0,
0,0,0,0,0,0,0,0,0,0,0,0,0,0,0,0,0,0,0,0,0,0,0,0,0,0,0,0,0,0,0,0,0,0,0,0,0,0,0,0,0,0,0,0,0,0,0,0,0,0,0,0,0,0,0,0,0,0,0,0,0,0,0,0,0,0,0,0,0,0,0,0,0,0,0,0,0,0,0,0,0,0,0,0,0,0,0,0,0,0,0,0,0,0,0,0,0,0,0,0,0,0,0,0,0,0,0,0,0,0,0,0,0,0,0,0,0,0,0,0,0,0,0,0,0,0,0,0,
0,0,0,0,1226,0,0,1227,0,0,1228,0,0,1229,0,0,1230,0,0,1231,0,0,1232,0,0,1233,0,0,1234,0,0,1235,0,0,1236,0,0,1237,0,0,1238,0,0,1239,0,0,1328,0,0,1329,0,0,1405,0,0,0,0,0,0,0,0,0,0,0,0,0,0,0,0,0,0,0,0,0,0,0,0,0,0,0,0,0,0,0,0,0,0,0,0,0,0,0,0,0,0,0,0,0,0,0,0,0,0,0,0,0,0,0,0,0,0,0,0,0,0,0,0,0,0,0,0,0,0,0,0,0,0,0,
0,0,0,0,0,0,0,0,0,0,0,0,0,0,0,0,0,0,0,0,0,0,0,0,0,0,0,0,0,0,0,0,0,0,0,0,0,0,0,0,0,0,0,0,0,0,0,0,0,0,0,0,0,0,0,0,0,0,0,0,0,0,0,0,0,0,0,0,0,0,0,0,0,0,0,0,0,0,0,0,0,0,0,0,0,0,0,0,0,0,0,0,0,0,0,0,0,0,0,0,0,0,0,0,0,0,0,0,0,0,0,0,0,0,0,0,0,0,0,0,0,0,0,0,0,0,0,0,
0,0,0,0,0,0,0,0,0,0,0,0,0,0,0,0,0,0,0,0,0,0,0,0,0,0,0,0,0,0,0,0,0,0,0,0,0,0,0,0,0,0,0,0,0,0,0,0,0,0,0,0,0,0,0,0,0,0,0,0,0,0,0,0,0,0,0,0,0,0,0,0,0,0,0,0,0,0,0,0,0,0,0,0,0,0,0,0,0,0,0,0,0,0,0,0,0,0,0,0,0,0,0,0,0,0,0,0,0,0,0,0,0,0,0,0,0,0,0,0,0,0,0,0,0,0,0,0,
0,0,0,0,0,0,0,0,0,0,0,0,0,0,0,0,0,0,0,0,0,0,0,0,0,0,0,0,0,0,0,0,0,0,0,0,0,0,0,0,0,0,0,0,0,0,0,0,0,0,0,0,0,0,0,0,0,0,0,0,0,0,0,0,0,0,0,0,0,0,0,0,0,0,0,0,0,0,0,0,0,0,0,0,0,0,0,0,0,0,0,0,0,0,0,0,0,0,0,0,0,0,0,0,0,0,0,0,0,0,0,0,0,0,0,0,0,0,0,0,0,0,0,0,0,0,0,0,
0,0,0,0,0,0,0,0,0,0,0,0,0,0,0,0,0,0,0,0,0,0,0,0,0,0,0,0,0,0,0,0,0,0,0,0,0,0,0,0,0,0,0,0,0,0,0,0,0,0,0,0,0,0,0,0,0,0,0,0,0,0,0,0,0,0,0,0,0,0,0,0,0,0,0,0,0,0,0,0,0,0,0,0,0,0,0,0,0,0,0,0,0,0,0,0,0,0,0,0,0,0,0,0,0,0,0,0,0,0,0,0,0,0,0,0,0,0,0,0,0,0,0,0,0,0,0,0,
0,0,0,0,0,0,0,0,0,0,0,0,0,0,0,0,0,0,0,0,0,0,0,0,0,0,0,0,0,0,0,0,0,0,0,0,0,0,0,0,0,0,0,0,0,0,0,0,0,0,0,0,0,0,0,0,0,0,0,0,0,0,0,0,0,0,0,0,0,0,0,0,0,0,0,0,0,0,0,0,0,0,0,0,0,0,0,0,0,0,0,0,0,0,0,0,0,0,0,0,0,0,0,0,0,0,0,0,0,0,0,0,0,0,0,0,0,0,0,0,0,0,0,0,0,0,0,0,
0,0,0,0,0,0,0,0,0,0,0,0,0,0,0,0,0,0,0,0,0,0,0,0,0,0,0,0,0,0,0,0,0,0,0,0,0,0,0,0,0,0,0,0,0,0,0,0,0,0,0,0,0,0,0,0,0,0,0,0,0,0,0,0,0,0,0,0,0,0,0,0,0,0,0,0,0,0,0,0,0,0,0,0,0,0,0,0,0,0,0,0,0,0,0,0,0,0,0,0,0,0,0,0,0,0,0,0,0,0,0,0,0,0,0,0,0,0,0,0,0,0,0,0,0,0,0,0,
0,0,0,0,0,0,0,0,0,0,0,0,0,0,0,0,0,0,0,0,0,0,0,0,0,0,0,0,0,0,0,0,0,0,0,0,0,0,0,0,0,0,0,0,0,0,0,0,0,0,0,0,0,0,0,0,0,0,0,0,0,0,0,0,0,0,0,0,0,0,0,0,0,0,0,0,0,0,0,0,0,0,0,0,0,0,0,0,0,0,0,0,0,0,0,0,0,0,0,0,0,0,0,0,0,0,0,0,0,0,0,0,0,0,0,0,0,0,0,0,0,0,0,0,0,0,0,0,
0,0,0,0,0,0,0,0,0,0,0,0,0,0,0,0,0,0,0,0,0,0,0,0,0,0,0,0,0,0,0,0,0,0,0,0,0,0,0,0,0,0,0,0,0,0,0,0,0,0,0,0,0,0,0,0,0,0,0,0,0,0,0,0,0,0,0,0,0,0,0,0,0,0,0,0,0,0,0,0,0,0,0,0,0,0,0,0,0,0,0,0,0,0,0,0,0,0,0,0,0,0,0,0,0,0,0,0,0,0,0,0,0,0,0,0,0,0,0,0,0,0,0,0,0,0,0,0,
0,0,0,0,3,0,0,4,0,0,5,0,0,6,0,0,7,0,0,8,0,0,9,0,0,10,0,0,11,0,0,12,0,0,13,0,0,14,0,0,15,0,0,16,0,0,17,0,0,18,0,0,19,0,0,20,0,0,21,0,0,22,0,0,23,0,0,24,0,0,25,0,0,26,0,0,0,0,0,0,0,0,0,0,0,0,0,0,0,0,0,0,0,0,0,0,0,0,0,0,0,0,0,0,0,0,0,0,0,0,0,0,0,0,0,0,0,0,0,0,0,0,0,0,0,0,0,0,
0,0,0,0,0,0,0,0,0,0,0,0,0,0,0,0,0,0,0,0,0,0,0,0,0,0,0,0,0,0,0,0,0,0,0,0,0,0,0,0,0,0,0,0,0,0,0,0,0,0,0,0,0,0,0,0,0,0,0,0,0,0,0,0,0,0,0,0,0,0,0,0,0,0,0,0,0,0,0,0,0,0,0,0,0,0,0,0,0,0,0,0,0,0,0,0,0,0,0,0,0,0,0,0,0,0,0,0,0,0,0,0,0,0,0,0,0,0,0,0,0,0,0,0,0,0,0,0,
0,0,0,0,0,0,0,0,0,0,0,0,0,0,0,0,0,0,0,0,0,0,0,0,0,0,0,0,0,0,0,0,0,0,0,0,0,0,0,0,0,0,0,0,0,0,0,0,0,0,0,0,0,0,0,0,0,0,0,0,0,0,0,0,0,0,0,0,0,0,0,0,0,0,0,0,0,0,0,0,0,0,0,0,0,0,0,0,0,0,0,0,0,0,0,0,0,0,0,0,0,0,0,0,0,0,0,0,0,0,0,0,0,0,0,0,0,0,0,0,0,0,0,0,0,0,0,0,
0,0,0,0,0,0,0,0,0,0,0,0,0,0,0,0,0,0,0,0,0,0,0,0,0,0,0,0,0,0,0,0,0,0,0,0,0,0,0,0,0,0,0,0,0,0,0,0,0,0,0,0,0,0,0,0,0,0,0,0,0,0,0,0,0,0,0,0,0,0,0,0,0,0,0,0,0,0,0,0,0,0,0,0,0,0,0,0,0,0,0,0,0,0,0,0,0,0,0,0,0,0,0,0,0,0,0,0,0,0,0,0,0,0,0,0,0,0,0,0,0,0,0,0,0,0,0,0,
0,0,0,0,0,0,0,0,0,0,0,0,0,0,0,0,0,0,0,0,0,0,0,0,0,0,0,0,0,0,0,0,0,0,0,0,0,0,0,0,0,0,0,0,0,0,0,0,0,0,0,0,0,0,0,0,0,0,0,0,0,0,0,0,0,0,0,0,0,0,0,0,0,0,0,0,0,0,0,0,0,0,0,0,0,0,0,0,0,0,0,0,0,0,0,0,0,0,0,0,0,0,0,0,0,0,0,0,0,0,0,0,0,0,0,0,0,0,0,0,0,0,0,0,0,0,0,0,
0,0,0,0,0,0,0,0,0,0,0,0,0,0,0,0,0,0,0,0,0,0,0,0,0,0,0,0,0,0,0,0,0,0,0,0,0,0,0,0,0,0,0,0,0,0,0,0,0,0,0,0,0,0,0,0,0,0,0,0,0,0,0,0,0,0,0,0,0,0,0,0,0,0,0,0,0,0,0,0,0,0,0,0,0,0,0,0,0,0,0,0,0,0,0,0,0,0,0,0,0,0,0,0,0,0,0,0,0,0,0,0,0,0,0,0,0,0,0,0,0,0,0,0,0,0,0,0,
0,0,0,0,0,0,0,0,0,0,0,0,0,0,0,0,0,0,0,0,0,0,0,0,0,0,0,0,0,0,0,0,0,0,0,0,0,0,0,0,0,0,0,0,0,0,0,0,0,0,0,0,0,0,0,0,0,0,0,0,0,0,0,0,0,0,0,0,0,0,0,0,0,0,0,0,0,0,0,0,0,0,0,0,0,0,0,0,0,0,0,0,0,0,0,0,0,0,0,0,0,0,0,0,0,0,0,0,0,0,0,0,0,0,0,0,0,0,0,0,0,0,0,0,0,0,0,0,
0,0,0,0,0,0,0,0,0,0,0,0,0,0,0,0,0,0,0,0,0,0,0,0,0,0,0,0,0,0,0,0,0,0,0,0,0,0,0,0,0,0,0,0,0,0,0,0,0,0,0,0,0,0,0,0,0,0,0,0,0,0,0,0,0,0,0,0,0,0,0,0,0,0,0,0,0,0,0,0,0,0,0,0,0,0,0,0,0,0,0,0,0,0,0,0,0,0,0,0,0,0,0,0,0,0,0,0,0,0,0,0,0,0,0,0,0,0,0,0,0,0,0,0,0,0,0,0,
0,0,0,0,0,0,0,0,0,0,0,0,0,0,0,0,0,0,0,0,0,0,0,0,0,0,0,0,0,0,0,0,0,0,0,0,0,0,0,0,0,0,0,0,0,0,0,0,0,0,0,0,0,0,0,0,0,0,0,0,0,0,0,0,0,0,0,0,0,0,0,0,0,0,0,0,0,0,0,0,0,0,0,0,0,0,0,0,0,0,0,0,0,0,0,0,0,0,0,0,0,0,0,0,0,0,0,0,0,0,0,0,0,0,0,0,0,0,0,0,0,0,0,0,0,0,0,0,
0,0,0,0,27,0,0,28,0,0,29,0,0,30,0,0,31,0,0,32,0,0,33,0,0,34,0,0,35,0,0,36,0,0,37,0,0,38,0,0,39,0,0,40,0,0,41,0,0,42,0,0,43,0,0,44,0,0,45,0,0,46,0,0,47,0,0,48,0,0,49,0,0,50,0,0,51,0,0,52,0,0,53,0,0,54,0,0,55,0,0,56,0,0,57,0,0,58,0,0,0,0,0,0,0,0,0,0,0,0,0,0,0,0,0,0,0,0,0,0,0,0,0,0,0,0,0,0,
0,0,0,0,0,0,0,0,0,0,0,0,0,0,0,0,0,0,0,0,0,0,0,0,0,0,0,0,0,0,0,0,0,0,0,0,0,0,0,0,0,0,0,0,0,0,0,0,0,0,0,0,0,0,0,0,0,0,0,0,0,0,0,0,0,0,0,0,0,0,0,0,0,0,0,0,0,0,0,0,0,0,0,0,0,0,0,0,0,0,0,0,0,0,0,0,0,0,0,0,0,0,0,0,0,0,0,0,0,0,0,0,0,0,0,0,0,0,0,0,0,0,0,0,0,0,0,0,
0,0,0,0,0,0,0,0,0,0,0,0,0,0,0,0,0,0,0,0,0,0,0,0,0,0,0,0,0,0,0,0,0,0,0,0,0,0,0,0,0,0,0,0,0,0,0,0,0,0,0,0,0,0,0,0,0,0,0,0,0,0,0,0,0,0,0,0,0,0,0,0,0,0,0,0,0,0,0,0,0,0,0,0,0,0,0,0,0,0,0,0,0,0,0,0,0,0,0,0,0,0,0,0,0,0,0,0,0,0,0,0,0,0,0,0,0,0,0,0,0,0,0,0,0,0,0,0,
0,0,0,0,0,0,0,0,0,0,0,0,0,0,0,0,0,0,0,0,0,0,0,0,0,0,0,0,0,0,0,0,0,0,0,0,0,0,0,0,0,0,0,0,0,0,0,0,0,0,0,0,0,0,0,0,0,0,0,0,0,0,0,0,0,0,0,0,0,0,0,0,0,0,0,0,0,0,0,0,0,0,0,0,0,0,0,0,0,0,0,0,0,0,0,0,0,0,0,0,0,0,0,0,0,0,0,0,0,0,0,0,0,0,0,0,0,0,0,0,0,0,0,0,0,0,0,0,
0,0,0,0,0,0,0,0,0,0,0,0,0,0,0,0,0,0,0,0,0,0,0,0,0,0,0,0,0,0,0,0,0,0,0,0,0,0,0,0,0,0,0,0,0,0,0,0,0,0,0,0,0,0,0,0,0,0,0,0,0,0,0,0,0,0,0,0,0,0,0,0,0,0,0,0,0,0,0,0,0,0,0,0,0,0,0,0,0,0,0,0,0,0,0,0,0,0,0,0,0,0,0,0,0,0,0,0,0,0,0,0,0,0,0,0,0,0,0,0,0,0,0,0,0,0,0,0,
0,0,0,0,0,0,0,0,0,0,0,0,0,0,0,0,0,0,0,0,0,0,0,0,0,0,0,0,0,0,0,0,0,0,0,0,0,0,0,0,0,0,0,0,0,0,0,0,0,0,0,0,0,0,0,0,0,0,0,0,0,0,0,0,0,0,0,0,0,0,0,0,0,0,0,0,0,0,0,0,0,0,0,0,0,0,0,0,0,0,0,0,0,0,0,0,0,0,0,0,0,0,0,0,0,0,0,0,0,0,0,0,0,0,0,0,0,0,0,0,0,0,0,0,0,0,0,0,
0,0,0,0,0,0,0,0,0,0,0,0,0,0,0,0,0,0,0,0,0,0,0,0,0,0,0,0,0,0,0,0,0,0,0,0,0,0,0,0,0,0,0,0,0,0,0,0,0,0,0,0,0,0,0,0,0,0,0,0,0,0,0,0,0,0,0,0,0,0,0,0,0,0,0,0,0,0,0,0,0,0,0,0,0,0,0,0,0,0,0,0,0,0,0,0,0,0,0,0,0,0,0,0,0,0,0,0,0,0,0,0,0,0,0,0,0,0,0,0,0,0,0,0,0,0,0,0,
0,0,0,0,0,0,0,0,0,0,0,0,0,0,0,0,0,0,0,0,0,0,0,0,0,0,0,0,0,0,0,0,0,0,0,0,0,0,0,0,0,0,0,0,0,0,0,0,0,0,0,0,0,0,0,0,0,0,0,0,0,0,0,0,0,0,0,0,0,0,0,0,0,0,0,0,0,0,0,0,0,0,0,0,0,0,0,0,0,0,0,0,0,0,0,0,0,0,0,0,0,0,0,0,0,0,0,0,0,0,0,0,0,0,0,0,0,0,0,0,0,0,0,0,0,0,0,0,
0,0,0,0,0,0,0,0,0,0,0,0,0,0,0,0,0,0,0,0,0,0,0,0,0,0,0,0,0,0,0,0,0,0,0,0,0,0,0,0,0,0,0,0,0,0,0,0,0,0,0,0,0,0,0,0,0,0,0,0,0,0,0,0,0,0,0,0,0,0,0,0,0,0,0,0,0,0,0,0,0,0,0,0,0,0,0,0,0,0,0,0,0,0,0,0,0,0,0,0,0,0,0,0,0,0,0,0,0,0,0,0,0,0,0,0,0,0,0,0,0,0,0,0,0,0,0,0,
0,0,0,0,60,0,0,61,0,0,62,0,0,63,0,0,64,0,0,65,0,0,66,0,0,67,0,0,68,0,0,69,0,0,70,0,0,71,0,0,72,0,0,73,0,0,74,0,0,75,0,0,76,0,0,77,0,0,78,0,0,79,0,0,80,0,0,81,0,0,82,0,0,83,0,0,84,0,0,85,0,0,86,0,0,87,0,0,88,0,0,89,0,0,90,0,0,91,0,0,92,0,0,93,0,0,94,0,0,95,0,0,96,0,0,97,0,0,98,0,0,99,0,0,0,0,0,0,
0,0,0,0,0,0,0,0,0,0,0,0,0,0,0,0,0,0,0,0,0,0,0,0,0,0,0,0,0,0,0,0,0,0,0,0,0,0,0,0,0,0,0,0,0,0,0,0,0,0,0,0,0,0,0,0,0,0,0,0,0,0,0,0,0,0,0,0,0,0,0,0,0,0,0,0,0,0,0,0,0,0,0,0,0,0,0,0,0,0,0,0,0,0,0,0,0,0,0,0,0,0,0,0,0,0,0,0,0,0,0,0,0,0,0,0,0,0,0,0,0,0,0,0,0,0,0,0,
0,0,0,0,0,0,0,0,0,0,0,0,0,0,0,0,0,0,0,0,0,0,0,0,0,0,0,0,0,0,0,0,0,0,0,0,0,0,0,0,0,0,0,0,0,0,0,0,0,0,0,0,0,0,0,0,0,0,0,0,0,0,0,0,0,0,0,0,0,0,0,0,0,0,0,0,0,0,0,0,0,0,0,0,0,0,0,0,0,0,0,0,0,0,0,0,0,0,0,0,0,0,0,0,0,0,0,0,0,0,0,0,0,0,0,0,0,0,0,0,0,0,0,0,0,0,0,0,
0,0,0,0,100,0,0,101,0,0,102,0,0,103,0,0,104,0,0,105,0,0,106,0,0,107,0,0,108,0,0,109,0,0,110,0,0,111,0,0,0,0,0,0,0,0,0,0,0,0,0,0,0,0,0,0,0,0,0,0,0,0,0,0,0,0,0,0,0,0,0,0,0,0,0,0,0,0,0,0,0,0,0,0,0,0,0,0,0,0,0,0,0,0,0,0,0,0,0,0,0,0,0,0,0,0,0,0,0,0,0,0,0,0,0,0,0,0,0,0,0,0,0,0,0,0,0,0,
0,0,0,0,0,0,0,0,0,0,0,0,0,0,0,0,0,0,0,0,0,0,0,0,0,0,0,0,0,0,0,0,0,0,0,0,0,0,0,0,0,0,0,0,0,0,0,0,0,0,0,0,0,0,0,0,0,0,0,0,0,0,0,0,0,0,0,0,0,0,0,0,0,0,0,0,0,0,0,0,0,0,0,0,0,0,0,0,0,0,0,0,0,0,0,0,0,0,0,0,0,0,0,0,0,0,0,0,0,0,0,0,0,0,0,0,0,0,0,0,0,0,0,0,0,0,0,0,
0,0,0,0,0,0,0,0,0,0,0,0,0,0,0,0,0,0,0,0,0,0,0,0,0,0,0,0,0,0,0,0,0,0,0,0,0,0,0,0,0,0,0,0,0,0,0,0,0,0,0,0,0,0,0,0,0,0,0,0,0,0,0,0,0,0,0,0,0,0,0,0,0,0,0,0,0,0,0,0,0,0,0,0,0,0,0,0,0,0,0,0,0,0,0,0,0,0,0,0,0,0,0,0,0,0,0,0,0,0,0,0,0,0,0,0,0,0,0,0,0,0,0,0,0,0,0,0,
0,0,0,0,0,0,0,0,0,0,0,0,0,0,0,0,0,0,0,0,0,0,0,0,0,0,0,0,0,0,0,0,0,0,0,0,0,0,0,0,0,0,0,0,0,0,0,0,0,0,0,0,0,0,0,0,0,0,0,0,0,0,0,0,0,0,0,0,0,0,0,0,0,0,0,0,0,0,0,0,0,0,0,0,0,0,0,0,0,0,0,0,0,0,0,0,0,0,0,0,0,0,0,0,0,0,0,0,0,0,0,0,0,0,0,0,0,0,0,0,0,0,0,0,0,0,0,0,
0,0,0,0,0,0,0,0,0,0,0,0,0,0,0,0,0,0,0,0,0,0,0,0,0,0,0,0,0,0,0,0,0,0,0,0,0,0,0,0,0,0,0,0,0,0,0,0,0,0,0,0,0,0,0,0,0,0,0,0,0,0,0,0,0,0,0,0,0,0,0,0,0,0,0,0,0,0,0,0,0,0,0,0,0,0,0,0,0,0,0,0,0,0,0,0,0,0,0,0,0,0,0,0,0,0,0,0,0,0,0,0,0,0,0,0,0,0,0,0,0,0,0,0,0,0,0,0,
0,0,0,0,0,0,0,0,0,0,0,0,0,0,0,0,0,0,0,0,0,0,0,0,0,0,0,0,0,0,0,0,0,0,0,0,0,0,0,0,0,0,0,0,0,0,0,0,0,0,0,0,0,0,0,0,0,0,0,0,0,0,0,0,0,0,0,0,0,0,0,0,0,0,0,0,0,0,0,0,0,0,0,0,0,0,0,0,0,0,0,0,0,0,0,0,0,0,0,0,0,0,0,0,0,0,0,0,0,0,0,0,0,0,0,0,0,0,0,0,0,0,0,0,0,0,0,0,
0,0,0,0,0,0,0,0,0,0,0,0,0,0,0,0,0,0,0,0,0,0,0,0,0,0,0,0,0,0,0,0,0,0,0,0,0,0,0,0,0,0,0,0,0,0,0,0,0,0,0,0,0,0,0,0,0,0,0,0,0,0,0,0,0,0,0,0,0,0,0,0,0,0,0,0,0,0,0,0,0,0,0,0,0,0,0,0,0,0,0,0,0,0,0,0,0,0,0,0,0,0,0,0,0,0,0,0,0,0,0,0,0,0,0,0,0,0,0,0,0,0,0,0,0,0,0,0,
0,0,0,0,0,0,0,0,0,0,0,0,0,0,0,0,0,0,0,0,0,0,0,0,0,0,0,0,0,0,0,0,0,0,0,0,0,0,0,0,0,0,0,0,0,0,0,0,0,0,0,0,0,0,0,0,0,0,0,0,0,0,0,0,0,0,0,0,0,0,0,0,0,0,0,0,0,0,0,0,0,0,0,0,0,0,0,0,0,0,0,0,0,0,0,0,0,0,0,0,0,0,0,0,0,0,0,0,0,0,0,0,0,0,0,0,0,0,0,0,0,0,0,0,0,0,0,0,
0,0,0,0,0,0,0,0,0,0,0,0,0,0,0,0,0,0,0,0,0,0,0,0,0,0,0,0,0,0,0,0,0,0,0,0,0,0,0,0,0,0,0,0,0,0,0,0,0,0,0,0,0,0,0,0,0,0,0,0,0,0,0,0,0,0,0,0,0,0,0,0,0,0,0,0,0,0,0,0,0,0,0,0,0,0,0,0,0,0,0,0,0,0,0,0,0,0,0,0,0,0,0,0,0,0,0,0,0,0,0,0,0,0,0,0,0,0,0,0,0,0,0,0,0,0,0,0,
0,0,0,0,112,0,0,113,0,0,114,0,0,115,0,0,116,0,0,117,0,0,118,0,0,119,0,0,120,0,0,121,0,0,122,0,0,123,0,0,124,0,0,125,0,0,126,0,0,127,0,0,128,0,0,129,0,0,130,0,0,131,0,0,132,0,0,133,0,0,134,0,0,135,0,0,136,0,0,137,0,0,138,0,0,139,0,0,140,0,0,141,0,0,142,0,0,143,0,0,144,0,0,145,0,0,146,0,0,147,0,0,148,0,0,149,0,0,150,0,0,151,0,0,0,0,0,0,
0,0,0,0,0,0,0,0,0,0,0,0,0,0,0,0,0,0,0,0,0,0,0,0,0,0,0,0,0,0,0,0,0,0,0,0,0,0,0,0,0,0,0,0,0,0,0,0,0,0,0,0,0,0,0,0,0,0,0,0,0,0,0,0,0,0,0,0,0,0,0,0,0,0,0,0,0,0,0,0,0,0,0,0,0,0,0,0,0,0,0,0,0,0,0,0,0,0,0,0,0,0,0,0,0,0,0,0,0,0,0,0,0,0,0,0,0,0,0,0,0,0,0,0,0,0,0,0,
0,0,0,0,0,0,0,0,0,0,0,0,0,0,0,0,0,0,0,0,0,0,0,0,0,0,0,0,0,0,0,0,0,0,0,0,0,0,0,0,0,0,0,0,0,0,0,0,0,0,0,0,0,0,0,0,0,0,0,0,0,0,0,0,0,0,0,0,0,0,0,0,0,0,0,0,0,0,0,0,0,0,0,0,0,0,0,0,0,0,0,0,0,0,0,0,0,0,0,0,0,0,0,0,0,0,0,0,0,0,0,0,0,0,0,0,0,0,0,0,0,0,0,0,0,0,0,0,
0,0,0,0,152,0,0,153,0,0,154,0,0,155,0,0,156,0,0,157,0,0,158,0,0,159,0,0,160,0,0,161,0,0,162,0,0,163,0,0,164,0,0,165,0,0,166,0,0,167,0,0,168,0,0,169,0,0,170,0,0,171,0,0,172,0,0,173,0,0,174,0,0,175,0,0,176,0,0,177,0,0,178,0,0,179,0,0,180,0,0,181,0,0,182,0,0,183,0,0,184,0,0,185,0,0,186,0,0,187,0,0,188,0,0,189,0,0,190,0,0,191,0,0,0,0,0,0,
0,0,0,0,0,0,0,0,0,0,0,0,0,0,0,0,0,0,0,0,0,0,0,0,0,0,0,0,0,0,0,0,0,0,0,0,0,0,0,0,0,0,0,0,0,0,0,0,0,0,0,0,0,0,0,0,0,0,0,0,0,0,0,0,0,0,0,0,0,0,0,0,0,0,0,0,0,0,0,0,0,0,0,0,0,0,0,0,0,0,0,0,0,0,0,0,0,0,0,0,0,0,0,0,0,0,0,0,0,0,0,0,0,0,0,0,0,0,0,0,0,0,0,0,0,0,0,0,
0,0,0,0,0,0,0,0,0,0,0,0,0,0,0,0,0,0,0,0,0,0,0,0,0,0,0,0,0,0,0,0,0,0,0,0,0,0,0,0,0,0,0,0,0,0,0,0,0,0,0,0,0,0,0,0,0,0,0,0,0,0,0,0,0,0,0,0,0,0,0,0,0,0,0,0,0,0,0,0,0,0,0,0,0,0,0,0,0,0,0,0,0,0,0,0,0,0,0,0,0,0,0,0,0,0,0,0,0,0,0,0,0,0,0,0,0,0,0,0,0,0,0,0,0,0,0,0,
0,0,0,0,192,0,0,193,0,0,194,0,0,195,0,0,196,0,0,197,0,0,198,0,0,199,0,0,200,0,0,201,0,0,202,0,0,203,0,0,204,0,0,205,0,0,206,0,0,207,0,0,208,0,0,209,0,0,210,0,0,211,0,0,212,0,0,213,0,0,214,0,0,215,0,0,216,0,0,217,0,0,218,0,0,219,0,0,220,0,0,221,0,0,222,0,0,223,0,0,224,0,0,225,0,0,226,0,0,227,0,0,228,0,0,229,0,0,230,0,0,231,0,0,0,0,0,0,
0,0,0,0,0,0,0,0,0,0,0,0,0,0,0,0,0,0,0,0,0,0,0,0,0,0,0,0,0,0,0,0,0,0,0,0,0,0,0,0,0,0,0,0,0,0,0,0,0,0,0,0,0,0,0,0,0,0,0,0,0,0,0,0,0,0,0,0,0,0,0,0,0,0,0,0,0,0,0,0,0,0,0,0,0,0,0,0,0,0,0,0,0,0,0,0,0,0,0,0,0,0,0,0,0,0,0,0,0,0,0,0,0,0,0,0,0,0,0,0,0,0,0,0,0,0,0,0,
0,0,0,0,0,0,0,0,0,0,0,0,0,0,0,0,0,0,0,0,0,0,0,0,0,0,0,0,0,0,0,0,0,0,0,0,0,0,0,0,0,0,0,0,0,0,0,0,0,0,0,0,0,0,0,0,0,0,0,0,0,0,0,0,0,0,0,0,0,0,0,0,0,0,0,0,0,0,0,0,0,0,0,0,0,0,0,0,0,0,0,0,0,0,0,0,0,0,0,0,0,0,0,0,0,0,0,0,0,0,0,0,0,0,0,0,0,0,0,0,0,0,0,0,0,0,0,0,
0,0,0,0,232,0,0,233,0,0,234,0,0,235,0,0,236,0,0,237,0,0,238,0,0,239,0,0,240,0,0,241,0,0,242,0,0,243,0,0,244,0,0,245,0,0,246,0,0,247,0,0,248,0,0,249,0,0,250,0,0,251,0,0,252,0,0,253,0,0,254,0,0,255,0,0,256,0,0,257,0,0,258,0,0,259,0,0,260,0,0,261,0,0,262,0,0,263,0,0,264,0,0,265,0,0,266,0,0,267,0,0,268,0,0,269,0,0,270,0,0,271,0,0,0,0,0,0,
0,0,0,0,0,0,0,0,0,0,0,0,0,0,0,0,0,0,0,0,0,0,0,0,0,0,0,0,0,0,0,0,0,0,0,0,0,0,0,0,0,0,0,0,0,0,0,0,0,0,0,0,0,0,0,0,0,0,0,0,0,0,0,0,0,0,0,0,0,0,0,0,0,0,0,0,0,0,0,0,0,0,0,0,0,0,0,0,0,0,0,0,0,0,0,0,0,0,0,0,0,0,0,0,0,0,0,0,0,0,0,0,0,0,0,0,0,0,0,0,0,0,0,0,0,0,0,0,
0,0,0,0,0,0,0,0,0,0,0,0,0,0,0,0,0,0,0,0,0,0,0,0,0,0,0,0,0,0,0,0,0,0,0,0,0,0,0,0,0,0,0,0,0,0,0,0,0,0,0,0,0,0,0,0,0,0,0,0,0,0,0,0,0,0,0,0,0,0,0,0,0,0,0,0,0,0,0,0,0,0,0,0,0,0,0,0,0,0,0,0,0,0,0,0,0,0,0,0,0,0,0,0,0,0,0,0,0,0,0,0,0,0,0,0,0,0,0,0,0,0,0,0,0,0,0,0,
0,0,0,0,272,0,0,273,0,0,274,0,0,275,0,0,276,0,0,277,0,0,278,0,0,279,0,0,280,0,0,281,0,0,282,0,0,283,0,0,284,0,0,285,0,0,286,0,0,287,0,0,288,0,0,289,0,0,290,0,0,291,0,0,292,0,0,293,0,0,294,0,0,295,0,0,296,0,0,297,0,0,298,0,0,299,0,0,300,0,0,301,0,0,302,0,0,303,0,0,304,0,0,305,0,0,306,0,0,307,0,0,308,0,0,309,0,0,310,0,0,311,0,0,0,0,0,0,
0,0,0,0,0,0,0,0,0,0,0,0,0,0,0,0,0,0,0,0,0,0,0,0,0,0,0,0,0,0,0,0,0,0,0,0,0,0,0,0,0,0,0,0,0,0,0,0,0,0,0,0,0,0,0,0,0,0,0,0,0,0,0,0,0,0,0,0,0,0,0,0,0,0,0,0,0,0,0,0,0,0,0,0,0,0,0,0,0,0,0,0,0,0,0,0,0,0,0,0,0,0,0,0,0,0,0,0,0,0,0,0,0,0,0,0,0,0,0,0,0,0,0,0,0,0,0,0,
0,0,0,0,0,0,0,0,0,0,0,0,0,0,0,0,0,0,0,0,0,0,0,0,0,0,0,0,0,0,0,0,0,0,0,0,0,0,0,0,0,0,0,0,0,0,0,0,0,0,0,0,0,0,0,0,0,0,0,0,0,0,0,0,0,0,0,0,0,0,0,0,0,0,0,0,0,0,0,0,0,0,0,0,0,0,0,0,0,0,0,0,0,0,0,0,0,0,0,0,0,0,0,0,0,0,0,0,0,0,0,0,0,0,0,0,0,0,0,0,0,0,0,0,0,0,0,0,
0,0,0,0,312,0,0,313,0,0,314,0,0,315,0,0,316,0,0,317,0,0,318,0,0,319,0,0,320,0,0,321,0,0,322,0,0,323,0,0,324,0,0,325,0,0,326,0,0,327,0,0,328,0,0,329,0,0,330,0,0,331,0,0,332,0,0,333,0,0,334,0,0,335,0,0,336,0,0,337,0,0,338,0,0,339,0,0,340,0,0,341,0,0,342,0,0,343,0,0,344,0,0,345,0,0,346,0,0,347,0,0,348,0,0,349,0,0,350,0,0,351,0,0,0,0,0,0,
0,0,0,0,0,0,0,0,0,0,0,0,0,0,0,0,0,0,0,0,0,0,0,0,0,0,0,0,0,0,0,0,0,0,0,0,0,0,0,0,0,0,0,0,0,0,0,0,0,0,0,0,0,0,0,0,0,0,0,0,0,0,0,0,0,0,0,0,0,0,0,0,0,0,0,0,0,0,0,0,0,0,0,0,0,0,0,0,0,0,0,0,0,0,0,0,0,0,0,0,0,0,0,0,0,0,0,0,0,0,0,0,0,0,0,0,0,0,0,0,0,0,0,0,0,0,0,0,
0,0,0,0,0,0,0,0,0,0,0,0,0,0,0,0,0,0,0,0,0,0,0,0,0,0,0,0,0,0,0,0,0,0,0,0,0,0,0,0,0,0,0,0,0,0,0,0,0,0,0,0,0,0,0,0,0,0,0,0,0,0,0,0,0,0,0,0,0,0,0,0,0,0,0,0,0,0,0,0,0,0,0,0,0,0,0,0,0,0,0,0,0,0,0,0,0,0,0,0,0,0,0,0,0,0,0,0,0,0,0,0,0,0,0,0,0,0,0,0,0,0,0,0,0,0,0,0,
0,0,0,0,352,0,0,353,0,0,354,0,0,355,0,0,356,0,0,357,0,0,358,0,0,359,0,0,360,0,0,361,0,0,362,0,0,363,0,0,364,0,0,365,0,0,366,0,0,367,0,0,368,0,0,369,0,0,370,0,0,371,0,0,372,0,0,373,0,0,374,0,0,375,0,0,376,0,0,377,0,0,378,0,0,379,0,0,380,0,0,381,0,0,382,0,0,383,0,0,384,0,0,385,0,0,386,0,0,387,0,0,388,0,0,389,0,0,390,0,0,391,0,0,0,0,0,0,
0,0,0,0,0,0,0,0,0,0,0,0,0,0,0,0,0,0,0,0,0,0,0,0,0,0,0,0,0,0,0,0,0,0,0,0,0,0,0,0,0,0,0,0,0,0,0,0,0,0,0,0,0,0,0,0,0,0,0,0,0,0,0,0,0,0,0,0,0,0,0,0,0,0,0,0,0,0,0,0,0,0,0,0,0,0,0,0,0,0,0,0,0,0,0,0,0,0,0,0,0,0,0,0,0,0,0,0,0,0,0,0,0,0,0,0,0,0,0,0,0,0,0,0,0,0,0,0,
0,0,0,0,0,0,0,0,0,0,0,0,0,0,0,0,0,0,0,0,0,0,0,0,0,0,0,0,0,0,0,0,0,0,0,0,0,0,0,0,0,0,0,0,0,0,0,0,0,0,0,0,0,0,0,0,0,0,0,0,0,0,0,0,0,0,0,0,0,0,0,0,0,0,0,0,0,0,0,0,0,0,0,0,0,0,0,0,0,0,0,0,0,0,0,0,0,0,0,0,0,0,0,0,0,0,0,0,0,0,0,0,0,0,0,0,0,0,0,0,0,0,0,0,0,0,0,0,
0,0,0,0,392,0,0,393,0,0,394,0,0,395,0,0,396,0,0,397,0,0,398,0,0,399,0,0,400,0,0,401,0,0,402,0,0,403,0,0,404,0,0,405,0,0,406,0,0,407,0,0,408,0,0,409,0,0,410,0,0,411,0,0,412,0,0,413,0,0,414,0,0,415,0,0,416,0,0,417,0,0,418,0,0,419,0,0,420,0,0,421,0,0,422,0,0,423,0,0,424,0,0,425,0,0,426,0,0,427,0,0,428,0,0,429,0,0,430,0,0,431,0,0,0,0,0,0,
0,0,0,0,0,0,0,0,0,0,0,0,0,0,0,0,0,0,0,0,0,0,0,0,0,0,0,0,0,0,0,0,0,0,0,0,0,0,0,0,0,0,0,0,0,0,0,0,0,0,0,0,0,0,0,0,0,0,0,0,0,0,0,0,0,0,0,0,0,0,0,0,0,0,0,0,0,0,0,0,0,0,0,0,0,0,0,0,0,0,0,0,0,0,0,0,0,0,0,0,0,0,0,0,0,0,0,0,0,0,0,0,0,0,0,0,0,0,0,0,0,0,0,0,0,0,0,0,
0,0,0,0,0,0,0,0,0,0,0,0,0,0,0,0,0,0,0,0,0,0,0,0,0,0,0,0,0,0,0,0,0,0,0,0,0,0,0,0,0,0,0,0,0,0,0,0,0,0,0,0,0,0,0,0,0,0,0,0,0,0,0,0,0,0,0,0,0,0,0,0,0,0,0,0,0,0,0,0,0,0,0,0,0,0,0,0,0,0,0,0,0,0,0,0,0,0,0,0,0,0,0,0,0,0,0,0,0,0,0,0,0,0,0,0,0,0,0,0,0,0,0,0,0,0,0,0,
0,0,0,0,432,0,0,433,0,0,434,0,0,435,0,0,436,0,0,437,0,0,438,0,0,439,0,0,440,0,0,441,0,0,442,0,0,443,0,0,444,0,0,445,0,0,446,0,0,447,0,0,448,0,0,449,0,0,450,0,0,451,0,0,452,0,0,453,0,0,454,0,0,455,0,0,456,0,0,457,0,0,458,0,0,459,0,0,460,0,0,461,0,0,462,0,0,463,0,0,464,0,0,465,0,0,466,0,0,467,0,0,468,0,0,469,0,0,470,0,0,471,0,0,0,0,0,0,
0,0,0,0,0,0,0,0,0,0,0,0,0,0,0,0,0,0,0,0,0,0,0,0,0,0,0,0,0,0,0,0,0,0,0,0,0,0,0,0,0,0,0,0,0,0,0,0,0,0,0,0,0,0,0,0,0,0,0,0,0,0,0,0,0,0,0,0,0,0,0,0,0,0,0,0,0,0,0,0,0,0,0,0,0,0,0,0,0,0,0,0,0,0,0,0,0,0,0,0,0,0,0,0,0,0,0,0,0,0,0,0,0,0,0,0,0,0,0,0,0,0,0,0,0,0,0,0,
0,0,0,0,0,0,0,0,0,0,0,0,0,0,0,0,0,0,0,0,0,0,0,0,0,0,0,0,0,0,0,0,0,0,0,0,0,0,0,0,0,0,0,0,0,0,0,0,0,0,0,0,0,0,0,0,0,0,0,0,0,0,0,0,0,0,0,0,0,0,0,0,0,0,0,0,0,0,0,0,0,0,0,0,0,0,0,0,0,0,0,0,0,0,0,0,0,0,0,0,0,0,0,0,0,0,0,0,0,0,0,0,0,0,0,0,0,0,0,0,0,0,0,0,0,0,0,0,
0,0,0,0,472,0,0,473,0,0,474,0,0,475,0,0,476,0,0,477,0,0,478,0,0,479,0,0,480,0,0,481,0,0,482,0,0,483,0,0,484,0,0,485,0,0,486,0,0,487,0,0,488,0,0,489,0,0,490,0,0,491,0,0,492,0,0,493,0,0,494,0,0,495,0,0,496,0,0,497,0,0,498,0,0,499,0,0,500,0,0,501,0,0,502,0,0,503,0,0,504,0,0,505,0,0,506,0,0,507,0,0,508,0,0,509,0,0,510,0,0,511,0,0,0,0,0,0,
0,0,0,0,0,0,0,0,0,0,0,0,0,0,0,0,0,0,0,0,0,0,0,0,0,0,0,0,0,0,0,0,0,0,0,0,0,0,0,0,0,0,0,0,0,0,0,0,0,0,0,0,0,0,0,0,0,0,0,0,0,0,0,0,0,0,0,0,0,0,0,0,0,0,0,0,0,0,0,0,0,0,0,0,0,0,0,0,0,0,0,0,0,0,0,0,0,0,0,0,0,0,0,0,0,0,0,0,0,0,0,0,0,0,0,0,0,0,0,0,0,0,0,0,0,0,0,0,
0,0,0,0,0,0,0,0,0,0,0,0,0,0,0,0,0,0,0,0,0,0,0,0,0,0,0,0,0,0,0,0,0,0,0,0,0,0,0,0,0,0,0,0,0,0,0,0,0,0,0,0,0,0,0,0,0,0,0,0,0,0,0,0,0,0,0,0,0,0,0,0,0,0,0,0,0,0,0,0,0,0,0,0,0,0,0,0,0,0,0,0,0,0,0,0,0,0,0,0,0,0,0,0,0,0,0,0,0,0,0,0,0,0,0,0,0,0,0,0,0,0,0,0,0,0,0,0,
0,0,0,0,512,0,0,513,0,0,514,0,0,515,0,0,516,0,0,517,0,0,518,0,0,519,0,0,520,0,0,521,0,0,522,0,0,523,0,0,524,0,0,525,0,0,526,0,0,527,0,0,528,0,0,529,0,0,530,0,0,531,0,0,532,0,0,533,0,0,534,0,0,535,0,0,536,0,0,537,0,0,538,0,0,539,0,0,540,0,0,541,0,0,542,0,0,543,0,0,544,0,0,545,0,0,546,0,0,547,0,0,548,0,0,549,0,0,550,0,0,551,0,0,0,0,0,0,
0,0,0,0,0,0,0,0,0,0,0,0,0,0,0,0,0,0,0,0,0,0,0,0,0,0,0,0,0,0,0,0,0,0,0,0,0,0,0,0,0,0,0,0,0,0,0,0,0,0,0,0,0,0,0,0,0,0,0,0,0,0,0,0,0,0,0,0,0,0,0,0,0,0,0,0,0,0,0,0,0,0,0,0,0,0,0,0,0,0,0,0,0,0,0,0,0,0,0,0,0,0,0,0,0,0,0,0,0,0,0,0,0,0,0,0,0,0,0,0,0,0,0,0,0,0,0,0,
0,0,0,0,0,0,0,0,0,0,0,0,0,0,0,0,0,0,0,0,0,0,0,0,0,0,0,0,0,0,0,0,0,0,0,0,0,0,0,0,0,0,0,0,0,0,0,0,0,0,0,0,0,0,0,0,0,0,0,0,0,0,0,0,0,0,0,0,0,0,0,0,0,0,0,0,0,0,0,0,0,0,0,0,0,0,0,0,0,0,0,0,0,0,0,0,0,0,0,0,0,0,0,0,0,0,0,0,0,0,0,0,0,0,0,0,0,0,0,0,0,0,0,0,0,0,0,0,
0,0,0,0,552,0,0,553,0,0,554,0,0,555,0,0,556,0,0,557,0,0,558,0,0,559,0,0,560,0,0,561,0,0,562,0,0,563,0,0,0,0,0,0,0,0,0,0,0,0,0,0,0,0,0,0,0,0,0,0,0,0,0,0,0,0,0,0,0,0,0,0,0,0,0,0,0,0,0,0,0,0,0,0,0,0,0,0,0,0,0,0,0,0,0,0,0,0,0,0,0,0,0,0,0,0,0,0,0,0,0,0,0,0,0,0,0,0,0,0,0,0,0,0,0,0,0,0,
0,0,0,0,0,0,0,0,0,0,0,0,0,0,0,0,0,0,0,0,0,0,0,0,0,0,0,0,0,0,0,0,0,0,0,0,0,0,0,0,0,0,0,0,0,0,0,0,0,0,0,0,0,0,0,0,0,0,0,0,0,0,0,0,0,0,0,0,0,0,0,0,0,0,0,0,0,0,0,0,0,0,0,0,0,0,0,0,0,0,0,0,0,0,0,0,0,0,0,0,0,0,0,0,0,0,0,0,0,0,0,0,0,0,0,0,0,0,0,0,0,0,0,0,0,0,0,0,
0,0,0,0,0,0,0,0,0,0,0,0,0,0,0,0,0,0,0,0,0,0,0,0,0,0,0,0,0,0,0,0,0,0,0,0,0,0,0,0,0,0,0,0,0,0,0,0,0,0,0,0,0,0,0,0,0,0,0,0,0,0,0,0,0,0,0,0,0,0,0,0,0,0,0,0,0,0,0,0,0,0,0,0,0,0,0,0,0,0,0,0,0,0,0,0,0,0,0,0,0,0,0,0,0,0,0,0,0,0,0,0,0,0,0,0,0,0,0,0,0,0,0,0,0,0,0,0,
0,0,0,0,0,0,0,0,0,0,0,0,0,0,0,0,0,0,0,0,0,0,0,0,0,0,0,0,0,0,0,0,0,0,0,0,0,0,0,0,0,0,0,0,0,0,0,0,0,0,0,0,0,0,0,0,0,0,0,0,0,0,0,0,0,0,0,0,0,0,0,0,0,0,0,0,0,0,0,0,0,0,0,0,0,0,0,0,0,0,0,0,0,0,0,0,0,0,0,0,0,0,0,0,0,0,0,0,0,0,0,0,0,0,0,0,0,0,0,0,0,0,0,0,0,0,0,0,
0,0,0,0,0,0,0,0,0,0,0,0,0,0,0,0,0,0,0,0,0,0,0,0,0,0,0,0,0,0,0,0,0,0,0,0,0,0,0,0,0,0,0,0,0,0,0,0,0,0,0,0,0,0,0,0,0,0,0,0,0,0,0,0,0,0,0,0,0,0,0,0,0,0,0,0,0,0,0,0,0,0,0,0,0,0,0,0,0,0,0,0,0,0,0,0,0,0,0,0,0,0,0,0,0,0,0,0,0,0,0,0,0,0,0,0,0,0,0,0,0,0,0,0,0,0,0,0,
0,0,0,0,0,0,0,0,0,0,0,0,0,0,0,0,0,0,0,0,0,0,0,0,0,0,0,0,0,0,0,0,0,0,0,0,0,0,0,0,0,0,0,0,0,0,0,0,0,0,0,0,0,0,0,0,0,0,0,0,0,0,0,0,0,0,0,0,0,0,0,0,0,0,0,0,0,0,0,0,0,0,0,0,0,0,0,0,0,0,0,0,0,0,0,0,0,0,0,0,0,0,0,0,0,0,0,0,0,0,0,0,0,0,0,0,0,0,0,0,0,0,0,0,0,0,0,0,
0,0,0,0,0,0,0,0,0,0,0,0,0,0,0,0,0,0,0,0,0,0,0,0,0,0,0,0,0,0,0,0,0,0,0,0,0,0,0,0,0,0,0,0,0,0,0,0,0,0,0,0,0,0,0,0,0,0,0,0,0,0,0,0,0,0,0,0,0,0,0,0,0,0,0,0,0,0,0,0,0,0,0,0,0,0,0,0,0,0,0,0,0,0,0,0,0,0,0,0,0,0,0,0,0,0,0,0,0,0,0,0,0,0,0,0,0,0,0,0,0,0,0,0,0,0,0,0,
0,0,0,0,0,0,0,0,0,0,0,0,0,0,0,0,0,0,0,0,0,0,0,0,0,0,0,0,0,0,0,0,0,0,0,0,0,0,0,0,0,0,0,0,0,0,0,0,0,0,0,0,0,0,0,0,0,0,0,0,0,0,0,0,0,0,0,0,0,0,0,0,0,0,0,0,0,0,0,0,0,0,0,0,0,0,0,0,0,0,0,0,0,0,0,0,0,0,0,0,0,0,0,0,0,0,0,0,0,0,0,0,0,0,0,0,0,0,0,0,0,0,0,0,0,0,0,0,
0,0,0,0,0,0,0,0,0,0,0,0,0,0,0,0,0,0,0,0,0,0,0,0,0,0,0,0,0,0,0,0,0,0,0,0,0,0,0,0,0,0,0,0,0,0,0,0,0,0,0,0,0,0,0,0,0,0,0,0,0,0,0,0,0,0,0,0,0,0,0,0,0,0,0,0,0,0,0,0,0,0,0,0,0,0,0,0,0,0,0,0,0,0,0,0,0,0,0,0,0,0,0,0,0,0,0,0,0,0,0,0,0,0,0,0,0,0,0,0,0,0,0,0,0,0,0,0,
0,0,0,0,564,0,0,565,0,0,566,0,0,567,0,0,568,0,0,569,0,0,570,0,0,571,0,0,572,0,0,573,0,0,574,0,0,575,0,0,576,0,0,577,0,0,578,0,0,579,0,0,580,0,0,581,0,0,582,0,0,583,0,0,584,0,0,585,0,0,586,0,0,587,0,0,588,0,0,589,0,0,590,0,0,591,0,0,592,0,0,593,0,0,594,0,0,595,0,0,596,0,0,597,0,0,598,0,0,599,0,0,600,0,0,601,0,0,602,0,0,603,0,0,0,0,0,0,
0,0,0,0,0,0,0,0,0,0,0,0,0,0,0,0,0,0,0,0,0,0,0,0,0,0,0,0,0,0,0,0,0,0,0,0,0,0,0,0,0,0,0,0,0,0,0,0,0,0,0,0,0,0,0,0,0,0,0,0,0,0,0,0,0,0,0,0,0,0,0,0,0,0,0,0,0,0,0,0,0,0,0,0,0,0,0,0,0,0,0,0,0,0,0,0,0,0,0,0,0,0,0,0,0,0,0,0,0,0,0,0,0,0,0,0,0,0,0,0,0,0,0,0,0,0,0,0,
0,0,0,0,0,0,0,0,0,0,0,0,0,0,0,0,0,0,0,0,0,0,0,0,0,0,0,0,0,0,0,0,0,0,0,0,0,0,0,0,0,0,0,0,0,0,0,0,0,0,0,0,0,0,0,0,0,0,0,0,0,0,0,0,0,0,0,0,0,0,0,0,0,0,0,0,0,0,0,0,0,0,0,0,0,0,0,0,0,0,0,0,0,0,0,0,0,0,0,0,0,0,0,0,0,0,0,0,0,0,0,0,0,0,0,0,0,0,0,0,0,0,0,0,0,0,0,0,
0,0,0,0,604,0,0,605,0,0,606,0,0,607,0,0,608,0,0,609,0,0,610,0,0,611,0,0,612,0,0,613,0,0,614,0,0,615,0,0,616,0,0,617,0,0,618,0,0,619,0,0,620,0,0,621,0,0,622,0,0,623,0,0,624,0,0,625,0,0,626,0,0,627,0,0,628,0,0,629,0,0,630,0,0,631,0,0,632,0,0,633,0,0,634,0,0,635,0,0,636,0,0,637,0,0,638,0,0,639,0,0,640,0,0,641,0,0,642,0,0,643,0,0,0,0,0,0,
0,0,0,0,0,0,0,0,0,0,0,0,0,0,0,0,0,0,0,0,0,0,0,0,0,0,0,0,0,0,0,0,0,0,0,0,0,0,0,0,0,0,0,0,0,0,0,0,0,0,0,0,0,0,0,0,0,0,0,0,0,0,0,0,0,0,0,0,0,0,0,0,0,0,0,0,0,0,0,0,0,0,0,0,0,0,0,0,0,0,0,0,0,0,0,0,0,0,0,0,0,0,0,0,0,0,0,0,0,0,0,0,0,0,0,0,0,0,0,0,0,0,0,0,0,0,0,0,
0,0,0,0,0,0,0,0,0,0,0,0,0,0,0,0,0,0,0,0,0,0,0,0,0,0,0,0,0,0,0,0,0,0,0,0,0,0,0,0,0,0,0,0,0,0,0,0,0,0,0,0,0,0,0,0,0,0,0,0,0,0,0,0,0,0,0,0,0,0,0,0,0,0,0,0,0,0,0,0,0,0,0,0,0,0,0,0,0,0,0,0,0,0,0,0,0,0,0,0,0,0,0,0,0,0,0,0,0,0,0,0,0,0,0,0,0,0,0,0,0,0,0,0,0,0,0,0,
0,0,0,0,644,0,0,645,0,0,646,0,0,647,0,0,648,0,0,649,0,0,650,0,0,651,0,0,652,0,0,653,0,0,654,0,0,655,0,0,656,0,0,657,0,0,658,0,0,659,0,0,660,0,0,661,0,0,662,0,0,663,0,0,664,0,0,665,0,0,666,0,0,667,0,0,668,0,0,669,0,0,670,0,0,671,0,0,672,0,0,673,0,0,674,0,0,675,0,0,676,0,0,677,0,0,678,0,0,679,0,0,680,0,0,681,0,0,682,0,0,683,0,0,0,0,0,0,
0,0,0,0,0,0,0,0,0,0,0,0,0,0,0,0,0,0,0,0,0,0,0,0,0,0,0,0,0,0,0,0,0,0,0,0,0,0,0,0,0,0,0,0,0,0,0,0,0,0,0,0,0,0,0,0,0,0,0,0,0,0,0,0,0,0,0,0,0,0,0,0,0,0,0,0,0,0,0,0,0,0,0,0,0,0,0,0,0,0,0,0,0,0,0,0,0,0,0,0,0,0,0,0,0,0,0,0,0,0,0,0,0,0,0,0,0,0,0,0,0,0,0,0,0,0,0,0,
0,0,0,0,0,0,0,0,0,0,0,0,0,0,0,0,0,0,0,0,0,0,0,0,0,0,0,0,0,0,0,0,0,0,0,0,0,0,0,0,0,0,0,0,0,0,0,0,0,0,0,0,0,0,0,0,0,0,0,0,0,0,0,0,0,0,0,0,0,0,0,0,0,0,0,0,0,0,0,0,0,0,0,0,0,0,0,0,0,0,0,0,0,0,0,0,0,0,0,0,0,0,0,0,0,0,0,0,0,0,0,0,0,0,0,0,0,0,0,0,0,0,0,0,0,0,0,0,
0,0,0,0,684,0,0,685,0,0,686,0,0,687,0,0,688,0,0,689,0,0,690,0,0,691,0,0,692,0,0,693,0,0,694,0,0,695,0,0,696,0,0,697,0,0,698,0,0,699,0,0,700,0,0,701,0,0,702,0,0,703,0,0,704,0,0,705,0,0,706,0,0,707,0,0,708,0,0,709,0,0,710,0,0,711,0,0,712,0,0,713,0,0,714,0,0,715,0,0,716,0,0,717,0,0,718,0,0,719,0,0,720,0,0,721,0,0,722,0,0,723,0,0,0,0,0,0,
0,0,0,0,0,0,0,0,0,0,0,0,0,0,0,0,0,0,0,0,0,0,0,0,0,0,0,0,0,0,0,0,0,0,0,0,0,0,0,0,0,0,0,0,0,0,0,0,0,0,0,0,0,0,0,0,0,0,0,0,0,0,0,0,0,0,0,0,0,0,0,0,0,0,0,0,0,0,0,0,0,0,0,0,0,0,0,0,0,0,0,0,0,0,0,0,0,0,0,0,0,0,0,0,0,0,0,0,0,0,0,0,0,0,0,0,0,0,0,0,0,0,0,0,0,0,0,0,
0,0,0,0,0,0,0,0,0,0,0,0,0,0,0,0,0,0,0,0,0,0,0,0,0,0,0,0,0,0,0,0,0,0,0,0,0,0,0,0,0,0,0,0,0,0,0,0,0,0,0,0,0,0,0,0,0,0,0,0,0,0,0,0,0,0,0,0,0,0,0,0,0,0,0,0,0,0,0,0,0,0,0,0,0,0,0,0,0,0,0,0,0,0,0,0,0,0,0,0,0,0,0,0,0,0,0,0,0,0,0,0,0,0,0,0,0,0,0,0,0,0,0,0,0,0,0,0,
0,0,0,0,724,0,0,725,0,0,726,0,0,727,0,0,728,0,0,729,0,0,730,0,0,731,0,0,732,0,0,733,0,0,734,0,0,735,0,0,736,0,0,737,0,0,738,0,0,739,0,0,740,0,0,741,0,0,742,0,0,743,0,0,744,0,0,745,0,0,746,0,0,747,0,0,748,0,0,749,0,0,750,0,0,751,0,0,752,0,0,753,0,0,754,0,0,755,0,0,756,0,0,757,0,0,758,0,0,759,0,0,760,0,0,761,0,0,762,0,0,763,0,0,0,0,0,0,
0,0,0,0,0,0,0,0,0,0,0,0,0,0,0,0,0,0,0,0,0,0,0,0,0,0,0,0,0,0,0,0,0,0,0,0,0,0,0,0,0,0,0,0,0,0,0,0,0,0,0,0,0,0,0,0,0,0,0,0,0,0,0,0,0,0,0,0,0,0,0,0,0,0,0,0,0,0,0,0,0,0,0,0,0,0,0,0,0,0,0,0,0,0,0,0,0,0,0,0,0,0,0,0,0,0,0,0,0,0,0,0,0,0,0,0,0,0,0,0,0,0,0,0,0,0,0,0,
0,0,0,0,0,0,0,0,0,0,0,0,0,0,0,0,0,0,0,0,0,0,0,0,0,0,0,0,0,0,0,0,0,0,0,0,0,0,0,0,0,0,0,0,0,0,0,0,0,0,0,0,0,0,0,0,0,0,0,0,0,0,0,0,0,0,0,0,0,0,0,0,0,0,0,0,0,0,0,0,0,0,0,0,0,0,0,0,0,0,0,0,0,0,0,0,0,0,0,0,0,0,0,0,0,0,0,0,0,0,0,0,0,0,0,0,0,0,0,0,0,0,0,0,0,0,0,0,
0,0,0,0,764,0,0,765,0,0,766,0,0,767,0,0,768,0,0,769,0,0,770,0,0,771,0,0,772,0,0,773,0,0,774,0,0,775,0,0,776,0,0,777,0,0,778,0,0,779,0,0,780,0,0,781,0,0,782,0,0,783,0,0,784,0,0,785,0,0,786,0,0,787,0,0,788,0,0,789,0,0,790,0,0,791,0,0,792,0,0,793,0,0,794,0,0,795,0,0,796,0,0,797,0,0,798,0,0,799,0,0,800,0,0,801,0,0,802,0,0,803,0,0,0,0,0,0,
0,0,0,0,0,0,0,0,0,0,0,0,0,0,0,0,0,0,0,0,0,0,0,0,0,0,0,0,0,0,0,0,0,0,0,0,0,0,0,0,0,0,0,0,0,0,0,0,0,0,0,0,0,0,0,0,0,0,0,0,0,0,0,0,0,0,0,0,0,0,0,0,0,0,0,0,0,0,0,0,0,0,0,0,0,0,0,0,0,0,0,0,0,0,0,0,0,0,0,0,0,0,0,0,0,0,0,0,0,0,0,0,0,0,0,0,0,0,0,0,0,0,0,0,0,0,0,0,
0,0,0,0,0,0,0,0,0,0,0,0,0,0,0,0,0,0,0,0,0,0,0,0,0,0,0,0,0,0,0,0,0,0,0,0,0,0,0,0,0,0,0,0,0,0,0,0,0,0,0,0,0,0,0,0,0,0,0,0,0,0,0,0,0,0,0,0,0,0,0,0,0,0,0,0,0,0,0,0,0,0,0,0,0,0,0,0,0,0,0,0,0,0,0,0,0,0,0,0,0,0,0,0,0,0,0,0,0,0,0,0,0,0,0,0,0,0,0,0,0,0,0,0,0,0,0,0,
0,0,0,0,804,0,0,805,0,0,806,0,0,807,0,0,808,0,0,809,0,0,810,0,0,811,0,0,812,0,0,813,0,0,814,0,0,815,0,0,816,0,0,817,0,0,818,0,0,819,0,0,820,0,0,821,0,0,822,0,0,823,0,0,824,0,0,825,0,0,826,0,0,827,0,0,828,0,0,829,0,0,830,0,0,831,0,0,832,0,0,833,0,0,834,0,0,835,0,0,836,0,0,837,0,0,838,0,0,839,0,0,840,0,0,841,0,0,842,0,0,843,0,0,0,0,0,0,
0,0,0,0,0,0,0,0,0,0,0,0,0,0,0,0,0,0,0,0,0,0,0,0,0,0,0,0,0,0,0,0,0,0,0,0,0,0,0,0,0,0,0,0,0,0,0,0,0,0,0,0,0,0,0,0,0,0,0,0,0,0,0,0,0,0,0,0,0,0,0,0,0,0,0,0,0,0,0,0,0,0,0,0,0,0,0,0,0,0,0,0,0,0,0,0,0,0,0,0,0,0,0,0,0,0,0,0,0,0,0,0,0,0,0,0,0,0,0,0,0,0,0,0,0,0,0,0,
0,0,0,0,0,0,0,0,0,0,0,0,0,0,0,0,0,0,0,0,0,0,0,0,0,0,0,0,0,0,0,0,0,0,0,0,0,0,0,0,0,0,0,0,0,0,0,0,0,0,0,0,0,0,0,0,0,0,0,0,0,0,0,0,0,0,0,0,0,0,0,0,0,0,0,0,0,0,0,0,0,0,0,0,0,0,0,0,0,0,0,0,0,0,0,0,0,0,0,0,0,0,0,0,0,0,0,0,0,0,0,0,0,0,0,0,0,0,0,0,0,0,0,0,0,0,0,0,
0,0,0,0,844,0,0,845,0,0,846,0,0,847,0,0,848,0,0,849,0,0,850,0,0,851,0,0,852,0,0,853,0,0,854,0,0,855,0,0,856,0,0,857,0,0,858,0,0,859,0,0,860,0,0,861,0,0,862,0,0,863,0,0,864,0,0,865,0,0,866,0,0,867,0,0,868,0,0,869,0,0,870,0,0,871,0,0,872,0,0,873,0,0,874,0,0,875,0,0,876,0,0,877,0,0,878,0,0,879,0,0,880,0,0,881,0,0,882,0,0,883,0,0,0,0,0,0,
0,0,0,0,0,0,0,0,0,0,0,0,0,0,0,0,0,0,0,0,0,0,0,0,0,0,0,0,0,0,0,0,0,0,0,0,0,0,0,0,0,0,0,0,0,0,0,0,0,0,0,0,0,0,0,0,0,0,0,0,0,0,0,0,0,0,0,0,0,0,0,0,0,0,0,0,0,0,0,0,0,0,0,0,0,0,0,0,0,0,0,0,0,0,0,0,0,0,0,0,0,0,0,0,0,0,0,0,0,0,0,0,0,0,0,0,0,0,0,0,0,0,0,0,0,0,0,0,
0,0,0,0,0,0,0,0,0,0,0,0,0,0,0,0,0,0,0,0,0,0,0,0,0,0,0,0,0,0,0,0,0,0,0,0,0,0,0,0,0,0,0,0,0,0,0,0,0,0,0,0,0,0,0,0,0,0,0,0,0,0,0,0,0,0,0,0,0,0,0,0,0,0,0,0,0,0,0,0,0,0,0,0,0,0,0,0,0,0,0,0,0,0,0,0,0,0,0,0,0,0,0,0,0,0,0,0,0,0,0,0,0,0,0,0,0,0,0,0,0,0,0,0,0,0,0,0,
0,0,0,0,884,0,0,885,0,0,886,0,0,887,0,0,888,0,0,889,0,0,890,0,0,891,0,0,892,0,0,893,0,0,894,0,0,895,0,0,896,0,0,897,0,0,898,0,0,899,0,0,900,0,0,901,0,0,902,0,0,903,0,0,904,0,0,905,0,0,906,0,0,907,0,0,908,0,0,909,0,0,910,0,0,911,0,0,912,0,0,913,0,0,914,0,0,915,0,0,916,0,0,917,0,0,918,0,0,919,0,0,920,0,0,921,0,0,922,0,0,923,0,0,0,0,0,0,
0,0,0,0,0,0,0,0,0,0,0,0,0,0,0,0,0,0,0,0,0,0,0,0,0,0,0,0,0,0,0,0,0,0,0,0,0,0,0,0,0,0,0,0,0,0,0,0,0,0,0,0,0,0,0,0,0,0,0,0,0,0,0,0,0,0,0,0,0,0,0,0,0,0,0,0,0,0,0,0,0,0,0,0,0,0,0,0,0,0,0,0,0,0,0,0,0,0,0,0,0,0,0,0,0,0,0,0,0,0,0,0,0,0,0,0,0,0,0,0,0,0,0,0,0,0,0,0,
0,0,0,0,0,0,0,0,0,0,0,0,0,0,0,0,0,0,0,0,0,0,0,0,0,0,0,0,0,0,0,0,0,0,0,0,0,0,0,0,0,0,0,0,0,0,0,0,0,0,0,0,0,0,0,0,0,0,0,0,0,0,0,0,0,0,0,0,0,0,0,0,0,0,0,0,0,0,0,0,0,0,0,0,0,0,0,0,0,0,0,0,0,0,0,0,0,0,0,0,0,0,0,0,0,0,0,0,0,0,0,0,0,0,0,0,0,0,0,0,0,0,0,0,0,0,0,0,
0,0,0,0,924,0,0,925,0,0,926,0,0,927,0,0,928,0,0,929,0,0,930,0,0,931,0,0,932,0,0,933,0,0,934,0,0,935,0,0,936,0,0,937,0,0,938,0,0,939,0,0,940,0,0,941,0,0,942,0,0,943,0,0,944,0,0,945,0,0,946,0,0,947,0,0,948,0,0,949,0,0,950,0,0,951,0,0,952,0,0,953,0,0,954,0,0,955,0,0,956,0,0,957,0,0,958,0,0,959,0,0,0,0,0,0,0,0,0,0,0,0,0,0,0,0,0,0,
0,0,0,0,0,0,0,0,0,0,0,0,0,0,0,0,0,0,0,0,0,0,0,0,0,0,0,0,0,0,0,0,0,0,0,0,0,0,0,0,0,0,0,0,0,0,0,0,0,0,0,0,0,0,0,0,0,0,0,0,0,0,0,0,0,0,0,0,0,0,0,0,0,0,0,0,0,0,0,0,0,0,0,0,0,0,0,0,0,0,0,0,0,0,0,0,0,0,0,0,0,0,0,0,0,0,0,0,0,0,0,0,0,0,0,0,0,0,0,0,0,0,0,0,0,0,0,0,
0,0,0,0,0,0,0,0,0,0,0,0,0,0,0,0,0,0,0,0,0,0,0,0,0,0,0,0,0,0,0,0,0,0,0,0,0,0,0,0,0,0,0,0,0,0,0,0,0,0,0,0,0,0,0,0,0,0,0,0,0,0,0,0,0,0,0,0,0,0,0,0,0,0,0,0,0,0,0,0,0,0,0,0,0,0,0,0,0,0,0,0,0,0,0,0,0,0,0,0,0,0,0,0,0,0,0,0,0,0,0,0,0,0,0,0,0,0,0,0,0,0,0,0,0,0,0,0,
0,0,0,0,0,0,0,0,0,0,0,0,0,0,0,0,0,0,0,0,0,0,0,0,0,0,0,0,0,0,0,0,0,0,0,0,0,0,0,0,0,0,0,0,0,0,0,0,0,0,0,0,0,0,0,0,0,0,0,0,0,0,0,0,0,0,0,0,0,0,0,0,0,0,0,0,0,0,0,0,0,0,0,0,0,0,0,0,0,0,0,0,0,0,0,0,0,0,0,0,0,0,0,0,0,0,0,0,0,0,0,0,0,0,0,0,0,0,0,0,0,0,0,0,0,0,0,0,
0,0,0,0,0,0,0,0,0,0,0,0,0,0,0,0,0,0,0,0,0,0,0,0,0,0,0,0,0,0,0,0,0,0,0,0,0,0,0,0,0,0,0,0,0,0,0,0,0,0,0,0,0,0,0,0,0,0,0,0,0,0,0,0,0,0,0,0,0,0,0,0,0,0,0,0,0,0,0,0,0,0,0,0,0,0,0,0,0,0,0,0,0,0,0,0,0,0,0,0,0,0,0,0,0,0,0,0,0,0,0,0,0,0,0,0,0,0,0,0,0,0,0,0,0,0,0,0,
0,0,0,0,0,0,0,0,0,0,0,0,0,0,0,0,0,0,0,0,0,0,0,0,0,0,0,0,0,0,0,0,0,0,0,0,0,0,0,0,0,0,0,0,0,0,0,0,0,0,0,0,0,0,0,0,0,0,0,0,0,0,0,0,0,0,0,0,0,0,0,0,0,0,0,0,0,0,0,0,0,0,0,0,0,0,0,0,0,0,0,0,0,0,0,0,0,0,0,0,0,0,0,0,0,0,0,0,0,0,0,0,0,0,0,0,0,0,0,0,0,0,0,0,0,0,0,0,
0,0,0,0,0,0,0,0,0,0,0,0,0,0,0,0,0,0,0,0,0,0,0,0,0,0,0,0,0,0,0,0,0,0,0,0,0,0,0,0,0,0,0,0,0,0,0,0,0,0,0,0,0,0,0,0,0,0,0,0,0,0,0,0,0,0,0,0,0,0,0,0,0,0,0,0,0,0,0,0,0,0,0,0,0,0,0,0,0,0,0,0,0,0,0,0,0,0,0,0,0,0,0,0,0,0,0,0,0,0,0,0,0,0,0,0,0,0,0,0,0,0,0,0,0,0,0,0,
0,0,0,0,0,0,0,0,0,0,0,0,0,0,0,0,0,0,0,0,0,0,0,0,0,0,0,0,0,0,0,0,0,0,0,0,0,0,0,0,0,0,0,0,0,0,0,0,0,0,0,0,0,0,0,0,0,0,0,0,0,0,0,0,0,0,0,0,0,0,0,0,0,0,0,0,0,0,0,0,0,0,0,0,0,0,0,0,0,0,0,0,0,0,0,0,0,0,0,0,0,0,0,0,0,0,0,0,0,0,0,0,0,0,0,0,0,0,0,0,0,0,0,0,0,0,0,0,
0,0,0,0,0,0,0,0,0,0,0,0,0,0,0,0,0,0,0,0,0,0,0,0,0,0,0,0,0,0,0,0,0,0,0,0,0,0,0,0,0,0,0,0,0,0,0,0,0,0,0,0,0,0,0,0,0,0,0,0,0,0,0,0,0,0,0,0,0,0,0,0,0,0,0,0,0,0,0,0,0,0,0,0,0,0,0,0,0,0,0,0,0,0,0,0,0,0,0,0,0,0,0,0,0,0,0,0,0,0,0,0,0,0,0,0,0,0,0,0,0,0,0,0,0,0,0,0,
0,0,0,0,960,0,0,961,0,0,962,0,0,963,0,0,964,0,0,965,0,0,966,0,0,967,0,0,968,0,0,969,0,0,970,0,0,971,0,0,972,0,0,973,0,0,974,0,0,975,0,0,976,0,0,977,0,0,978,0,0,979,0,0,980,0,0,981,0,0,982,0,0,983,0,0,984,0,0,985,0,0,986,0,0,987,0,0,988,0,0,989,0,0,990,0,0,991,0,0,992,0,0,993,0,0,994,0,0,995,0,0,996,0,0,997,0,0,998,0,0,999,0,0,0,0,0,0,
0,0,0,0,0,0,0,0,0,0,0,0,0,0,0,0,0,0,0,0,0,0,0,0,0,0,0,0,0,0,0,0,0,0,0,0,0,0,0,0,0,0,0,0,0,0,0,0,0,0,0,0,0,0,0,0,0,0,0,0,0,0,0,0,0,0,0,0,0,0,0,0,0,0,0,0,0,0,0,0,0,0,0,0,0,0,0,0,0,0,0,0,0,0,0,0,0,0,0,0,0,0,0,0,0,0,0,0,0,0,0,0,0,0,0,0,0,0,0,0,0,0,0,0,0,0,0,0,
0,0,0,0,0,0,0,0,0,0,0,0,0,0,0,0,0,0,0,0,0,0,0,0,0,0,0,0,0,0,0,0,0,0,0,0,0,0,0,0,0,0,0,0,0,0,0,0,0,0,0,0,0,0,0,0,0,0,0,0,0,0,0,0,0,0,0,0,0,0,0,0,0,0,0,0,0,0,0,0,0,0,0,0,0,0,0,0,0,0,0,0,0,0,0,0,0,0,0,0,0,0,0,0,0,0,0,0,0,0,0,0,0,0,0,0,0,0,0,0,0,0,0,0,0,0,0,0,
0,0,0,0,1000,0,0,1001,0,0,1002,0,0,1003,0,0,1004,0,0,1005,0,0,1006,0,0,1007,0,0,1008,0,0,1009,0,0,1010,0,0,1011,0,0,1012,0,0,1013,0,0,1014,0,0,1015,0,0,1016,0,0,1017,0,0,1018,0,0,1019,0,0,1020,0,0,1021,0,0,1022,0,0,1023,0,0,1024,0,0,1025,0,0,1026,0,0,1027,0,0,1028,0,0,1029,0,0,1030,0,0,1031,0,0,1032,0,0,1033,0,0,1034,0,0,1035,0,0,1036,0,0,1037,0,0,1038,0,0,1039,0,0,0,0,0,0,
0,0,0,0,0,0,0,0,0,0,0,0,0,0,0,0,0,0,0,0,0,0,0,0,0,0,0,0,0,0,0,0,0,0,0,0,0,0,0,0,0,0,0,0,0,0,0,0,0,0,0,0,0,0,0,0,0,0,0,0,0,0,0,0,0,0,0,0,0,0,0,0,0,0,0,0,0,0,0,0,0,0,0,0,0,0,0,0,0,0,0,0,0,0,0,0,0,0,0,0,0,0,0,0,0,0,0,0,0,0,0,0,0,0,0,0,0,0,0,0,0,0,0,0,0,0,0,0,
0,0,0,0,0,0,0,0,0,0,0,0,0,0,0,0,0,0,0,0,0,0,0,0,0,0,0,0,0,0,0,0,0,0,0,0,0,0,0,0,0,0,0,0,0,0,0,0,0,0,0,0,0,0,0,0,0,0,0,0,0,0,0,0,0,0,0,0,0,0,0,0,0,0,0,0,0,0,0,0,0,0,0,0,0,0,0,0,0,0,0,0,0,0,0,0,0,0,0,0,0,0,0,0,0,0,0,0,0,0,0,0,0,0,0,0,0,0,0,0,0,0,0,0,0,0,0,0,
0,0,0,0,1040,0,0,1041,0,0,1042,0,0,1043,0,0,1044,0,0,1045,0,0,1046,0,0,1047,0,0,1048,0,0,1049,0,0,1050,0,0,1051,0,0,1052,0,0,1053,0,0,1054,0,0,1055,0,0,1056,0,0,1057,0,0,1058,0,0,1059,0,0,1060,0,0,1061,0,0,1062,0,0,1063,0,0,1064,0,0,1065,0,0,1066,0,0,1067,0,0,1068,0,0,1069,0,0,1070,0,0,1071,0,0,1072,0,0,1073,0,0,1074,0,0,1075,0,0,1076,0,0,1077,0,0,1078,0,0,1079,0,0,0,0,0,0,
0,0,0,0,0,0,0,0,0,0,0,0,0,0,0,0,0,0,0,0,0,0,0,0,0,0,0,0,0,0,0,0,0,0,0,0,0,0,0,0,0,0,0,0,0,0,0,0,0,0,0,0,0,0,0,0,0,0,0,0,0,0,0,0,0,0,0,0,0,0,0,0,0,0,0,0,0,0,0,0,0,0,0,0,0,0,0,0,0,0,0,0,0,0,0,0,0,0,0,0,0,0,0,0,0,0,0,0,0,0,0,0,0,0,0,0,0,0,0,0,0,0,0,0,0,0,0,0,
0,0,0,0,0,0,0,0,0,0,0,0,0,0,0,0,0,0,0,0,0,0,0,0,0,0,0,0,0,0,0,0,0,0,0,0,0,0,0,0,0,0,0,0,0,0,0,0,0,0,0,0,0,0,0,0,0,0,0,0,0,0,0,0,0,0,0,0,0,0,0,0,0,0,0,0,0,0,0,0,0,0,0,0,0,0,0,0,0,0,0,0,0,0,0,0,0,0,0,0,0,0,0,0,0,0,0,0,0,0,0,0,0,0,0,0,0,0,0,0,0,0,0,0,0,0,0,0,
0,0,0,0,1080,0,0,1081,0,0,1082,0,0,1083,0,0,1084,0,0,1085,0,0,1086,0,0,1087,0,0,1088,0,0,1089,0,0,1090,0,0,1091,0,0,1092,0,0,1093,0,0,1094,0,0,1095,0,0,1096,0,0,1097,0,0,1098,0,0,1099,0,0,1100,0,0,1101,0,0,1102,0,0,1103,0,0,1104,0,0,1105,0,0,1106,0,0,1107,0,0,1108,0,0,1109,0,0,1110,0,0,1111,0,0,1112,0,0,1113,0,0,1114,0,0,1115,0,0,1116,0,0,1117,0,0,1118,0,0,1119,0,0,0,0,0,0,
0,0,0,0,0,0,0,0,0,0,0,0,0,0,0,0,0,0,0,0,0,0,0,0,0,0,0,0,0,0,0,0,0,0,0,0,0,0,0,0,0,0,0,0,0,0,0,0,0,0,0,0,0,0,0,0,0,0,0,0,0,0,0,0,0,0,0,0,0,0,0,0,0,0,0,0,0,0,0,0,0,0,0,0,0,0,0,0,0,0,0,0,0,0,0,0,0,0,0,0,0,0,0,0,0,0,0,0,0,0,0,0,0,0,0,0,0,0,0,0,0,0,0,0,0,0,0,0,
0,0,0,0,0,0,0,0,0,0,0,0,0,0,0,0,0,0,0,0,0,0,0,0,0,0,0,0,0,0,0,0,0,0,0,0,0,0,0,0,0,0,0,0,0,0,0,0,0,0,0,0,0,0,0,0,0,0,0,0,0,0,0,0,0,0,0,0,0,0,0,0,0,0,0,0,0,0,0,0,0,0,0,0,0,0,0,0,0,0,0,0,0,0,0,0,0,0,0,0,0,0,0,0,0,0,0,0,0,0,0,0,0,0,0,0,0,0,0,0,0,0,0,0,0,0,0,0,
0,0,0,0,1120,0,0,1121,0,0,1122,0,0,1123,0,0,1124,0,0,1125,0,0,1126,0,0,1127,0,0,1128,0,0,1129,0,0,1130,0,0,1131,0,0,1132,0,0,1133,0,0,1134,0,0,1135,0,0,1136,0,0,1137,0,0,1138,0,0,1139,0,0,1140,0,0,1141,0,0,1142,0,0,1143,0,0,1144,0,0,1145,0,0,1146,0,0,1147,0,0,1148,0,0,1149,0,0,1150,0,0,1151,0,0,1152,0,0,1153,0,0,1154,0,0,1155,0,0,1156,0,0,1157,0,0,1158,0,0,1159,0,0,0,0,0,0,
0,0,0,0,0,0,0,0,0,0,0,0,0,0,0,0,0,0,0,0,0,0,0,0,0,0,0,0,0,0,0,0,0,0,0,0,0,0,0,0,0,0,0,0,0,0,0,0,0,0,0,0,0,0,0,0,0,0,0,0,0,0,0,0,0,0,0,0,0,0,0,0,0,0,0,0,0,0,0,0,0,0,0,0,0,0,0,0,0,0,0,0,0,0,0,0,0,0,0,0,0,0,0,0,0,0,0,0,0,0,0,0,0,0,0,0,0,0,0,0,0,0,0,0,0,0,0,0,
0,0,0,0,0,0,0,0,0,0,0,0,0,0,0,0,0,0,0,0,0,0,0,0,0,0,0,0,0,0,0,0,0,0,0,0,0,0,0,0,0,0,0,0,0,0,0,0,0,0,0,0,0,0,0,0,0,0,0,0,0,0,0,0,0,0,0,0,0,0,0,0,0,0,0,0,0,0,0,0,0,0,0,0,0,0,0,0,0,0,0,0,0,0,0,0,0,0,0,0,0,0,0,0,0,0,0,0,0,0,0,0,0,0,0,0,0,0,0,0,0,0,0,0,0,0,0,0,
0,0,0,0,1160,0,0,1161,0,0,1162,0,0,1163,0,0,1164,0,0,1165,0,0,1166,0,0,1167,0,0,1168,0,0,1169,0,0,1170,0,0,1171,0,0,1172,0,0,1173,0,0,1174,0,0,1175,0,0,1176,0,0,1177,0,0,1178,0,0,1179,0,0,1180,0,0,1181,0,0,1182,0,0,1183,0,0,1184,0,0,1185,0,0,1186,0,0,1187,0,0,0,0,0,0,0,0,0,0,0,0,0,0,0,0,0,0,0,0,0,0,0,0,0,0,0,0,0,0,0,0,0,0,0,0,0,0,0,0,0,0,
0,0,0,0,0,0,0,0,0,0,0,0,0,0,0,0,0,0,0,0,0,0,0,0,0,0,0,0,0,0,0,0,0,0,0,0,0,0,0,0,0,0,0,0,0,0,0,0,0,0,0,0,0,0,0,0,0,0,0,0,0,0,0,0,0,0,0,0,0,0,0,0,0,0,0,0,0,0,0,0,0,0,0,0,0,0,0,0,0,0,0,0,0,0,0,0,0,0,0,0,0,0,0,0,0,0,0,0,0,0,0,0,0,0,0,0,0,0,0,0,0,0,0,0,0,0,0,0,
0,0,0,0,0,0,0,0,0,0,0,0,0,0,0,0,0,0,0,0,0,0,0,0,0,0,0,0,0,0,0,0,0,0,0,0,0,0,0,0,0,0,0,0,0,0,0,0,0,0,0,0,0,0,0,0,0,0,0,0,0,0,0,0,0,0,0,0,0,0,0,0,0,0,0,0,0,0,0,0,0,0,0,0,0,0,0,0,0,0,0,0,0,0,0,0,0,0,0,0,0,0,0,0,0,0,0,0,0,0,0,0,0,0,0,0,0,0,0,0,0,0,0,0,0,0,0,0,
0,0,0,0,0,0,0,0,0,0,0,0,0,0,0,0,0,0,0,0,0,0,0,0,0,0,0,0,0,0,0,0,0,0,0,0,0,0,0,0,0,0,0,0,0,0,0,0,0,0,0,0,0,0,0,0,0,0,0,0,0,0,0,0,0,0,0,0,0,0,0,0,0,0,0,0,0,0,0,0,0,0,0,0,0,0,0,0,0,0,0,0,0,0,0,0,0,0,0,0,0,0,0,0,0,0,0,0,0,0,0,0,0,0,0,0,0,0,0,0,0,0,0,0,0,0,0,0,
0,0,0,0,0,0,0,0,0,0,0,0,0,0,0,0,0,0,0,0,0,0,0,0,0,0,0,0,0,0,0,0,0,0,0,0,0,0,0,0,0,0,0,0,0,0,0,0,0,0,0,0,0,0,0,0,0,0,0,0,0,0,0,0,0,0,0,0,0,0,0,0,0,0,0,0,0,0,0,0,0,0,0,0,0,0,0,0,0,0,0,0,0,0,0,0,0,0,0,0,0,0,0,0,0,0,0,0,0,0,0,0,0,0,0,0,0,0,0,0,0,0,0,0,0,0,0,0,
0,0,0,0,0,0,0,0,0,0,0,0,0,0,0,0,0,0,0,0,0,0,0,0,0,0,0,0,0,0,0,0,0,0,0,0,0,0,0,0,0,0,0,0,0,0,0,0,0,0,0,0,0,0,0,0,0,0,0,0,0,0,0,0,0,0,0,0,0,0,0,0,0,0,0,0,0,0,0,0,0,0,0,0,0,0,0,0,0,0,0,0,0,0,0,0,0,0,0,0,0,0,0,0,0,0,0,0,0,0,0,0,0,0,0,0,0,0,0,0,0,0,0,0,0,0,0,0,
0,0,0,0,0,0,0,0,0,0,0,0,0,0,0,0,0,0,0,0,0,0,0,0,0,0,0,0,0,0,0,0,0,0,0,0,0,0,0,0,0,0,0,0,0,0,0,0,0,0,0,0,0,0,0,0,0,0,0,0,0,0,0,0,0,0,0,0,0,0,0,0,0,0,0,0,0,0,0,0,0,0,0,0,0,0,0,0,0,0,0,0,0,0,0,0,0,0,0,0,0,0,0,0,0,0,0,0,0,0,0,0,0,0,0,0,0,0,0,0,0,0,0,0,0,0,0,0,
0,0,0,0,0,0,0,0,0,0,0,0,0,0,0,0,0,0,0,0,0,0,0,0,0,0,0,0,0,0,0,0,0,0,0,0,0,0,0,0,0,0,0,0,0,0,0,0,0,0,0,0,0,0,0,0,0,0,0,0,0,0,0,0,0,0,0,0,0,0,0,0,0,0,0,0,0,0,0,0,0,0,0,0,0,0,0,0,0,0,0,0,0,0,0,0,0,0,0,0,0,0,0,0,0,0,0,0,0,0,0,0,0,0,0,0,0,0,0,0,0,0,0,0,0,0,0,0,
0,0,0,0,0,0,0,0,0,0,0,0,0,0,0,0,0,0,0,0,0,0,0,0,0,0,0,0,0,0,0,0,0,0,0,0,0,0,0,0,0,0,0,0,0,0,0,0,0,0,0,0,0,0,0,0,0,0,0,0,0,0,0,0,0,0,0,0,0,0,0,0,0,0,0,0,0,0,0,0,0,0,0,0,0,0,0,0,0,0,0,0,0,0,0,0,0,0,0,0,0,0,0,0,0,0,0,0,0,0,0,0,0,0,0,0,0,0,0,0,0,0,0,0,0,0,0,0,
0,0,0,0,1240,0,0,1241,0,0,1242,0,0,1243,0,0,1244,0,0,1245,0,0,1246,0,0,1247,0,0,1248,0,0,1249,0,0,1250,0,0,1251,0,0,1252,0,0,1253,0,0,1254,0,0,1255,0,0,1256,0,0,1257,0,0,1258,0,0,1259,0,0,1260,0,0,1261,0,0,1262,0,0,1263,0,0,1264,0,0,1265,0,0,1266,0,0,1267,0,0,1268,0,0,1269,0,0,1270,0,0,1271,0,0,1272,0,0,1273,0,0,1274,0,0,1275,0,0,1276,0,0,1277,0,0,1278,0,0,1279,0,0,0,0,0,0,
0,0,0,0,0,0,0,0,0,0,0,0,0,0,0,0,0,0,0,0,0,0,0,0,0,0,0,0,0,0,0,0,0,0,0,0,0,0,0,0,0,0,0,0,0,0,0,0,0,0,0,0,0,0,0,0,0,0,0,0,0,0,0,0,0,0,0,0,0,0,0,0,0,0,0,0,0,0,0,0,0,0,0,0,0,0,0,0,0,0,0,0,0,0,0,0,0,0,0,0,0,0,0,0,0,0,0,0,0,0,0,0,0,0,0,0,0,0,0,0,0,0,0,0,0,0,0,0,
0,0,0,0,0,0,0,0,0,0,0,0,0,0,0,0,0,0,0,0,0,0,0,0,0,0,0,0,0,0,0,0,0,0,0,0,0,0,0,0,0,0,0,0,0,0,0,0,0,0,0,0,0,0,0,0,0,0,0,0,0,0,0,0,0,0,0,0,0,0,0,0,0,0,0,0,0,0,0,0,0,0,0,0,0,0,0,0,0,0,0,0,0,0,0,0,0,0,0,0,0,0,0,0,0,0,0,0,0,0,0,0,0,0,0,0,0,0,0,0,0,0,0,0,0,0,0,0,
0,0,0,0,1280,0,0,1281,0,0,1282,0,0,1283,0,0,1284,0,0,1285,0,0,1286,0,0,1287,0,0,1288,0,0,1289,0,0,1290,0,0,1291,0,0,1292,0,0,1293,0,0,1294,0,0,1295,0,0,1296,0,0,1297,0,0,1298,0,0,1299,0,0,1300,0,0,1301,0,0,1302,0,0,1303,0,0,1304,0,0,1305,0,0,1306,0,0,1307,0,0,1308,0,0,1309,0,0,1310,0,0,1311,0,0,1312,0,0,1313,0,0,1314,0,0,1315,0,0,1316,0,0,1317,0,0,1318,0,0,1319,0,0,0,0,0,0,
0,0,0,0,0,0,0,0,0,0,0,0,0,0,0,0,0,0,0,0,0,0,0,0,0,0,0,0,0,0,0,0,0,0,0,0,0,0,0,0,0,0,0,0,0,0,0,0,0,0,0,0,0,0,0,0,0,0,0,0,0,0,0,0,0,0,0,0,0,0,0,0,0,0,0,0,0,0,0,0,0,0,0,0,0,0,0,0,0,0,0,0,0,0,0,0,0,0,0,0,0,0,0,0,0,0,0,0,0,0,0,0,0,0,0,0,0,0,0,0,0,0,0,0,0,0,0,0,
0,0,0,0,0,0,0,0,0,0,0,0,0,0,0,0,0,0,0,0,0,0,0,0,0,0,0,0,0,0,0,0,0,0,0,0,0,0,0,0,0,0,0,0,0,0,0,0,0,0,0,0,0,0,0,0,0,0,0,0,0,0,0,0,0,0,0,0,0,0,0,0,0,0,0,0,0,0,0,0,0,0,0,0,0,0,0,0,0,0,0,0,0,0,0,0,0,0,0,0,0,0,0,0,0,0,0,0,0,0,0,0,0,0,0,0,0,0,0,0,0,0,0,0,0,0,0,0,
0,0,0,0,1320,0,0,1321,0,0,1322,0,0,1323,0,0,1324,0,0,1325,0,0,1326,0,0,1327,0,0,0,0,0,0,0,0,0,0,0,0,0,0,0,0,0,0,0,0,0,0,0,0,0,0,0,0,0,0,0,0,0,0,0,0,0,0,0,0,0,0,0,0,0,0,0,0,0,0,0,0,0,0,0,0,0,0,0,0,0,0,0,0,0,0,0,0,0,0,0,0,0,0,0,0,0,0,0,0,0,0,0,0,0,0,0,0,0,0,0,0,0,0,0,0,0,0,0,0,0,0,
0,0,0,0,0,0,0,0,0,0,0,0,0,0,0,0,0,0,0,0,0,0,0,0,0,0,0,0,0,0,0,0,0,0,0,0,0,0,0,0,0,0,0,0,0,0,0,0,0,0,0,0,0,0,0,0,0,0,0,0,0,0,0,0,0,0,0,0,0,0,0,0,0,0,0,0,0,0,0,0,0,0,0,0,0,0,0,0,0,0,0,0,0,0,0,0,0,0,0,0,0,0,0,0,0,0,0,0,0,0,0,0,0,0,0,0,0,0,0,0,0,0,0,0,0,0,0,0,
0,0,0,0,0,0,0,0,0,0,0,0,0,0,0,0,0,0,0,0,0,0,0,0,0,0,0,0,0,0,0,0,0,0,0,0,0,0,0,0,0,0,0,0,0,0,0,0,0,0,0,0,0,0,0,0,0,0,0,0,0,0,0,0,0,0,0,0,0,0,0,0,0,0,0,0,0,0,0,0,0,0,0,0,0,0,0,0,0,0,0,0,0,0,0,0,0,0,0,0,0,0,0,0,0,0,0,0,0,0,0,0,0,0,0,0,0,0,0,0,0,0,0,0,0,0,0,0,
0,0,0,0,0,0,0,0,0,0,0,0,0,0,0,0,0,0,0,0,0,0,0,0,0,0,0,0,0,0,0,0,0,0,0,0,0,0,0,0,0,0,0,0,0,0,0,0,0,0,0,0,0,0,0,0,0,0,0,0,0,0,0,0,0,0,0,0,0,0,0,0,0,0,0,0,0,0,0,0,0,0,0,0,0,0,0,0,0,0,0,0,0,0,0,0,0,0,0,0,0,0,0,0,0,0,0,0,0,0,0,0,0,0,0,0,0,0,0,0,0,0,0,0,0,0,0,0,
0,0,0,0,0,0,0,0,0,0,0,0,0,0,0,0,0,0,0,0,0,0,0,0,0,0,0,0,0,0,0,0,0,0,0,0,0,0,0,0,0,0,0,0,0,0,0,0,0,0,0,0,0,0,0,0,0,0,0,0,0,0,0,0,0,0,0,0,0,0,0,0,0,0,0,0,0,0,0,0,0,0,0,0,0,0,0,0,0,0,0,0,0,0,0,0,0,0,0,0,0,0,0,0,0,0,0,0,0,0,0,0,0,0,0,0,0,0,0,0,0,0,0,0,0,0,0,0,
0,0,0,0,0,0,0,0,0,0,0,0,0,0,0,0,0,0,0,0,0,0,0,0,0,0,0,0,0,0,0,0,0,0,0,0,0,0,0,0,0,0,0,0,0,0,0,0,0,0,0,0,0,0,0,0,0,0,0,0,0,0,0,0,0,0,0,0,0,0,0,0,0,0,0,0,0,0,0,0,0,0,0,0,0,0,0,0,0,0,0,0,0,0,0,0,0,0,0,0,0,0,0,0,0,0,0,0,0,0,0,0,0,0,0,0,0,0,0,0,0,0,0,0,0,0,0,0,
0,0,0,0,0,0,0,0,0,0,0,0,0,0,0,0,0,0,0,0,0,0,0,0,0,0,0,0,0,0,0,0,0,0,0,0,0,0,0,0,0,0,0,0,0,0,0,0,0,0,0,0,0,0,0,0,0,0,0,0,0,0,0,0,0,0,0,0,0,0,0,0,0,0,0,0,0,0,0,0,0,0,0,0,0,0,0,0,0,0,0,0,0,0,0,0,0,0,0,0,0,0,0,0,0,0,0,0,0,0,0,0,0,0,0,0,0,0,0,0,0,0,0,0,0,0,0,0,
0,0,0,0,0,0,0,0,0,0,0,0,0,0,0,0,0,0,0,0,0,0,0,0,0,0,0,0,0,0,0,0,0,0,0,0,0,0,0,0,0,0,0,0,0,0,0,0,0,0,0,0,0,0,0,0,0,0,0,0,0,0,0,0,0,0,0,0,0,0,0,0,0,0,0,0,0,0,0,0,0,0,0,0,0,0,0,0,0,0,0,0,0,0,0,0,0,0,0,0,0,0,0,0,0,0,0,0,0,0,0,0,0,0,0,0,0,0,0,0,0,0,0,0,0,0,0,0,
0,0,0,0,0,0,0,0,0,0,0,0,0,0,0,0,0,0,0,0,0,0,0,0,0,0,0,0,0,0,0,0,0,0,0,0,0,0,0,0,0,0,0,0,0,0,0,0,0,0,0,0,0,0,0,0,0,0,0,0,0,0,0,0,0,0,0,0,0,0,0,0,0,0,0,0,0,0,0,0,0,0,0,0,0,0,0,0,0,0,0,0,0,0,0,0,0,0,0,0,0,0,0,0,0,0,0,0,0,0,0,0,0,0,0,0,0,0,0,0,0,0,0,0,0,0,0,0,
0,0,0,0,1330,0,0,1331,0,0,0,0,0,0,0,0,0,0,0,0,0,0,0,0,0,0,0,0,0,0,0,0,0,0,0,0,0,0,0,0,0,0,0,0,0,0,0,0,0,0,0,0,0,0,0,0,0,0,0,0,0,0,0,0,0,0,0,0,0,0,0,0,0,0,0,0,0,0,0,0,0,0,0,0,0,0,0,0,0,0,0,0,0,0,0,0,0,0,0,0,0,0,0,0,0,0,0,0,0,0,0,0,0,0,0,0,0,0,0,0,0,0,0,0,0,0,0,0,
0,0,0,0,0,0,0,0,0,0,0,0,0,0,0,0,0,0,0,0,0,0,0,0,0,0,0,0,0,0,0,0,0,0,0,0,0,0,0,0,0,0,0,0,0,0,0,0,0,0,0,0,0,0,0,0,0,0,0,0,0,0,0,0,0,0,0,0,0,0,0,0,0,0,0,0,0,0,0,0,0,0,0,0,0,0,0,0,0,0,0,0,0,0,0,0,0,0,0,0,0,0,0,0,0,0,0,0,0,0,0,0,0,0,0,0,0,0,0,0,0,0,0,0,0,0,0,0,
0,0,0,0,0,0,0,0,0,0,0,0,0,0,0,0,0,0,0,0,0,0,0,0,0,0,0,0,0,0,0,0,0,0,0,0,0,0,0,0,0,0,0,0,0,0,0,0,0,0,0,0,0,0,0,0,0,0,0,0,0,0,0,0,0,0,0,0,0,0,0,0,0,0,0,0,0,0,0,0,0,0,0,0,0,0,0,0,0,0,0,0,0,0,0,0,0,0,0,0,0,0,0,0,0,0,0,0,0,0,0,0,0,0,0,0,0,0,0,0,0,0,0,0,0,0,0,0,
0,0,0,0,0,0,0,0,0,0,0,0,0,0,0,0,0,0,0,0,0,0,0,0,0,0,0,0,0,0,0,0,0,0,0,0,0,0,0,0,0,0,0,0,0,0,0,0,0,0,0,0,0,0,0,0,0,0,0,0,0,0,0,0,0,0,0,0,0,0,0,0,0,0,0,0,0,0,0,0,0,0,0,0,0,0,0,0,0,0,0,0,0,0,0,0,0,0,0,0,0,0,0,0,0,0,0,0,0,0,0,0,0,0,0,0,0,0,0,0,0,0,0,0,0,0,0,0,
0,0,0,0,0,0,0,0,0,0,0,0,0,0,0,0,0,0,0,0,0,0,0,0,0,0,0,0,0,0,0,0,0,0,0,0,0,0,0,0,0,0,0,0,0,0,0,0,0,0,0,0,0,0,0,0,0,0,0,0,0,0,0,0,0,0,0,0,0,0,0,0,0,0,0,0,0,0,0,0,0,0,0,0,0,0,0,0,0,0,0,0,0,0,0,0,0,0,0,0,0,0,0,0,0,0,0,0,0,0,0,0,0,0,0,0,0,0,0,0,0,0,0,0,0,0,0,0,
0,0,0,0,0,0,0,0,0,0,0,0,0,0,0,0,0,0,0,0,0,0,0,0,0,0,0,0,0,0,0,0,0,0,0,0,0,0,0,0,0,0,0,0,0,0,0,0,0,0,0,0,0,0,0,0,0,0,0,0,0,0,0,0,0,0,0,0,0,0,0,0,0,0,0,0,0,0,0,0,0,0,0,0,0,0,0,0,0,0,0,0,0,0,0,0,0,0,0,0,0,0,0,0,0,0,0,0,0,0,0,0,0,0,0,0,0,0,0,0,0,0,0,0,0,0,0,0,
0,0,0,0,0,0,0,0,0,0,0,0,0,0,0,0,0,0,0,0,0,0,0,0,0,0,0,0,0,0,0,0,0,0,0,0,0,0,0,0,0,0,0,0,0,0,0,0,0,0,0,0,0,0,0,0,0,0,0,0,0,0,0,0,0,0,0,0,0,0,0,0,0,0,0,0,0,0,0,0,0,0,0,0,0,0,0,0,0,0,0,0,0,0,0,0,0,0,0,0,0,0,0,0,0,0,0,0,0,0,0,0,0,0,0,0,0,0,0,0,0,0,0,0,0,0,0,0,
0,0,0,0,0,0,0,0,0,0,0,0,0,0,0,0,0,0,0,0,0,0,0,0,0,0,0,0,0,0,0,0,0,0,0,0,0,0,0,0,0,0,0,0,0,0,0,0,0,0,0,0,0,0,0,0,0,0,0,0,0,0,0,0,0,0,0,0,0,0,0,0,0,0,0,0,0,0,0,0,0,0,0,0,0,0,0,0,0,0,0,0,0,0,0,0,0,0,0,0,0,0,0,0,0,0,0,0,0,0,0,0,0,0,0,0,0,0,0,0,0,0,0,0,0,0,0,0,
0,0,0,0,0,0,0,0,0,0,0,0,0,0,0,0,0,0,0,0,0,0,0,0,0,0,0,0,0,0,0,0,0,0,0,0,0,0,0,0,0,0,0,0,0,0,0,0,0,0,0,0,0,0,0,0,0,0,0,0,0,0,0,0,0,0,0,0,0,0,0,0,0,0,0,0,0,0,0,0,0,0,0,0,0,0,0,0,0,0,0,0,0,0,0,0,0,0,0,0,0,0,0,0,0,0,0,0,0,0,0,0,0,0,0,0,0,0,0,0,0,0,0,0,0,0,0,0,
0,0,0,0,1332,0,0,1333,0,0,1334,0,0,1335,0,0,1336,0,0,1337,0,0,1338,0,0,1339,0,0,1340,0,0,1341,0,0,1342,0,0,1343,0,0,1344,0,0,1345,0,0,1346,0,0,1347,0,0,1348,0,0,1349,0,0,1350,0,0,1351,0,0,1352,0,0,1353,0,0,1354,0,0,1355,0,0,1356,0,0,1357,0,0,1358,0,0,1359,0,0,1360,0,0,1361,0,0,1362,0,0,1363,0,0,1364,0,0,1365,0,0,1366,0,0,1367,0,0,1368,0,0,1369,0,0,1370,0,0,1371,0,0,0,0,0,0,
0,0,0,0,0,0,0,0,0,0,0,0,0,0,0,0,0,0,0,0,0,0,0,0,0,0,0,0,0,0,0,0,0,0,0,0,0,0,0,0,0,0,0,0,0,0,0,0,0,0,0,0,0,0,0,0,0,0,0,0,0,0,0,0,0,0,0,0,0,0,0,0,0,0,0,0,0,0,0,0,0,0,0,0,0,0,0,0,0,0,0,0,0,0,0,0,0,0,0,0,0,0,0,0,0,0,0,0,0,0,0,0,0,0,0,0,0,0,0,0,0,0,0,0,0,0,0,0,
0,0,0,0,0,0,0,0,0,0,0,0,0,0,0,0,0,0,0,0,0,0,0,0,0,0,0,0,0,0,0,0,0,0,0,0,0,0,0,0,0,0,0,0,0,0,0,0,0,0,0,0,0,0,0,0,0,0,0,0,0,0,0,0,0,0,0,0,0,0,0,0,0,0,0,0,0,0,0,0,0,0,0,0,0,0,0,0,0,0,0,0,0,0,0,0,0,0,0,0,0,0,0,0,0,0,0,0,0,0,0,0,0,0,0,0,0,0,0,0,0,0,0,0,0,0,0,0,
0,0,0,0,1372,0,0,1373,0,0,1374,0,0,1375,0,0,1376,0,0,1377,0,0,1378,0,0,1379,0,0,1380,0,0,1381,0,0,1382,0,0,1383,0,0,1384,0,0,1385,0,0,1386,0,0,1387,0,0,1388,0,0,1389,0,0,1390,0,0,1391,0,0,1392,0,0,1393,0,0,1394,0,0,1395,0,0,1396,0,0,1397,0,0,1398,0,0,1399,0,0,1400,0,0,1401,0,0,1402,0,0,1403,0,0,1404,0,0,0,0,0,0,0,0,0,0,0,0,0,0,0,0,0,0,0,0,0,0,0,0,0,0,0,
0,0,0,0,0,0,0,0,0,0,0,0,0,0,0,0,0,0,0,0,0,0,0,0,0,0,0,0,0,0,0,0,0,0,0,0,0,0,0,0,0,0,0,0,0,0,0,0,0,0,0,0,0,0,0,0,0,0,0,0,0,0,0,0,0,0,0,0,0,0,0,0,0,0,0,0,0,0,0,0,0,0,0,0,0,0,0,0,0,0,0,0,0,0,0,0,0,0,0,0,0,0,0,0,0,0,0,0,0,0,0,0,0,0,0,0,0,0,0,0,0,0,0,0,0,0,0,0,
0,0,0,0,0,0,0,0,0,0,0,0,0,0,0,0,0,0,0,0,0,0,0,0,0,0,0,0,0,0,0,0,0,0,0,0,0,0,0,0,0,0,0,0,0,0,0,0,0,0,0,0,0,0,0,0,0,0,0,0,0,0,0,0,0,0,0,0,0,0,0,0,0,0,0,0,0,0,0,0,0,0,0,0,0,0,0,0,0,0,0,0,0,0,0,0,0,0,0,0,0,0,0,0,0,0,0,0,0,0,0,0,0,0,0,0,0,0,0,0,0,0,0,0,0,0,0,0,
0,0,0,0,0,0,0,0,0,0,0,0,0,0,0,0,0,0,0,0,0,0,0,0,0,0,0,0,0,0,0,0,0,0,0,0,0,0,0,0,0,0,0,0,0,0,0,0,0,0,0,0,0,0,0,0,0,0,0,0,0,0,0,0,0,0,0,0,0,0,0,0,0,0,0,0,0,0,0,0,0,0,0,0,0,0,0,0,0,0,0,0,0,0,0,0,0,0,0,0,0,0,0,0,0,0,0,0,0,0,0,0,0,0,0,0,0,0,0,0,0,0,0,0,0,0,0,0,
0,0,0,0,0,0,0,0,0,0,0,0,0,0,0,0,0,0,0,0,0,0,0,0,0,0,0,0,0,0,0,0,0,0,0,0,0,0,0,0,0,0,0,0,0,0,0,0,0,0,0,0,0,0,0,0,0,0,0,0,0,0,0,0,0,0,0,0,0,0,0,0,0,0,0,0,0,0,0,0,0,0,0,0,0,0,0,0,0,0,0,0,0,0,0,0,0,0,0,0,0,0,0,0,0,0,0,0,0,0,0,0,0,0,0,0,0,0,0,0,0,0,0,0,0,0,0,0,
0,0,0,0,0,0,0,0,0,0,0,0,0,0,0,0,0,0,0,0,0,0,0,0,0,0,0,0,0,0,0,0,0,0,0,0,0,0,0,0,0,0,0,0,0,0,0,0,0,0,0,0,0,0,0,0,0,0,0,0,0,0,0,0,0,0,0,0,0,0,0,0,0,0,0,0,0,0,0,0,0,0,0,0,0,0,0,0,0,0,0,0,0,0,0,0,0,0,0,0,0,0,0,0,0,0,0,0,0,0,0,0,0,0,0,0,0,0,0,0,0,0,0,0,0,0,0,0,
0,0,0,0,0,0,0,0,0,0,0,0,0,0,0,0,0,0,0,0,0,0,0,0,0,0,0,0,0,0,0,0,0,0,0,0,0,0,0,0,0,0,0,0,0,0,0,0,0,0,0,0,0,0,0,0,0,0,0,0,0,0,0,0,0,0,0,0,0,0,0,0,0,0,0,0,0,0,0,0,0,0,0,0,0,0,0,0,0,0,0,0,0,0,0,0,0,0,0,0,0,0,0,0,0,0,0,0,0,0,0,0,0,0,0,0,0,0,0,0,0,0,0,0,0,0,0,0,
0,0,0,0,0,0,0,0,0,0,0,0,0,0,0,0,0,0,0,0,0,0,0,0,0,0,0,0,0,0,0,0,0,0,0,0,0,0,0,0,0,0,0,0,0,0,0,0,0,0,0,0,0,0,0,0,0,0,0,0,0,0,0,0,0,0,0,0,0,0,0,0,0,0,0,0,0,0,0,0,0,0,0,0,0,0,0,0,0,0,0,0,0,0,0,0,0,0,0,0,0,0,0,0,0,0,0,0,0,0,0,0,0,0,0,0,0,0,0,0,0,0,0,0,0,0,0,0,
0,0,0,0,0,0,0,0,0,0,0,0,0,0,0,0,0,0,0,0,0,0,0,0,0,0,0,0,0,0,0,0,0,0,0,0,0,0,0,0,0,0,0,0,0,0,0,0,0,0,0,0,0,0,0,0,0,0,0,0,0,0,0,0,0,0,0,0,0,0,0,0,0,0,0,0,0,0,0,0,0,0,0,0,0,0,0,0,0,0,0,0,0,0,0,0,0,0,0,0,0,0,0,0,0,0,0,0,0,0,0,0,0,0,0,0,0,0,0,0,0,0,0,0,0,0,0,0,
0,0,0,0,1406,0,0,1407,0,0,1408,0,0,1409,0,0,1410,0,0,1411,0,0,1412,0,0,1413,0,0,1414,0,0,1415,0,0,1416,0,0,1417,0,0,1418,0,0,1419,0,0,1420,0,0,1421,0,0,1422,0,0,1423,0,0,1424,0,0,1425,0,0,1426,0,0,1427,0,0,1428,0,0,1429,0,0,1430,0,0,1431,0,0,1432,0,0,1433,0,0,1434,0,0,1435,0,0,1436,0,0,1437,0,0,1438,0,0,1439,0,0,1440,0,0,1441,0,0,1442,0,0,1443,0,0,1444,0,0,1445,0,0,0,0,0,0,
0,0,0,0,0,0,0,0,0,0,0,0,0,0,0,0,0,0,0,0,0,0,0,0,0,0,0,0,0,0,0,0,0,0,0,0,0,0,0,0,0,0,0,0,0,0,0,0,0,0,0,0,0,0,0,0,0,0,0,0,0,0,0,0,0,0,0,0,0,0,0,0,0,0,0,0,0,0,0,0,0,0,0,0,0,0,0,0,0,0,0,0,0,0,0,0,0,0,0,0,0,0,0,0,0,0,0,0,0,0,0,0,0,0,0,0,0,0,0,0,0,0,0,0,0,0,0,0,
0,0,0,0,0,0,0,0,0,0,0,0,0,0,0,0,0,0,0,0,0,0,0,0,0,0,0,0,0,0,0,0,0,0,0,0,0,0,0,0,0,0,0,0,0,0,0,0,0,0,0,0,0,0,0,0,0,0,0,0,0,0,0,0,0,0,0,0,0,0,0,0,0,0,0,0,0,0,0,0,0,0,0,0,0,0,0,0,0,0,0,0,0,0,0,0,0,0,0,0,0,0,0,0,0,0,0,0,0,0,0,0,0,0,0,0,0,0,0,0,0,0,0,0,0,0,0,0,
0,0,0,0,1446,0,0,1447,0,0,1448,0,0,1449,0,0,1450,0,0,1451,0,0,1452,0,0,1453,0,0,1454,0,0,1455,0,0,1456,0,0,1457,0,0,1458,0,0,1459,0,0,1460,0,0,1461,0,0,1462,0,0,1463,0,0,1464,0,0,1465,0,0,1466,0,0,1467,0,0,1468,0,0,1469,0,0,1470,0,0,1471,0,0,1472,0,0,1473,0,0,1474,0,0,1475,0,0,1476,0,0,1477,0,0,1478,0,0,1479,0,0,1480,0,0,1481,0,0,1482,0,0,1483,0,0,1484,0,0,1485,0,0,0,0,0,0,
0,0,0,0,0,0,0,0,0,0,0,0,0,0,0,0,0,0,0,0,0,0,0,0,0,0,0,0,0,0,0,0,0,0,0,0,0,0,0,0,0,0,0,0,0,0,0,0,0,0,0,0,0,0,0,0,0,0,0,0,0,0,0,0,0,0,0,0,0,0,0,0,0,0,0,0,0,0,0,0,0,0,0,0,0,0,0,0,0,0,0,0,0,0,0,0,0,0,0,0,0,0,0,0,0,0,0,0,0,0,0,0,0,0,0,0,0,0,0,0,0,0,0,0,0,0,0,0,
0,0,0,0,0,0,0,0,0,0,0,0,0,0,0,0,0,0,0,0,0,0,0,0,0,0,0,0,0,0,0,0,0,0,0,0,0,0,0,0,0,0,0,0,0,0,0,0,0,0,0,0,0,0,0,0,0,0,0,0,0,0,0,0,0,0,0,0,0,0,0,0,0,0,0,0,0,0,0,0,0,0,0,0,0,0,0,0,0,0,0,0,0,0,0,0,0,0,0,0,0,0,0,0,0,0,0,0,0,0,0,0,0,0,0,0,0,0,0,0,0,0,0,0,0,0,0,0,
0,0,0,0,1486,0,0,1487,0,0,1488,0,0,1489,0,0,1490,0,0,1491,0,0,1492,0,0,1493,0,0,1494,0,0,1495,0,0,1496,0,0,1497,0,0,1498,0,0,1499,0,0,1500,0,0,1501,0,0,1502,0,0,1503,0,0,1504,0,0,1505,0,0,1506,0,0,1507,0,0,1508,0,0,1509,0,0,1510,0,0,1511,0,0,1512,0,0,1513,0,0,1514,0,0,1515,0,0,1516,0,0,1517,0,0,1518,0,0,1519,0,0,1520,0,0,1521,0,0,1522,0,0,1523,0,0,1524,0,0,1525,0,0,0,0,0,0,
0,0,0,0,0,0,0,0,0,0,0,0,0,0,0,0,0,0,0,0,0,0,0,0,0,0,0,0,0,0,0,0,0,0,0,0,0,0,0,0,0,0,0,0,0,0,0,0,0,0,0,0,0,0,0,0,0,0,0,0,0,0,0,0,0,0,0,0,0,0,0,0,0,0,0,0,0,0,0,0,0,0,0,0,0,0,0,0,0,0,0,0,0,0,0,0,0,0,0,0,0,0,0,0,0,0,0,0,0,0,0,0,0,0,0,0,0,0,0,0,0,0,0,0,0,0,0,0,
0,0,0,0,0,0,0,0,0,0,0,0,0,0,0,0,0,0,0,0,0,0,0,0,0,0,0,0,0,0,0,0,0,0,0,0,0,0,0,0,0,0,0,0,0,0,0,0,0,0,0,0,0,0,0,0,0,0,0,0,0,0,0,0,0,0,0,0,0,0,0,0,0,0,0,0,0,0,0,0,0,0,0,0,0,0,0,0,0,0,0,0,0,0,0,0,0,0,0,0,0,0,0,0,0,0,0,0,0,0,0,0,0,0,0,0,0,0,0,0,0,0,0,0,0,0,0,0,
0,0,0,0,1526,0,0,1527,0,0,1528,0,0,1529,0,0,1530,0,0,1531,0,0,1532,0,0,1533,0,0,1534,0,0,1535,0,0,1536,0,0,1537,0,0,1538,0,0,1539,0,0,1540,0,0,1541,0,0,1542,0,0,1543,0,0,1544,0,0,1545,0,0,1546,0,0,1547,0,0,1548,0,0,1549,0,0,1550,0,0,1551,0,0,1552,0,0,1553,0,0,1554,0,0,1555,0,0,1556,0,0,1557,0,0,1558,0,0,1559,0,0,1560,0,0,1561,0,0,1562,0,0,1563,0,0,1564,0,0,1565,0,0,0,0,0,0,
0,0,0,0,0,0,0,0,0,0,0,0,0,0,0,0,0,0,0,0,0,0,0,0,0,0,0,0,0,0,0,0,0,0,0,0,0,0,0,0,0,0,0,0,0,0,0,0,0,0,0,0,0,0,0,0,0,0,0,0,0,0,0,0,0,0,0,0,0,0,0,0,0,0,0,0,0,0,0,0,0,0,0,0,0,0,0,0,0,0,0,0,0,0,0,0,0,0,0,0,0,0,0,0,0,0,0,0,0,0,0,0,0,0,0,0,0,0,0,0,0,0,0,0,0,0,0,0,
0,0,0,0,0,0,0,0,0,0,0,0,0,0,0,0,0,0,0,0,0,0,0,0,0,0,0,0,0,0,0,0,0,0,0,0,0,0,0,0,0,0,0,0,0,0,0,0,0,0,0,0,0,0,0,0,0,0,0,0,0,0,0,0,0,0,0,0,0,0,0,0,0,0,0,0,0,0,0,0,0,0,0,0,0,0,0,0,0,0,0,0,0,0,0,0,0,0,0,0,0,0,0,0,0,0,0,0,0,0,0,0,0,0,0,0,0,0,0,0,0,0,0,0,0,0,0,0,
0,0,0,0,1566,0,0,1567,0,0,1568,0,0,1569,0,0,1570,0,0,1571,0,0,1572,0,0,1573,0,0,1574,0,0,1575,0,0,1576,0,0,1577,0,0,1578,0,0,1579,0,0,1580,0,0,1581,0,0,1582,0,0,1583,0,0,1584,0,0,1585,0,0,1586,0,0,1587,0,0,1588,0,0,1589,0,0,1590,0,0,1591,0,0,1592,0,0,1593,0,0,1594,0,0,1595,0,0,1596,0,0,1597,0,0,1598,0,0,1599,0,0,1600,0,0,1601,0,0,1602,0,0,1603,0,0,1604,0,0,1605,0,0,0,0,0,0,
0,0,0,0,0,0,0,0,0,0,0,0,0,0,0,0,0,0,0,0,0,0,0,0,0,0,0,0,0,0,0,0,0,0,0,0,0,0,0,0,0,0,0,0,0,0,0,0,0,0,0,0,0,0,0,0,0,0,0,0,0,0,0,0,0,0,0,0,0,0,0,0,0,0,0,0,0,0,0,0,0,0,0,0,0,0,0,0,0,0,0,0,0,0,0,0,0,0,0,0,0,0,0,0,0,0,0,0,0,0,0,0,0,0,0,0,0,0,0,0,0,0,0,0,0,0,0,0,
0,0,0,0,0,0,0,0,0,0,0,0,0,0,0,0,0,0,0,0,0,0,0,0,0,0,0,0,0,0,0,0,0,0,0,0,0,0,0,0,0,0,0,0,0,0,0,0,0,0,0,0,0,0,0,0,0,0,0,0,0,0,0,0,0,0,0,0,0,0,0,0,0,0,0,0,0,0,0,0,0,0,0,0,0,0,0,0,0,0,0,0,0,0,0,0,0,0,0,0,0,0,0,0,0,0,0,0,0,0,0,0,0,0,0,0,0,0,0,0,0,0,0,0,0,0,0,0,
0,0,0,0,1606,0,0,1607,0,0,1608,0,0,1609,0,0,1610,0,0,1611,0,0,1612,0,0,1613,0,0,1614,0,0,1615,0,0,1616,0,0,1617,0,0,1618,0,0,1619,0,0,1620,0,0,1621,0,0,1622,0,0,1623,0,0,1624,0,0,1625,0,0,1626,0,0,1627,0,0,1628,0,0,1629,0,0,1630,0,0,1631,0,0,1632,0,0,1633,0,0,1634,0,0,1635,0,0,1636,0,0,1637,0,0,1638,0,0,1639,0,0,1640,0,0,1641,0,0,1642,0,0,1643,0,0,1644,0,0,1645,0,0,0,0,0,0,
0,0,0,0,0,0,0,0,0,0,0,0,0,0,0,0,0,0,0,0,0,0,0,0,0,0,0,0,0,0,0,0,0,0,0,0,0,0,0,0,0,0,0,0,0,0,0,0,0,0,0,0,0,0,0,0,0,0,0,0,0,0,0,0,0,0,0,0,0,0,0,0,0,0,0,0,0,0,0,0,0,0,0,0,0,0,0,0,0,0,0,0,0,0,0,0,0,0,0,0,0,0,0,0,0,0,0,0,0,0,0,0,0,0,0,0,0,0,0,0,0,0,0,0,0,0,0,0,
0,0,0,0,0,0,0,0,0,0,0,0,0,0,0,0,0,0,0,0,0,0,0,0,0,0,0,0,0,0,0,0,0,0,0,0,0,0,0,0,0,0,0,0,0,0,0,0,0,0,0,0,0,0,0,0,0,0,0,0,0,0,0,0,0,0,0,0,0,0,0,0,0,0,0,0,0,0,0,0,0,0,0,0,0,0,0,0,0,0,0,0,0,0,0,0,0,0,0,0,0,0,0,0,0,0,0,0,0,0,0,0,0,0,0,0,0,0,0,0,0,0,0,0,0,0,0,0,
0,0,0,0,1646,0,0,1647,0,0,1648,0,0,1649,0,0,1650,0,0,1651,0,0,1652,0,0,1653,0,0,1654,0,0,1655,0,0,1656,0,0,1657,0,0,1658,0,0,1659,0,0,1660,0,0,1661,0,0,1662,0,0,1663,0,0,1664,0,0,1665,0,0,1666,0,0,1667,0,0,1668,0,0,1669,0,0,1670,0,0,1671,0,0,1672,0,0,1673,0,0,1674,0,0,1675,0,0,1676,0,0,1677,0,0,1678,0,0,1679,0,0,1680,0,0,1681,0,0,1682,0,0,1683,0,0,1684,0,0,1685,0,0,0,0,0,0,
0,0,0,0,0,0,0,0,0,0,0,0,0,0,0,0,0,0,0,0,0,0,0,0,0,0,0,0,0,0,0,0,0,0,0,0,0,0,0,0,0,0,0,0,0,0,0,0,0,0,0,0,0,0,0,0,0,0,0,0,0,0,0,0,0,0,0,0,0,0,0,0,0,0,0,0,0,0,0,0,0,0,0,0,0,0,0,0,0,0,0,0,0,0,0,0,0,0,0,0,0,0,0,0,0,0,0,0,0,0,0,0,0,0,0,0,0,0,0,0,0,0,0,0,0,0,0,0,
0,0,0,0,0,0,0,0,0,0,0,0,0,0,0,0,0,0,0,0,0,0,0,0,0,0,0,0,0,0,0,0,0,0,0,0,0,0,0,0,0,0,0,0,0,0,0,0,0,0,0,0,0,0,0,0,0,0,0,0,0,0,0,0,0,0,0,0,0,0,0,0,0,0,0,0,0,0,0,0,0,0,0,0,0,0,0,0,0,0,0,0,0,0,0,0,0,0,0,0,0,0,0,0,0,0,0,0,0,0,0,0,0,0,0,0,0,0,0,0,0,0,0,0,0,0,0,0,
0,0,0,0,1686,0,0,1687,0,0,1688,0,0,1689,0,0,1690,0,0,1691,0,0,1692,0,0,1693,0,0,1694,0,0,1695,0,0,1696,0,0,1697,0,0,1698,0,0,1699,0,0,1700,0,0,1701,0,0,1702,0,0,1703,0,0,1704,0,0,1705,0,0,1706,0,0,1707,0,0,1708,0,0,1709,0,0,1710,0,0,1711,0,0,1712,0,0,1713,0,0,1714,0,0,1715,0,0,1716,0,0,1717,0,0,1718,0,0,1719,0,0,1720,0,0,1721,0,0,1722,0,0,1723,0,0,1724,0,0,1725,0,0,0,0,0,0,
0,0,0,0,0,0,0,0,0,0,0,0,0,0,0,0,0,0,0,0,0,0,0,0,0,0,0,0,0,0,0,0,0,0,0,0,0,0,0,0,0,0,0,0,0,0,0,0,0,0,0,0,0,0,0,0,0,0,0,0,0,0,0,0,0,0,0,0,0,0,0,0,0,0,0,0,0,0,0,0,0,0,0,0,0,0,0,0,0,0,0,0,0,0,0,0,0,0,0,0,0,0,0,0,0,0,0,0,0,0,0,0,0,0,0,0,0,0,0,0,0,0,0,0,0,0,0,0,
0,0,0,0,0,0,0,0,0,0,0,0,0,0,0,0,0,0,0,0,0,0,0,0,0,0,0,0,0,0,0,0,0,0,0,0,0,0,0,0,0,0,0,0,0,0,0,0,0,0,0,0,0,0,0,0,0,0,0,0,0,0,0,0,0,0,0,0,0,0,0,0,0,0,0,0,0,0,0,0,0,0,0,0,0,0,0,0,0,0,0,0,0,0,0,0,0,0,0,0,0,0,0,0,0,0,0,0,0,0,0,0,0,0,0,0,0,0,0,0,0,0,0,0,0,0,0,0,
0,0,0,0,1726,0,0,1727,0,0,1728,0,0,1729,0,0,1730,0,0,1731,0,0,1732,0,0,1733,0,0,1734,0,0,1735,0,0,1736,0,0,1737,0,0,1738,0,0,1739,0,0,1740,0,0,1741,0,0,1742,0,0,1743,0,0,1744,0,0,1745,0,0,1746,0,0,1747,0,0,1748,0,0,1749,0,0,1750,0,0,1751,0,0,1752,0,0,1753,0,0,1754,0,0,1755,0,0,1756,0,0,1757,0,0,1758,0,0,1759,0,0,1760,0,0,1761,0,0,1762,0,0,1763,0,0,1764,0,0,1765,0,0,0,0,0,0,
0,0,0,0,0,0,0,0,0,0,0,0,0,0,0,0,0,0,0,0,0,0,0,0,0,0,0,0,0,0,0,0,0,0,0,0,0,0,0,0,0,0,0,0,0,0,0,0,0,0,0,0,0,0,0,0,0,0,0,0,0,0,0,0,0,0,0,0,0,0,0,0,0,0,0,0,0,0,0,0,0,0,0,0,0,0,0,0,0,0,0,0,0,0,0,0,0,0,0,0,0,0,0,0,0,0,0,0,0,0,0,0,0,0,0,0,0,0,0,0,0,0,0,0,0,0,0,0,
0,0,0,0,0,0,0,0,0,0,0,0,0,0,0,0,0,0,0,0,0,0,0,0,0,0,0,0,0,0,0,0,0,0,0,0,0,0,0,0,0,0,0,0,0,0,0,0,0,0,0,0,0,0,0,0,0,0,0,0,0,0,0,0,0,0,0,0,0,0,0,0,0,0,0,0,0,0,0,0,0,0,0,0,0,0,0,0,0,0,0,0,0,0,0,0,0,0,0,0,0,0,0,0,0,0,0,0,0,0,0,0,0,0,0,0,0,0,0,0,0,0,0,0,0,0,0,0,
0,0,0,0,1766,0,0,1767,0,0,1768,0,0,1769,0,0,1770,0,0,1771,0,0,1772,0,0,1773,0,0,1774,0,0,1775,0,0,1776,0,0,1777,0,0,1778,0,0,1779,0,0,1780,0,0,1781,0,0,1782,0,0,1783,0,0,1784,0,0,1785,0,0,1786,0,0,1787,0,0,1788,0,0,1789,0,0,1790,0,0,1791,0,0,1792,0,0,1793,0,0,1794,0,0,1795,0,0,1796,0,0,1797,0,0,1798,0,0,1799,0,0,1800,0,0,1801,0,0,1802,0,0,1803,0,0,1804,0,0,1805,0,0,0,0,0,0,
0,0,0,0,0,0,0,0,0,0,0,0,0,0,0,0,0,0,0,0,0,0,0,0,0,0,0,0,0,0,0,0,0,0,0,0,0,0,0,0,0,0,0,0,0,0,0,0,0,0,0,0,0,0,0,0,0,0,0,0,0,0,0,0,0,0,0,0,0,0,0,0,0,0,0,0,0,0,0,0,0,0,0,0,0,0,0,0,0,0,0,0,0,0,0,0,0,0,0,0,0,0,0,0,0,0,0,0,0,0,0,0,0,0,0,0,0,0,0,0,0,0,0,0,0,0,0,0,
0,0,0,0,0,0,0,0,0,0,0,0,0,0,0,0,0,0,0,0,0,0,0,0,0,0,0,0,0,0,0,0,0,0,0,0,0,0,0,0,0,0,0,0,0,0,0,0,0,0,0,0,0,0,0,0,0,0,0,0,0,0,0,0,0,0,0,0,0,0,0,0,0,0,0,0,0,0,0,0,0,0,0,0,0,0,0,0,0,0,0,0,0,0,0,0,0,0,0,0,0,0,0,0,0,0,0,0,0,0,0,0,0,0,0,0,0,0,0,0,0,0,0,0,0,0,0,0,
0,0,0,0,1806,0,0,1807,0,0,1808,0,0,1809,0,0,1810,0,0,1811,0,0,1812,0,0,1813,0,0,1814,0,0,1815,0,0,1816,0,0,1817,0,0,1818,0,0,1819,0,0,1820,0,0,1821,0,0,0,0,0,0,0,0,0,0,0,0,0,0,0,0,0,0,0,0,0,0,0,0,0,0,0,0,0,0,0,0,0,0,0,0,0,0,0,0,0,0,0,0,0,0,0,0,0,0,0,0,0,0,0,0,0,0,0,0,0,0,0,0,0,0,0,0,0,0,0,0,0,0,0,0,0,0,
0,0,0,0,0,0,0,0,0,0,0,0,0,0,0,0,0,0,0,0,0,0,0,0,0,0,0,0,0,0,0,0,0,0,0,0,0,0,0,0,0,0,0,0,0,0,0,0,0,0,0,0,0,0,0,0,0,0,0,0,0,0,0,0,0,0,0,0,0,0,0,0,0,0,0,0,0,0,0,0,0,0,0,0,0,0,0,0,0,0,0,0,0,0,0,0,0,0,0,0,0,0,0,0,0,0,0,0,0,0,0,0,0,0,0,0,0,0,0,0,0,0,0,0,0,0,0,0,
0,0,0,0,0,0,0,0,0,0,0,0,0,0,0,0,0,0,0,0,0,0,0,0,0,0,0,0,0,0,0,0,0,0,0,0,0,0,0,0,0,0,0,0,0,0,0,0,0,0,0,0,0,0,0,0,0,0,0,0,0,0,0,0,0,0,0,0,0,0,0,0,0,0,0,0,0,0,0,0,0,0,0,0,0,0,0,0,0,0,0,0,0,0,0,0,0,0,0,0,0,0,0,0,0,0,0,0,0,0,0,0,0,0,0,0,0,0,0,0,0,0,0,0,0,0,0,0,
0,0,0,0,0,0,0,0,0,0,0,0,0,0,0,0,0,0,0,0,0,0,0,0,0,0,0,0,0,0,0,0,0,0,0,0,0,0,0,0,0,0,0,0,0,0,0,0,0,0,0,0,0,0,0,0,0,0,0,0,0,0,0,0,0,0,0,0,0,0,0,0,0,0,0,0,0,0,0,0,0,0,0,0,0,0,0,0,0,0,0,0,0,0,0,0,0,0,0,0,0,0,0,0,0,0,0,0,0,0,0,0,0,0,0,0,0,0,0,0,0,0,0,0,0,0,0,0,
0,0,0,0,0,0,0,0,0,0,0,0,0,0,0,0,0,0,0,0,0,0,0,0,0,0,0,0,0,0,0,0,0,0,0,0,0,0,0,0,0,0,0,0,0,0,0,0,0,0,0,0,0,0,0,0,0,0,0,0,0,0,0,0,0,0,0,0,0,0,0,0,0,0,0,0,0,0,0,0,0,0,0,0,0,0,0,0,0,0,0,0,0,0,0,0,0,0,0,0,0,0,0,0,0,0,0,0,0,0,0,0,0,0,0,0,0,0,0,0,0,0,0,0,0,0,0,0,
0,0,0,0,0,0,0,0,0,0,0,0,0,0,0,0,0,0,0,0,0,0,0,0,0,0,0,0,0,0,0,0,0,0,0,0,0,0,0,0,0,0,0,0,0,0,0,0,0,0,0,0,0,0,0,0,0,0,0,0,0,0,0,0,0,0,0,0,0,0,0,0,0,0,0,0,0,0,0,0,0,0,0,0,0,0,0,0,0,0,0,0,0,0,0,0,0,0,0,0,0,0,0,0,0,0,0,0,0,0,0,0,0,0,0,0,0,0,0,0,0,0,0,0,0,0,0,0,
0,0,0,0,0,0,0,0,0,0,0,0,0,0,0,0,0,0,0,0,0,0,0,0,0,0,0,0,0,0,0,0,0,0,0,0,0,0,0,0,0,0,0,0,0,0,0,0,0,0,0,0,0,0,0,0,0,0,0,0,0,0,0,0,0,0,0,0,0,0,0,0,0,0,0,0,0,0,0,0,0,0,0,0,0,0,0,0,0,0,0,0,0,0,0,0,0,0,0,0,0,0,0,0,0,0,0,0,0,0,0,0,0,0,0,0,0,0,0,0,0,0,0,0,0,0,0,0,
0,0,0,0,0,0,0,0,0,0,0,0,0,0,0,0,0,0,0,0,0,0,0,0,0,0,0,0,0,0,0,0,0,0,0,0,0,0,0,0,0,0,0,0,0,0,0,0,0,0,0,0,0,0,0,0,0,0,0,0,0,0,0,0,0,0,0,0,0,0,0,0,0,0,0,0,0,0,0,0,0,0,0,0,0,0,0,0,0,0,0,0,0,0,0,0,0,0,0,0,0,0,0,0,0,0,0,0,0,0,0,0,0,0,0,0,0,0,0,0,0,0,0,0,0,0,0,0,
0,0,0,0,0,0,0,0,0,0,0,0,0,0,0,0,0,0,0,0,0,0,0,0,0,0,0,0,0,0,0,0,0,0,0,0,0,0,0,0,0,0,0,0,0,0,0,0,0,0,0,0,0,0,0,0,0,0,0,0,0,0,0,0,0,0,0,0,0,0,0,0,0,0,0,0,0,0,0,0,0,0,0,0,0,0,0,0,0,0,0,0,0,0,0,0,0,0,0,0,0,0,0,0,0,0,0,0,0,0,0,0,0,0,0,0,0,0,0,0,0,0,0,0,0,0,0,0,
0,0,0,0,1822,0,0,1823,0,0,1824,0,0,1825,0,0,1826,0,0,1827,0,0,1828,0,0,1829,0,0,1830,0,0,1831,0,0,1832,0,0,1833,0,0,1834,0,0,1835,0,0,1836,0,0,1837,0,0,1838,0,0,1839,0,0,1840,0,0,1841,0,0,1842,0,0,1843,0,0,1844,0,0,1845,0,0,1846,0,0,1847,0,0,1848,0,0,1849,0,0,1850,0,0,1851,0,0,1852,0,0,1853,0,0,1854,0,0,1855,0,0,1856,0,0,1857,0,0,1858,0,0,1859,0,0,1860,0,0,1861,0,0,0,0,0,0,
0,0,0,0,0,0,0,0,0,0,0,0,0,0,0,0,0,0,0,0,0,0,0,0,0,0,0,0,0,0,0,0,0,0,0,0,0,0,0,0,0,0,0,0,0,0,0,0,0,0,0,0,0,0,0,0,0,0,0,0,0,0,0,0,0,0,0,0,0,0,0,0,0,0,0,0,0,0,0,0,0,0,0,0,0,0,0,0,0,0,0,0,0,0,0,0,0,0,0,0,0,0,0,0,0,0,0,0,0,0,0,0,0,0,0,0,0,0,0,0,0,0,0,0,0,0,0,0,
0,0,0,0,0,0,0,0,0,0,0,0,0,0,0,0,0,0,0,0,0,0,0,0,0,0,0,0,0,0,0,0,0,0,0,0,0,0,0,0,0,0,0,0,0,0,0,0,0,0,0,0,0,0,0,0,0,0,0,0,0,0,0,0,0,0,0,0,0,0,0,0,0,0,0,0,0,0,0,0,0,0,0,0,0,0,0,0,0,0,0,0,0,0,0,0,0,0,0,0,0,0,0,0,0,0,0,0,0,0,0,0,0,0,0,0,0,0,0,0,0,0,0,0,0,0,0,0,
0,0,0,0,1862,0,0,1863,0,0,1864,0,0,1865,0,0,1866,0,0,1867,0,0,1868,0,0,1869,0,0,1870,0,0,1871,0,0,1872,0,0,1873,0,0,1874,0,0,1875,0,0,1876,0,0,1877,0,0,0,0,0,0,0,0,0,0,0,0,0,0,0,0,0,0,0,0,0,0,0,0,0,0,0,0,0,0,0,0,0,0,0,0,0,0,0,0,0,0,0,0,0,0,0,0,0,0,0,0,0,0,0,0,0,0,0,0,0,0,0,0,0,0,0,0,0,0,0,0,0,0,0,0,0,0,
0,0,0,0,0,0,0,0,0,0,0,0,0,0,0,0,0,0,0,0,0,0,0,0,0,0,0,0,0,0,0,0,0,0,0,0,0,0,0,0,0,0,0,0,0,0,0,0,0,0,0,0,0,0,0,0,0,0,0,0,0,0,0,0,0,0,0,0,0,0,0,0,0,0,0,0,0,0,0,0,0,0,0,0,0,0,0,0,0,0,0,0,0,0,0,0,0,0,0,0,0,0,0,0,0,0,0,0,0,0,0,0,0,0,0,0,0,0,0,0,0,0,0,0,0,0,0,0,
0,0,0,0,0,0,0,0,0,0,0,0,0,0,0,0,0,0,0,0,0,0,0,0,0,0,0,0,0,0,0,0,0,0,0,0,0,0,0,0,0,0,0,0,0,0,0,0,0,0,0,0,0,0,0,0,0,0,0,0,0,0,0,0,0,0,0,0,0,0,0,0,0,0,0,0,0,0,0,0,0,0,0,0,0,0,0,0,0,0,0,0,0,0,0,0,0,0,0,0,0,0,0,0,0,0,0,0,0,0,0,0,0,0,0,0,0,0,0,0,0,0,0,0,0,0,0,0,
0,0,0,0,0,0,0,0,0,0,0,0,0,0,0,0,0,0,0,0,0,0,0,0,0,0,0,0,0,0,0,0,0,0,0,0,0,0,0,0,0,0,0,0,0,0,0,0,0,0,0,0,0,0,0,0,0,0,0,0,0,0,0,0,0,0,0,0,0,0,0,0,0,0,0,0,0,0,0,0,0,0,0,0,0,0,0,0,0,0,0,0,0,0,0,0,0,0,0,0,0,0,0,0,0,0,0,0,0,0,0,0,0,0,0,0,0,0,0,0,0,0,0,0,0,0,0,0,
0,0,0,0,0,0,0,0,0,0,0,0,0,0,0,0,0,0,0,0,0,0,0,0,0,0,0,0,0,0,0,0,0,0,0,0,0,0,0,0,0,0,0,0,0,0,0,0,0,0,0,0,0,0,0,0,0,0,0,0,0,0,0,0,0,0,0,0,0,0,0,0,0,0,0,0,0,0,0,0,0,0,0,0,0,0,0,0,0,0,0,0,0,0,0,0,0,0,0,0,0,0,0,0,0,0,0,0,0,0,0,0,0,0,0,0,0,0,0,0,0,0,0,0,0,0,0,0,
0,0,0,0,0,0,0,0,0,0,0,0,0,0,0,0,0,0,0,0,0,0,0,0,0,0,0,0,0,0,0,0,0,0,0,0,0,0,0,0,0,0,0,0,0,0,0,0,0,0,0,0,0,0,0,0,0,0,0,0,0,0,0,0,0,0,0,0,0,0,0,0,0,0,0,0,0,0,0,0,0,0,0,0,0,0,0,0,0,0,0,0,0,0,0,0,0,0,0,0,0,0,0,0,0,0,0,0,0,0,0,0,0,0,0,0,0,0,0,0,0,0,0,0,0,0,0,0,
0,0,0,0,0,0,0,0,0,0,0,0,0,0,0,0,0,0,0,0,0,0,0,0,0,0,0,0,0,0,0,0,0,0,0,0,0,0,0,0,0,0,0,0,0,0,0,0,0,0,0,0,0,0,0,0,0,0,0,0,0,0,0,0,0,0,0,0,0,0,0,0,0,0,0,0,0,0,0,0,0,0,0,0,0,0,0,0,0,0,0,0,0,0,0,0,0,0,0,0,0,0,0,0,0,0,0,0,0,0,0,0,0,0,0,0,0,0,0,0,0,0,0,0,0,0,0,0,
0,0,0,0,0,0,0,0,0,0,0,0,0,0,0,0,0,0,0,0,0,0,0,0,0,0,0,0,0,0,0,0,0,0,0,0,0,0,0,0,0,0,0,0,0,0,0,0,0,0,0,0,0,0,0,0,0,0,0,0,0,0,0,0,0,0,0,0,0,0,0,0,0,0,0,0,0,0,0,0,0,0,0,0,0,0,0,0,0,0,0,0,0,0,0,0,0,0,0,0,0,0,0,0,0,0,0,0,0,0,0,0,0,0,0,0,0,0,0,0,0,0,0,0,0,0,0,0,
0,0,0,0,0,0,0,0,0,0,0,0,0,0,0,0,0,0,0,0,0,0,0,0,0,0,0,0,0,0,0,0,0,0,0,0,0,0,0,0,0,0,0,0,0,0,0,0,0,0,0,0,0,0,0,0,0,0,0,0,0,0,0,0,0,0,0,0,0,0,0,0,0,0,0,0,0,0,0,0,0,0,0,0,0,0,0,0,0,0,0,0,0,0,0,0,0,0,0,0,0,0,0,0,0,0,0,0,0,0,0,0,0,0,0,0,0,0,0,0,0,0,0,0,0,0,0,0,
0,0,0,0,1878,0,0,1894,0,0,1910,0,0,1926,0,0,1942,0,0,1958,0,0,1974,0,0,1990,0,0,2006,0,0,2022,0,0,2038,0,0,2054,0,0,2070,0,0,2086,0,0,2103,0,0,0,0,0,0,0,0,0,0,0,0,0,0,0,0,0,0,0,0,0,0,0,0,0,0,0,0,0,0,0,0,0,0,0,0,0,0,0,0,0,0,0,0,0,0,0,0,0,0,0,0,0,0,0,0,0,0,0,0,0,0,0,0,0,0,0,0,0,0,0,0,0,0,0,0,0,0,0,0,0,
0,0,0,0,0,0,0,0,0,0,0,0,0,0,0,0,0,0,0,0,0,0,0,0,0,0,0,0,0,0,0,0,0,0,0,0,0,0,0,0,0,0,0,0,0,0,0,0,0,0,0,0,0,0,0,0,0,0,0,0,0,0,0,0,0,0,0,0,0,0,0,0,0,0,0,0,0,0,0,0,0,0,0,0,0,0,0,0,0,0,0,0,0,0,0,0,0,0,0,0,0,0,0,0,0,0,0,0,0,0,0,0,0,0,0,0,0,0,0,0,0,0,0,0,0,0,0,0,
0,0,0,0,0,0,0,0,0,0,0,0,0,0,0,0,0,0,0,0,0,0,0,0,0,0,0,0,0,0,0,0,0,0,0,0,0,0,0,0,0,0,0,0,0,0,0,0,0,0,0,0,0,0,0,0,0,0,0,0,0,0,0,0,0,0,0,0,0,0,0,0,0,0,0,0,0,0,0,0,0,0,0,0,0,0,0,0,0,0,0,0,0,0,0,0,0,0,0,0,0,0,0,0,0,0,0,0,0,0,0,0,0,0,0,0,0,0,0,0,0,0,0,0,0,0,0,0,
0,0,0,0,0,0,0,0,0,0,0,0,0,0,0,0,0,0,0,0,0,0,0,0,0,0,0,0,0,0,0,0,0,0,0,0,0,0,0,0,0,0,0,0,0,0,0,0,0,0,0,0,0,0,0,0,0,0,0,0,0,0,0,0,0,0,0,0,0,0,0,0,0,0,0,0,0,0,0,0,0,0,0,0,0,0,0,0,0,0,0,0,0,0,0,0,0,0,0,0,0,0,0,0,0,0,0,0,0,0,0,0,0,0,0,0,0,0,0,0,0,0,0,0,0,0,0,0,
0,0,0,0,0,0,0,0,0,0,0,0,0,0,0,0,0,0,0,0,0,0,0,0,0,0,0,0,0,0,0,0,0,0,0,0,0,0,0,0,0,0,0,0,0,0,0,0,0,0,0,0,0,0,0,0,0,0,0,0,0,0,0,0,0,0,0,0,0,0,0,0,0,0,0,0,0,0,0,0,0,0,0,0,0,0,0,0,0,0,0,0,0,0,0,0,0,0,0,0,0,0,0,0,0,0,0,0,0,0,0,0,0,0,0,0,0,0,0,0,0,0,0,0,0,0,0,0,
0,0,0,0,0,0,0,0,0,0,0,0,0,0,0,0,0,0,0,0,0,0,0,0,0,0,0,0,0,0,0,0,0,0,0,0,0,0,0,0,0,0,0,0,0,0,0,0,0,0,0,0,0,0,0,0,0,0,0,0,0,0,0,0,0,0,0,0,0,0,0,0,0,0,0,0,0,0,0,0,0,0,0,0,0,0,0,0,0,0,0,0,0,0,0,0,0,0,0,0,0,0,0,0,0,0,0,0,0,0,0,0,0,0,0,0,0,0,0,0,0,0,0,0,0,0,0,0,
0,0,0,0,0,0,0,0,0,0,0,0,0,0,0,0,0,0,0,0,0,0,0,0,0,0,0,0,0,0,0,0,0,0,0,0,0,0,0,0,0,0,0,0,0,0,0,0,0,0,0,0,0,0,0,0,0,0,0,0,0,0,0,0,0,0,0,0,0,0,0,0,0,0,0,0,0,0,0,0,0,0,0,0,0,0,0,0,0,0,0,0,0,0,0,0,0,0,0,0,0,0,0,0,0,0,0,0,0,0,0,0,0,0,0,0,0,0,0,0,0,0,0,0,0,0,0,0,
0,0,0,0,0,0,0,0,0,0,0,0,0,0,0,0,0,0,0,0,0,0,0,0,0,0,0,0,0,0,0,0,0,0,0,0,0,0,0,0,0,0,0,0,0,0,0,0,0,0,0,0,0,0,0,0,0,0,0,0,0,0,0,0,0,0,0,0,0,0,0,0,0,0,0,0,0,0,0,0,0,0,0,0,0,0,0,0,0,0,0,0,0,0,0,0,0,0,0,0,0,0,0,0,0,0,0,0,0,0,0,0,0,0,0,0,0,0,0,0,0,0,0,0,0,0,0,0,
0,0,0,0,0,0,0,0,0,0,0,0,0,0,0,0,0,0,0,0,0,0,0,0,0,0,0,0,0,0,0,0,0,0,0,0,0,0,0,0,0,0,0,0,0,0,0,0,0,0,0,0,0,0,0,0,0,0,0,0,0,0,0,0,0,0,0,0,0,0,0,0,0,0,0,0,0,0,0,0,0,0,0,0,0,0,0,0,0,0,0,0,0,0,0,0,0,0,0,0,0,0,0,0,0,0,0,0,0,0,0,0,0,0,0,0,0,0,0,0,0,0,0,0,0,0,0,0,
0,0,0,0,2120,0,0,2136,0,0,2152,0,0,2168,0,0,2184,0,0,2200,0,0,2216,0,0,2232,0,0,2248,0,0,2264,0,0,2280,0,0,2296,0,0,2312,0,0,2328,0,0,2344,0,0,2360,0,0,2376,0,0,0,0,0,0,0,0,0,0,0,0,0,0,0,0,0,0,0,0,0,0,0,0,0,0,0,0,0,0,0,0,0,0,0,0,0,0,0,0,0,0,0,0,0,0,0,0,0,0,0,0,0,0,0,0,0,0,0,0,0,0,0,0,0,0,0,0,0,0,0,0,0,0,0,
0,0,0,0,0,0,0,0,0,0,0,0,0,0,0,0,0,0,0,0,0,0,0,0,0,0,0,0,0,0,0,0,0,0,0,0,0,0,0,0,0,0,0,0,0,0,0,0,0,0,0,0,0,0,0,0,0,0,0,0,0,0,0,0,0,0,0,0,0,0,0,0,0,0,0,0,0,0,0,0,0,0,0,0,0,0,0,0,0,0,0,0,0,0,0,0,0,0,0,0,0,0,0,0,0,0,0,0,0,0,0,0,0,0,0,0,0,0,0,0,0,0,0,0,0,0,0,0,
0,0,0,0,0,0,0,0,0,0,0,0,0,0,0,0,0,0,0,0,0,0,0,0,0,0,0,0,0,0,0,0,0,0,0,0,0,0,0,0,0,0,0,0,0,0,0,0,0,0,0,0,0,0,0,0,0,0,0,0,0,0,0,0,0,0,0,0,0,0,0,0,0,0,0,0,0,0,0,0,0,0,0,0,0,0,0,0,0,0,0,0,0,0,0,0,0,0,0,0,0,0,0,0,0,0,0,0,0,0,0,0,0,0,0,0,0,0,0,0,0,0,0,0,0,0,0,0,
0,0,0,0,0,0,0,0,0,0,0,0,0,0,0,0,0,0,0,0,0,0,0,0,0,0,0,0,0,0,0,0,0,0,0,0,0,0,0,0,0,0,0,0,0,0,0,0,0,0,0,0,0,0,0,0,0,0,0,0,0,0,0,0,0,0,0,0,0,0,0,0,0,0,0,0,0,0,0,0,0,0,0,0,0,0,0,0,0,0,0,0,0,0,0,0,0,0,0,0,0,0,0,0,0,0,0,0,0,0,0,0,0,0,0,0,0,0,0,0,0,0,0,0,0,0,0,0,
0,0,0,0,0,0,0,0,0,0,0,0,0,0,0,0,0,0,0,0,0,0,0,0,0,0,0,0,0,0,0,0,0,0,0,0,0,0,0,0,0,0,0,0,0,0,0,0,0,0,0,0,0,0,0,0,0,0,0,0,0,0,0,0,0,0,0,0,0,0,0,0,0,0,0,0,0,0,0,0,0,0,0,0,0,0,0,0,0,0,0,0,0,0,0,0,0,0,0,0,0,0,0,0,0,0,0,0,0,0,0,0,0,0,0,0,0,0,0,0,0,0,0,0,0,0,0,0,
0,0,0,0,0,0,0,0,0,0,0,0,0,0,0,0,0,0,0,0,0,0,0,0,0,0,0,0,0,0,0,0,0,0,0,0,0,0,0,0,0,0,0,0,0,0,0,0,0,0,0,0,0,0,0,0,0,0,0,0,0,0,0,0,0,0,0,0,0,0,0,0,0,0,0,0,0,0,0,0,0,0,0,0,0,0,0,0,0,0,0,0,0,0,0,0,0,0,0,0,0,0,0,0,0,0,0,0,0,0,0,0,0,0,0,0,0,0,0,0,0,0,0,0,0,0,0,0,
0,0,0,0,0,0,0,0,0,0,0,0,0,0,0,0,0,0,0,0,0,0,0,0,0,0,0,0,0,0,0,0,0,0,0,0,0,0,0,0,0,0,0,0,0,0,0,0,0,0,0,0,0,0,0,0,0,0,0,0,0,0,0,0,0,0,0,0,0,0,0,0,0,0,0,0,0,0,0,0,0,0,0,0,0,0,0,0,0,0,0,0,0,0,0,0,0,0,0,0,0,0,0,0,0,0,0,0,0,0,0,0,0,0,0,0,0,0,0,0,0,0,0,0,0,0,0,0,
0,0,0,0,0,0,0,0,0,0,0,0,0,0,0,0,0,0,0,0,0,0,0,0,0,0,0,0,0,0,0,0,0,0,0,0,0,0,0,0,0,0,0,0,0,0,0,0,0,0,0,0,0,0,0,0,0,0,0,0,0,0,0,0,0,0,0,0,0,0,0,0,0,0,0,0,0,0,0,0,0,0,0,0,0,0,0,0,0,0,0,0,0,0,0,0,0,0,0,0,0,0,0,0,0,0,0,0,0,0,0,0,0,0,0,0,0,0,0,0,0,0,0,0,0,0,0,0,
0,0,0,0,0,0,0,0,0,0,0,0,0,0,0,0,0,0,0,0,0,0,0,0,0,0,0,0,0,0,0,0,0,0,0,0,0,0,0,0,0,0,0,0,0,0,0,0,0,0,0,0,0,0,0,0,0,0,0,0,0,0,0,0,0,0,0,0,0,0,0,0,0,0,0,0,0,0,0,0,0,0,0,0,0,0,0,0,0,0,0,0,0,0,0,0,0,0,0,0,0,0,0,0,0,0,0,0,0,0,0,0,0,0,0,0,0,0,0,0,0,0,0,0,0,0,0,0,
0,0,0,0,2392,0,0,2422,0,0,2437,0,0,2444,0,0,2459,0,0,2471,0,0,2486,0,0,2500,0,0,2515,0,0,2530,0,0,2545,0,0,2560,0,0,2575,0,0,2590,0,0,0,0,0,0,0,0,0,0,0,0,0,0,0,0,0,0,0,0,0,0,0,0,0,0,0,0,0,0,0,0,0,0,0,0,0,0,0,0,0,0,0,0,0,0,0,0,0,0,0,0,0,0,0,0,0,0,0,0,0,0,0,0,0,0,0,0,0,0,0,0,0,0,0,0,0,0,0,0,0,0,0,0,
0,0,0,0,0,0,0,0,0,0,0,0,0,0,0,0,0,0,0,0,0,0,0,0,0,0,0,0,0,0,0,0,0,0,0,0,0,0,0,0,0,0,0,0,0,0,0,0,0,0,0,0,0,0,0,0,0,0,0,0,0,0,0,0,0,0,0,0,0,0,0,0,0,0,0,0,0,0,0,0,0,0,0,0,0,0,0,0,0,0,0,0,0,0,0,0,0,0,0,0,0,0,0,0,0,0,0,0,0,0,0,0,0,0,0,0,0,0,0,0,0,0,0,0,0,0,0,0,
0,0,0,0,0,0,0,0,0,0,0,0,0,0,0,0,0,0,0,0,0,0,0,0,0,0,0,0,0,0,0,0,0,0,0,0,0,0,0,0,0,0,0,0,0,0,0,0,0,0,0,0,0,0,0,0,0,0,0,0,0,0,0,0,0,0,0,0,0,0,0,0,0,0,0,0,0,0,0,0,0,0,0,0,0,0,0,0,0,0,0,0,0,0,0,0,0,0,0,0,0,0,0,0,0,0,0,0,0,0,0,0,0,0,0,0,0,0,0,0,0,0,0,0,0,0,0,0,
0,0,0,0,0,0,0,0,0,0,0,0,0,0,0,0,0,0,0,0,0,0,0,0,0,0,0,0,0,0,0,0,0,0,0,0,0,0,0,0,0,0,0,0,0,0,0,0,0,0,0,0,0,0,0,0,0,0,0,0,0,0,0,0,0,0,0,0,0,0,0,0,0,0,0,0,0,0,0,0,0,0,0,0,0,0,0,0,0,0,0,0,0,0,0,0,0,0,0,0,0,0,0,0,0,0,0,0,0,0,0,0,0,0,0,0,0,0,0,0,0,0,0,0,0,0,0,0,
0,0,0,0,0,0,0,0,0,0,0,0,0,0,0,0,0,0,0,0,0,0,0,0,0,0,0,0,0,0,0,0,0,0,0,0,0,0,0,0,0,0,0,0,0,0,0,0,0,0,0,0,0,0,0,0,0,0,0,0,0,0,0,0,0,0,0,0,0,0,0,0,0,0,0,0,0,0,0,0,0,0,0,0,0,0,0,0,0,0,0,0,0,0,0,0,0,0,0,0,0,0,0,0,0,0,0,0,0,0,0,0,0,0,0,0,0,0,0,0,0,0,0,0,0,0,0,0,
0,0,0,0,0,0,0,0,0,0,0,0,0,0,0,0,0,0,0,0,0,0,0,0,0,0,0,0,0,0,0,0,0,0,0,0,0,0,0,0,0,0,0,0,0,0,0,0,0,0,0,0,0,0,0,0,0,0,0,0,0,0,0,0,0,0,0,0,0,0,0,0,0,0,0,0,0,0,0,0,0,0,0,0,0,0,0,0,0,0,0,0,0,0,0,0,0,0,0,0,0,0,0,0,0,0,0,0,0,0,0,0,0,0,0,0,0,0,0,0,0,0,0,0,0,0,0,0,
0,0,0,0,0,0,0,0,0,0,0,0,0,0,0,0,0,0,0,0,0,0,0,0,0,0,0,0,0,0,0,0,0,0,0,0,0,0,0,0,0,0,0,0,0,0,0,0,0,0,0,0,0,0,0,0,0,0,0,0,0,0,0,0,0,0,0,0,0,0,0,0,0,0,0,0,0,0,0,0,0,0,0,0,0,0,0,0,0,0,0,0,0,0,0,0,0,0,0,0,0,0,0,0,0,0,0,0,0,0,0,0,0,0,0,0,0,0,0,0,0,0,0,0,0,0,0,0,
0,0,0,0,0,0,0,0,0,0,0,0,0,0,0,0,0,0,0,0,0,0,0,0,0,0,0,0,0,0,0,0,0,0,0,0,0,0,0,0,0,0,0,0,0,0,0,0,0,0,0,0,0,0,0,0,0,0,0,0,0,0,0,0,0,0,0,0,0,0,0,0,0,0,0,0,0,0,0,0,0,0,0,0,0,0,0,0,0,0,0,0,0,0,0,0,0,0,0,0,0,0,0,0,0,0,0,0,0,0,0,0,0,0,0,0,0,0,0,0,0,0,0,0,0,0,0,0,
0,0,0,0,0,0,0,0,0,0,0,0,0,0,0,0,0,0,0,0,0,0,0,0,0,0,0,0,0,0,0,0,0,0,0,0,0,0,0,0,0,0,0,0,0,0,0,0,0,0,0,0,0,0,0,0,0,0,0,0,0,0,0,0,0,0,0,0,0,0,0,0,0,0,0,0,0,0,0,0,0,0,0,0,0,0,0,0,0,0,0,0,0,0,0,0,0,0,0,0,0,0,0,0,0,0,0,0,0,0,0,0,0,0,0,0,0,0,0,0,0,0,0,0,0,0,0,0,
0,0,0,0,2605,0,0,2622,0,0,2638,0,0,2655,0,0,2671,0,0,2687,0,0,2703,0,0,2719,0,0,2735,0,0,2751,0,0,2767,0,0,0,0,0,0,0,0,0,0,0,0,0,0,0,0,0,0,0,0,0,0,0,0,0,0,0,0,0,0,0,0,0,0,0,0,0,0,0,0,0,0,0,0,0,0,0,0,0,0,0,0,0,0,0,0,0,0,0,0,0,0,0,0,0,0,0,0,0,0,0,0,0,0,0,0,0,0,0,0,0,0,0,0,0,0,0,0,0,0,0,0,0,
0,0,0,0,0,0,0,0,0,0,0,0,0,0,0,0,0,0,0,0,0,0,0,0,0,0,0,0,0,0,0,0,0,0,0,0,0,0,0,0,0,0,0,0,0,0,0,0,0,0,0,0,0,0,0,0,0,0,0,0,0,0,0,0,0,0,0,0,0,0,0,0,0,0,0,0,0,0,0,0,0,0,0,0,0,0,0,0,0,0,0,0,0,0,0,0,0,0,0,0,0,0,0,0,0,0,0,0,0,0,0,0,0,0,0,0,0,0,0,0,0,0,0,0,0,0,0,0,
0,0,0,0,0,0,0,0,0,0,0,0,0,0,0,0,0,0,0,0,0,0,0,0,0,0,0,0,0,0,0,0,0,0,0,0,0,0,0,0,0,0,0,0,0,0,0,0,0,0,0,0,0,0,0,0,0,0,0,0,0,0,0,0,0,0,0,0,0,0,0,0,0,0,0,0,0,0,0,0,0,0,0,0,0,0,0,0,0,0,0,0,0,0,0,0,0,0,0,0,0,0,0,0,0,0,0,0,0,0,0,0,0,0,0,0,0,0,0,0,0,0,0,0,0,0,0,0,
0,0,0,0,0,0,0,0,0,0,0,0,0,0,0,0,0,0,0,0,0,0,0,0,0,0,0,0,0,0,0,0,0,0,0,0,0,0,0,0,0,0,0,0,0,0,0,0,0,0,0,0,0,0,0,0,0,0,0,0,0,0,0,0,0,0,0,0,0,0,0,0,0,0,0,0,0,0,0,0,0,0,0,0,0,0,0,0,0,0,0,0,0,0,0,0,0,0,0,0,0,0,0,0,0,0,0,0,0,0,0,0,0,0,0,0,0,0,0,0,0,0,0,0,0,0,0,0,
0,0,0,0,0,0,0,0,0,0,0,0,0,0,0,0,0,0,0,0,0,0,0,0,0,0,0,0,0,0,0,0,0,0,0,0,0,0,0,0,0,0,0,0,0,0,0,0,0,0,0,0,0,0,0,0,0,0,0,0,0,0,0,0,0,0,0,0,0,0,0,0,0,0,0,0,0,0,0,0,0,0,0,0,0,0,0,0,0,0,0,0,0,0,0,0,0,0,0,0,0,0,0,0,0,0,0,0,0,0,0,0,0,0,0,0,0,0,0,0,0,0,0,0,0,0,0,0,
0,0,0,0,0,0,0,0,0,0,0,0,0,0,0,0,0,0,0,0,0,0,0,0,0,0,0,0,0,0,0,0,0,0,0,0,0,0,0,0,0,0,0,0,0,0,0,0,0,0,0,0,0,0,0,0,0,0,0,0,0,0,0,0,0,0,0,0,0,0,0,0,0,0,0,0,0,0,0,0,0,0,0,0,0,0,0,0,0,0,0,0,0,0,0,0,0,0,0,0,0,0,0,0,0,0,0,0,0,0,0,0,0,0,0,0,0,0,0,0,0,0,0,0,0,0,0,0,
0,0,0,0,0,0,0,0,0,0,0,0,0,0,0,0,0,0,0,0,0,0,0,0,0,0,0,0,0,0,0,0,0,0,0,0,0,0,0,0,0,0,0,0,0,0,0,0,0,0,0,0,0,0,0,0,0,0,0,0,0,0,0,0,0,0,0,0,0,0,0,0,0,0,0,0,0,0,0,0,0,0,0,0,0,0,0,0,0,0,0,0,0,0,0,0,0,0,0,0,0,0,0,0,0,0,0,0,0,0,0,0,0,0,0,0,0,0,0,0,0,0,0,0,0,0,0,0,
0,0,0,0,0,0,0,0,0,0,0,0,0,0,0,0,0,0,0,0,0,0,0,0,0,0,0,0,0,0,0,0,0,0,0,0,0,0,0,0,0,0,0,0,0,0,0,0,0,0,0,0,0,0,0,0,0,0,0,0,0,0,0,0,0,0,0,0,0,0,0,0,0,0,0,0,0,0,0,0,0,0,0,0,0,0,0,0,0,0,0,0,0,0,0,0,0,0,0,0,0,0,0,0,0,0,0,0,0,0,0,0,0,0,0,0,0,0,0,0,0,0,0,0,0,0,0,0,
0,0,0,0,0,0,0,0,0,0,0,0,0,0,0,0,0,0,0,0,0,0,0,0,0,0,0,0,0,0,0,0,0,0,0,0,0,0,0,0,0,0,0,0,0,0,0,0,0,0,0,0,0,0,0,0,0,0,0,0,0,0,0,0,0,0,0,0,0,0,0,0,0,0,0,0,0,0,0,0,0,0,0,0,0,0,0,0,0,0,0,0,0,0,0,0,0,0,0,0,0,0,0,0,0,0,0,0,0,0,0,0,0,0,0,0,0,0,0,0,0,0,0,0,0,0,0,0,
0,0,0,0,2775,0,0,2776,0,0,2777,0,0,2778,0,0,2779,0,0,2780,0,0,2781,0,0,0,0,0,0,0,0,0,0,0,0,0,0,0,0,0,0,0,0,0,0,0,0,0,0,0,0,0,0,0,0,0,0,0,0,0,0,0,0,0,0,0,0,0,0,0,0,0,0,0,0,0,0,0,0,0,0,0,0,0,0,0,0,0,0,0,0,0,0,0,0,0,0,0,0,0,0,0,0,0,0,0,0,0,0,0,0,0,0,0,0,0,0,0,0,0,0,0,0,0,0,0,0,0,
0,0,0,0,0,0,0,0,0,0,0,0,0,0,0,0,0,0,0,0,0,0,0,0,0,0,0,0,0,0,0,0,0,0,0,0,0,0,0,0,0,0,0,0,0,0,0,0,0,0,0,0,0,0,0,0,0,0,0,0,0,0,0,0,0,0,0,0,0,0,0,0,0,0,0,0,0,0,0,0,0,0,0,0,0,0,0,0,0,0,0,0,0,0,0,0,0,0,0,0,0,0,0,0,0,0,0,0,0,0,0,0,0,0,0,0,0,0,0,0,0,0,0,0,0,0,0,0,
0,0,0,0,0,0,0,0,0,0,0,0,0,0,0,0,0,0,0,0,0,0,0,0,0,0,0,0,0,0,0,0,0,0,0,0,0,0,0,0,0,0,0,0,0,0,0,0,0,0,0,0,0,0,0,0,0,0,0,0,0,0,0,0,0,0,0,0,0,0,0,0,0,0,0,0,0,0,0,0,0,0,0,0,0,0,0,0,0,0,0,0,0,0,0,0,0,0,0,0,0,0,0,0,0,0,0,0,0,0,0,0,0,0,0,0,0,0,0,0,0,0,0,0,0,0,0,0,
0,0,0,0,0,0,0,0,0,0,0,0,0,0,0,0,0,0,0,0,0,0,0,0,0,0,0,0,0,0,0,0,0,0,0,0,0,0,0,0,0,0,0,0,0,0,0,0,0,0,0,0,0,0,0,0,0,0,0,0,0,0,0,0,0,0,0,0,0,0,0,0,0,0,0,0,0,0,0,0,0,0,0,0,0,0,0,0,0,0,0,0,0,0,0,0,0,0,0,0,0,0,0,0,0,0,0,0,0,0,0,0,0,0,0,0,0,0,0,0,0,0,0,0,0,0,0,0,
0,0,0,0,0,0,0,2703,0,0,0,0,0,0,0,0,0,0,0,0,0,0,0,0,0,0,0,0,0,0,0,0,0,0,0,0,0,0,0,0,0,0,0,0,0,0,0,0,0,0,0,0,0,0,0,0,0,0,0,0,0,0,0,0,0,0,0,0,0,0,0,0,0,0,0,0,0,0,0,0,0,0,0,0,0,0,0,0,0,0,0,0,0,0,0,0,0,0,0,0,0,0,0,0,0,0,0,0,0,0,0,0,0,0,0,0,0,0,0,0,0,0,0,0,0,0,0,0,
0,0,0,0,0,0,0,0,0,0,0,0,0,0,0,0,0,0,0,0,0,0,0,0,0,0,0,0,0,0,0,0,0,0,0,0,0,0,0,0,0,0,0,0,0,0,0,0,0,0,0,0,0,0,0,0,0,0,0,0,0,0,0,0,0,0,0,0,0,0,0,0,0,0,0,0,0,0,0,0,0,0,0,0,0,0,0,0,0,0,0,0,0,0,0,0,0,0,0,0,0,0,0,0,0,0,0,0,0,0,0,0,0,0,0,0,0,0,0,0,0,0,0,0,0,0,0,0,
0,0,0,0,0,0,0,0,0,0,0,0,0,0,0,0,0,0,0,0,0,0,0,0,0,0,0,0,0,0,0,0,0,0,0,0,0,0,0,0,0,0,0,0,0,0,0,0,0,0,0,0,0,0,0,0,0,0,0,0,0,0,0,0,0,0,0,0,0,0,0,0,0,0,0,0,0,0,0,0,0,0,0,0,0,0,0,0,0,0,0,0,0,0,0,0,0,0,0,0,0,0,0,0,0,0,0,0,0,0,0,0,0,0,0,0,0,0,0,0,0,0,0,0,0,0,0,0,
0,0,0,0,0,0,0,0,0,0,0,0,0,0,0,0,0,0,0,0,0,0,0,0,0,0,0,0,0,0,0,0,0,0,0,0,0,0,0,0,0,0,0,0,0,0,0,0,0,0,0,0,0,0,0,0,0,0,0,0,0,0,0,0,0,0,0,0,0,0,0,0,0,0,0,0,0,0,0,0,0,0,0,0,0,0,0,0,0,0,0,0,0,0,0,0,0,0,0,0,0,0,0,0,0,0,0,0,0,0,0,0,0,0,0,0,0,0,0,0,0,0,0,0,0,0,0,0,
0,0,0,0,0,0,0,0,0,0,0,0,0,0,0,0,0,0,0,0,0,0,0,0,0,0,0,0,0,0,0,0,0,0,0,0,0,0,0,0,0,0,0,0,0,0,0,0,0,0,0,0,0,0,0,0,0,0,0,0,0,0,0,0,0,0,0,0,0,0,0,0,0,0,0,0,0,0,0,0,0,0,0,0,0,0,0,0,0,0,0,0,0,0,0,0,0,0,0,0,0,0,0,0,0,0,0,0,0,0,0,0,0,0,0,0,0,0,0,0,0,0,0,0,0,0,0,0,
0,0,0,0,2782,0,0,2902,0,0,3022,0,0,3142,0,0,3262,0,0,3382,0,0,3502,0,0,3622,0,0,3742,0,0,3862,0,0,3982,0,0,4102,0,0,4222,0,0,4342,0,0,4462,0,0,4582,0,0,4702,0,0,4822,0,0,4942,0,0,5062,0,0,5182,0,0,5302,0,0,5422,0,0,5542,0,0,0,0,0,0,0,0,0,0,0,0,0,0,0,0,0,0,0,0,0,0,0,0,0,0,0,0,0,0,0,0,0,0,0,0,0,0,0,0,0,0,0,0,0,0,0,0,0,0,0,0,0,0,
0,0,0,0,0,0,0,0,0,0,0,0,0,0,0,0,0,0,0,0,0,0,0,0,0,0,0,0,0,0,0,0,0,0,0,0,0,0,0,0,0,0,0,0,0,0,0,0,0,0,0,0,0,0,0,0,0,0,0,0,0,0,0,0,0,0,0,0,0,0,0,0,0,0,0,0,0,0,0,0,0,0,0,0,0,0,0,0,0,0,0,0,0,0,0,0,0,0,0,0,0,0,0,0,0,0,0,0,0,0,0,0,0,0,0,0,0,0,0,0,0,0,0,0,0,0,0,0,
0,0,0,0,0,0,0,0,0,0,0,0,0,0,0,0,0,0,0,0,0,0,0,0,0,0,0,0,0,0,0,0,0,0,0,0,0,0,0,0,0,0,0,0,0,0,0,0,0,0,0,0,0,0,0,0,0,0,0,0,0,0,0,0,0,0,0,0,0,0,0,0,0,0,0,0,0,0,0,0,0,0,0,0,0,0,0,0,0,0,0,0,0,0,0,0,0,0,0,0,0,0,0,0,0,0,0,0,0,0,0,0,0,0,0,0,0,0,0,0,0,0,0,0,0,0,0,0,
0,0,0,0,0,0,0,0,0,0,0,0,0,0,0,0,0,0,0,0,0,0,0,0,0,0,0,0,0,0,0,0,0,0,0,0,0,0,0,0,0,0,0,0,0,0,0,0,0,0,0,0,0,0,0,0,0,0,0,0,0,0,0,0,0,0,0,0,0,0,0,0,0,0,0,0,0,0,0,0,0,0,0,0,0,0,0,0,0,0,0,0,0,0,0,0,0,0,0,0,0,0,0,0,0,0,0,0,0,0,0,0,0,0,0,0,0,0,0,0,0,0,0,0,0,0,0,0,
0,0,0,0,0,0,0,0,0,0,0,0,0,0,0,0,0,0,0,0,0,0,0,0,0,0,0,0,0,0,0,0,0,0,0,0,0,0,0,0,0,0,0,0,0,0,0,0,0,0,0,0,0,0,0,0,0,0,0,0,0,0,0,0,0,0,0,0,0,0,0,0,0,0,0,0,0,0,0,0,0,0,0,0,0,0,0,0,0,0,0,0,0,0,0,0,0,0,0,0,0,0,0,0,0,0,0,0,0,0,0,0,0,0,0,0,0,0,0,0,0,0,0,0,0,0,0,0,
0,0,0,0,0,0,0,0,0,0,0,0,0,0,0,0,0,0,0,0,0,0,0,0,0,0,0,0,0,0,0,0,0,0,0,0,0,0,0,0,0,0,0,0,0,0,0,0,0,0,0,0,0,0,0,0,0,0,0,0,0,0,0,0,0,0,0,0,0,0,0,0,0,0,0,0,0,0,0,0,0,0,0,0,0,0,0,0,0,0,0,0,0,0,0,0,0,0,0,0,0,0,0,0,0,0,0,0,0,0,0,0,0,0,0,0,0,0,0,0,0,0,0,0,0,0,0,0,
0,0,0,0,0,0,0,0,0,0,0,0,0,0,0,0,0,0,0,0,0,0,0,0,0,0,0,0,0,0,0,0,0,0,0,0,0,0,0,0,0,0,0,0,0,0,0,0,0,0,0,0,0,0,0,0,0,0,0,0,0,0,0,0,0,0,0,0,0,0,0,0,0,0,0,0,0,0,0,0,0,0,0,0,0,0,0,0,0,0,0,0,0,0,0,0,0,0,0,0,0,0,0,0,0,0,0,0,0,0,0,0,0,0,0,0,0,0,0,0,0,0,0,0,0,0,0,0,
0,0,0,0,0,0,0,0,0,0,0,0,0,0,0,0,0,0,0,0,0,0,0,0,0,0,0,0,0,0,0,0,0,0,0,0,0,0,0,0,0,0,0,0,0,0,0,0,0,0,0,0,0,0,0,0,0,0,0,0,0,0,0,0,0,0,0,0,0,0,0,0,0,0,0,0,0,0,0,0,0,0,0,0,0,0,0,0,0,0,0,0,0,0,0,0,0,0,0,0,0,0,0,0,0,0,0,0,0,0,0,0,0,0,0,0,0,0,0,0,0,0,0,0,0,0,0,0,
0,0,0,0,0,0,0,0,0,0,0,0,0,0,0,0,0,0,0,0,0,0,0,0,0,0,0,0,0,0,0,0,0,0,0,0,0,0,0,0,0,0,0,0,0,0,0,0,0,0,0,0,0,0,0,0,0,0,0,0,0,0,0,0,0,0,0,0,0,0,0,0,0,0,0,0,0,0,0,0,0,0,0,0,0,0,0,0,0,0,0,0,0,0,0,0,0,0,0,0,0,0,0,0,0,0,0,0,0,0,0,0,0,0,0,0,0,0,0,0,0,0,0,0,0,0,0,0,
0,0,0,0,5662,0,0,5782,0,0,5902,0,0,6022,0,0,6142,0,0,6262,0,0,6382,0,0,6502,0,0,6622,0,0,6742,0,0,6862,0,0,6982,0,0,7102,0,0,7222,0,0,7342,0,0,7462,0,0,7582,0,0,7702,0,0,7822,0,0,7942,0,0,8062,0,0,8182,0,0,8302,0,0,8422,0,0,0,0,0,0,0,0,0,0,0,0,0,0,0,0,0,0,0,0,0,0,0,0,0,0,0,0,0,0,0,0,0,0,0,0,0,0,0,0,0,0,0,0,0,0,0,0,0,0,0,0,0,0,
0,0,0,0,0,0,0,0,0,0,0,0,0,0,0,0,0,0,0,0,0,0,0,0,0,0,0,0,0,0,0,0,0,0,0,0,0,0,0,0,0,0,0,0,0,0,0,0,0,0,0,0,0,0,0,0,0,0,0,0,0,0,0,0,0,0,0,0,0,0,0,0,0,0,0,0,0,0,0,0,0,0,0,0,0,0,0,0,0,0,0,0,0,0,0,0,0,0,0,0,0,0,0,0,0,0,0,0,0,0,0,0,0,0,0,0,0,0,0,0,0,0,0,0,0,0,0,0,
0,0,0,0,0,0,0,0,0,0,0,0,0,0,0,0,0,0,0,0,0,0,0,0,0,0,0,0,0,0,0,0,0,0,0,0,0,0,0,0,0,0,0,0,0,0,0,0,0,0,0,0,0,0,0,0,0,0,0,0,0,0,0,0,0,0,0,0,0,0,0,0,0,0,0,0,0,0,0,0,0,0,0,0,0,0,0,0,0,0,0,0,0,0,0,0,0,0,0,0,0,0,0,0,0,0,0,0,0,0,0,0,0,0,0,0,0,0,0,0,0,0,0,0,0,0,0,0,
0,0,0,0,0,0,0,0,0,0,0,0,0,0,0,0,0,0,0,0,0,0,0,0,0,0,0,0,0,0,0,0,0,0,0,0,0,0,0,0,0,0,0,0,0,0,0,0,0,0,0,0,0,0,0,0,0,0,0,0,0,0,0,0,0,0,0,0,0,0,0,0,0,0,0,0,0,0,0,0,0,0,0,0,0,0,0,0,0,0,0,0,0,0,0,0,0,0,0,0,0,0,0,0,0,0,0,0,0,0,0,0,0,0,0,0,0,0,0,0,0,0,0,0,0,0,0,0,
0,0,0,0,0,0,0,0,0,0,0,0,0,0,0,0,0,0,0,0,0,0,0,0,0,0,0,0,0,0,0,0,0,0,0,0,0,0,0,0,0,0,0,0,0,0,0,0,0,0,0,0,0,0,0,0,0,0,0,0,0,0,0,0,0,0,0,0,0,0,0,0,0,0,0,0,0,0,0,0,0,0,0,0,0,0,0,0,0,0,0,0,0,0,0,0,0,0,0,0,0,0,0,0,0,0,0,0,0,0,0,0,0,0,0,0,0,0,0,0,0,0,0,0,0,0,0,0,
0,0,0,0,0,0,0,0,0,0,0,0,0,0,0,0,0,0,0,0,0,0,0,0,0,0,0,0,0,0,0,0,0,0,0,0,0,0,0,0,0,0,0,0,0,0,0,0,0,0,0,0,0,0,0,0,0,0,0,0,0,0,0,0,0,0,0,0,0,0,0,0,0,0,0,0,0,0,0,0,0,0,0,0,0,0,0,0,0,0,0,0,0,0,0,0,0,0,0,0,0,0,0,0,0,0,0,0,0,0,0,0,0,0,0,0,0,0,0,0,0,0,0,0,0,0,0,0,
0,0,0,0,0,0,0,0,0,0,0,0,0,0,0,0,0,0,0,0,0,0,0,0,0,0,0,0,0,0,0,0,0,0,0,0,0,0,0,0,0,0,0,0,0,0,0,0,0,0,0,0,0,0,0,0,0,0,0,0,0,0,0,0,0,0,0,0,0,0,0,0,0,0,0,0,0,0,0,0,0,0,0,0,0,0,0,0,0,0,0,0,0,0,0,0,0,0,0,0,0,0,0,0,0,0,0,0,0,0,0,0,0,0,0,0,0,0,0,0,0,0,0,0,0,0,0,0,
0,0,0,0,0,0,0,0,0,0,0,0,0,0,0,0,0,0,0,0,0,0,0,0,0,0,0,0,0,0,0,0,0,0,0,0,0,0,0,0,0,0,0,0,0,0,0,0,0,0,0,0,0,0,0,0,0,0,0,0,0,0,0,0,0,0,0,0,0,0,0,0,0,0,0,0,0,0,0,0,0,0,0,0,0,0,0,0,0,0,0,0,0,0,0,0,0,0,0,0,0,0,0,0,0,0,0,0,0,0,0,0,0,0,0,0,0,0,0,0,0,0,0,0,0,0,0,0,
0,0,0,0,0,0,0,0,0,0,0,0,0,0,0,0,0,0,0,0,0,0,0,0,0,0,0,0,0,0,0,0,0,0,0,0,0,0,0,0,0,0,0,0,0,0,0,0,0,0,0,0,0,0,0,0,0,0,0,0,0,0,0,0,0,0,0,0,0,0,0,0,0,0,0,0,0,0,0,0,0,0,0,0,0,0,0,0,0,0,0,0,0,0,0,0,0,0,0,0,0,0,0,0,0,0,0,0,0,0,0,0,0,0,0,0,0,0,0,0,0,0,0,0,0,0,0,0,
0,0,0,0,8542,0,0,8662,0,0,8782,0,0,8902,0,0,9022,0,0,9142,0,0,9262,0,0,9382,0,0,9502,0,0,9622,0,0,9742,0,0,9862,0,0,9982,0,0,10102,0,0,10222,0,0,10342,0,0,10462,0,0,10582,0,0,10702,0,0,10822,0,0,10942,0,0,11062,0,0,11182,0,0,11302,0,0,0,0,0,0,0,0,0,0,0,0,0,0,0,0,0,0,0,0,0,0,0,0,0,0,0,0,0,0,0,0,0,0,0,0,0,0,0,0,0,0,0,0,0,0,0,0,0,0,0,0,0,0,
0,0,0,0,0,0,0,0,0,0,0,0,0,0,0,0,0,0,0,0,0,0,0,0,0,0,0,0,0,0,0,0,0,0,0,0,0,0,0,0,0,0,0,0,0,0,0,0,0,0,0,0,0,0,0,0,0,0,0,0,0,0,0,0,0,0,0,0,0,0,0,0,0,0,0,0,0,0,0,0,0,0,0,0,0,0,0,0,0,0,0,0,0,0,0,0,0,0,0,0,0,0,0,0,0,0,0,0,0,0,0,0,0,0,0,0,0,0,0,0,0,0,0,0,0,0,0,0,
0,0,0,0,0,0,0,0,0,0,0,0,0,0,0,0,0,0,0,0,0,0,0,0,0,0,0,0,0,0,0,0,0,0,0,0,0,0,0,0,0,0,0,0,0,0,0,0,0,0,0,0,0,0,0,0,0,0,0,0,0,0,0,0,0,0,0,0,0,0,0,0,0,0,0,0,0,0,0,0,0,0,0,0,0,0,0,0,0,0,0,0,0,0,0,0,0,0,0,0,0,0,0,0,0,0,0,0,0,0,0,0,0,0,0,0,0,0,0,0,0,0,0,0,0,0,0,0,
0,0,0,0,0,0,0,0,0,0,0,0,0,0,0,0,0,0,0,0,0,0,0,0,0,0,0,0,0,0,0,0,0,0,0,0,0,0,0,0,0,0,0,0,0,0,0,0,0,0,0,0,0,0,0,0,0,0,0,0,0,0,0,0,0,0,0,0,0,0,0,0,0,0,0,0,0,0,0,0,0,0,0,0,0,0,0,0,0,0,0,0,0,0,0,0,0,0,0,0,0,0,0,0,0,0,0,0,0,0,0,0,0,0,0,0,0,0,0,0,0,0,0,0,0,0,0,0,
0,0,0,0,0,0,0,0,0,0,0,0,0,0,0,0,0,0,0,0,0,0,0,0,0,0,0,0,0,0,0,0,0,0,0,0,0,0,0,0,0,0,0,0,0,0,0,0,0,0,0,0,0,0,0,0,0,0,0,0,0,0,0,0,0,0,0,0,0,0,0,0,0,0,0,0,0,0,0,0,0,0,0,0,0,0,0,0,0,0,0,0,0,0,0,0,0,0,0,0,0,0,0,0,0,0,0,0,0,0,0,0,0,0,0,0,0,0,0,0,0,0,0,0,0,0,0,0,
0,0,0,0,0,0,0,0,0,0,0,0,0,0,0,0,0,0,0,0,0,0,0,0,0,0,0,0,0,0,0,0,0,0,0,0,0,0,0,0,0,0,0,0,0,0,0,0,0,0,0,0,0,0,0,0,0,0,0,0,0,0,0,0,0,0,0,0,0,0,0,0,0,0,0,0,0,0,0,0,0,0,0,0,0,0,0,0,0,0,0,0,0,0,0,0,0,0,0,0,0,0,0,0,0,0,0,0,0,0,0,0,0,0,0,0,0,0,0,0,0,0,0,0,0,0,0,0,
0,0,0,0,0,0,0,0,0,0,0,0,0,0,0,0,0,0,0,0,0,0,0,0,0,0,0,0,0,0,0,0,0,0,0,0,0,0,0,0,0,0,0,0,0,0,0,0,0,0,0,0,0,0,0,0,0,0,0,0,0,0,0,0,0,0,0,0,0,0,0,0,0,0,0,0,0,0,0,0,0,0,0,0,0,0,0,0,0,0,0,0,0,0,0,0,0,0,0,0,0,0,0,0,0,0,0,0,0,0,0,0,0,0,0,0,0,0,0,0,0,0,0,0,0,0,0,0,
0,0,0,0,0,0,0,0,0,0,0,0,0,0,0,0,0,0,0,0,0,0,0,0,0,0,0,0,0,0,0,0,0,0,0,0,0,0,0,0,0,0,0,0,0,0,0,0,0,0,0,0,0,0,0,0,0,0,0,0,0,0,0,0,0,0,0,0,0,0,0,0,0,0,0,0,0,0,0,0,0,0,0,0,0,0,0,0,0,0,0,0,0,0,0,0,0,0,0,0,0,0,0,0,0,0,0,0,0,0,0,0,0,0,0,0,0,0,0,0,0,0,0,0,0,0,0,0,
0,0,0,0,0,0,0,0,0,0,0,0,0,0,0,0,0,0,0,0,0,0,0,0,0,0,0,0,0,0,0,0,0,0,0,0,0,0,0,0,0,0,0,0,0,0,0,0,0,0,0,0,0,0,0,0,0,0,0,0,0,0,0,0,0,0,0,0,0,0,0,0,0,0,0,0,0,0,0,0,0,0,0,0,0,0,0,0,0,0,0,0,0,0,0,0,0,0,0,0,0,0,0,0,0,0,0,0,0,0,0,0,0,0,0,0,0,0,0,0,0,0,0,0,0,0,0,0,
0,0,0,0,11422,0,0,11542,0,0,11662,0,0,11782,0,0,11902,0,0,12022,0,0,12142,0,0,12262,0,0,12382,0,0,12502,0,0,12622,0,0,12742,0,0,12862,0,0,12982,0,0,13102,0,0,13222,0,0,13342,0,0,13462,0,0,13582,0,0,13702,0,0,13822,0,0,13942,0,0,14062,0,0,14182,0,0,0,0,0,0,0,0,0,0,0,0,0,0,0,0,0,0,0,0,0,0,0,0,0,0,0,0,0,0,0,0,0,0,0,0,0,0,0,0,0,0,0,0,0,0,0,0,0,0,0,0,0,0,
0,0,0,0,0,0,0,0,0,0,0,0,0,0,0,0,0,0,0,0,0,0,0,0,0,0,0,0,0,0,0,0,0,0,0,0,0,0,0,0,0,0,0,0,0,0,0,0,0,0,0,0,0,0,0,0,0,0,0,0,0,0,0,0,0,0,0,0,0,0,0,0,0,0,0,0,0,0,0,0,0,0,0,0,0,0,0,0,0,0,0,0,0,0,0,0,0,0,0,0,0,0,0,0,0,0,0,0,0,0,0,0,0,0,0,0,0,0,0,0,0,0,0,0,0,0,0,0,
0,0,0,0,0,0,0,0,0,0,0,0,0,0,0,0,0,0,0,0,0,0,0,0,0,0,0,0,0,0,0,0,0,0,0,0,0,0,0,0,0,0,0,0,0,0,0,0,0,0,0,0,0,0,0,0,0,0,0,0,0,0,0,0,0,0,0,0,0,0,0,0,0,0,0,0,0,0,0,0,0,0,0,0,0,0,0,0,0,0,0,0,0,0,0,0,0,0,0,0,0,0,0,0,0,0,0,0,0,0,0,0,0,0,0,0,0,0,0,0,0,0,0,0,0,0,0,0,
0,0,0,0,0,0,0,0,0,0,0,0,0,0,0,0,0,0,0,0,0,0,0,0,0,0,0,0,0,0,0,0,0,0,0,0,0,0,0,0,0,0,0,0,0,0,0,0,0,0,0,0,0,0,0,0,0,0,0,0,0,0,0,0,0,0,0,0,0,0,0,0,0,0,0,0,0,0,0,0,0,0,0,0,0,0,0,0,0,0,0,0,0,0,0,0,0,0,0,0,0,0,0,0,0,0,0,0,0,0,0,0,0,0,0,0,0,0,0,0,0,0,0,0,0,0,0,0,
0,0,0,0,0,0,0,0,0,0,0,0,0,0,0,0,0,0,0,0,0,0,0,0,0,0,0,0,0,0,0,0,0,0,0,0,0,0,0,0,0,0,0,0,0,0,0,0,0,0,0,0,0,0,0,0,0,0,0,0,0,0,0,0,0,0,0,0,0,0,0,0,0,0,0,0,0,0,0,0,0,0,0,0,0,0,0,0,0,0,0,0,0,0,0,0,0,0,0,0,0,0,0,0,0,0,0,0,0,0,0,0,0,0,0,0,0,0,0,0,0,0,0,0,0,0,0,0,
0,0,0,0,0,0,0,0,0,0,0,0,0,0,0,0,0,0,0,0,0,0,0,0,0,0,0,0,0,0,0,0,0,0,0,0,0,0,0,0,0,0,0,0,0,0,0,0,0,0,0,0,0,0,0,0,0,0,0,0,0,0,0,0,0,0,0,0,0,0,0,0,0,0,0,0,0,0,0,0,0,0,0,0,0,0,0,0,0,0,0,0,0,0,0,0,0,0,0,0,0,0,0,0,0,0,0,0,0,0,0,0,0,0,0,0,0,0,0,0,0,0,0,0,0,0,0,0,
0,0,0,0,0,0,0,0,0,0,0,0,0,0,0,0,0,0,0,0,0,0,0,0,0,0,0,0,0,0,0,0,0,0,0,0,0,0,0,0,0,0,0,0,0,0,0,0,0,0,0,0,0,0,0,0,0,0,0,0,0,0,0,0,0,0,0,0,0,0,0,0,0,0,0,0,0,0,0,0,0,0,0,0,0,0,0,0,0,0,0,0,0,0,0,0,0,0,0,0,0,0,0,0,0,0,0,0,0,0,0,0,0,0,0,0,0,0,0,0,0,0,0,0,0,0,0,0,
0,0,0,0,0,0,0,0,0,0,0,0,0,0,0,0,0,0,0,0,0,0,0,0,0,0,0,0,0,0,0,0,0,0,0,0,0,0,0,0,0,0,0,0,0,0,0,0,0,0,0,0,0,0,0,0,0,0,0,0,0,0,0,0,0,0,0,0,0,0,0,0,0,0,0,0,0,0,0,0,0,0,0,0,0,0,0,0,0,0,0,0,0,0,0,0,0,0,0,0,0,0,0,0,0,0,0,0,0,0,0,0,0,0,0,0,0,0,0,0,0,0,0,0,0,0,0,0,
0,0,0,0,0,0,0,0,0,0,0,0,0,0,0,0,0,0,0,0,0,0,0,0,0,0,0,0,0,0,0,0,0,0,0,0,0,0,0,0,0,0,0,0,0,0,0,0,0,0,0,0,0,0,0,0,0,0,0,0,0,0,0,0,0,0,0,0,0,0,0,0,0,0,0,0,0,0,0,0,0,0,0,0,0,0,0,0,0,0,0,0,0,0,0,0,0,0,0,0,0,0,0,0,0,0,0,0,0,0,0,0,0,0,0,0,0,0,0,0,0,0,0,0,0,0,0,0,
0,0,0,0,14302,0,0,14422,0,0,14542,0,0,14662,0,0,14782,0,0,14902,0,0,15022,0,0,15142,0,0,15262,0,0,15382,0,0,15502,0,0,15622,0,0,15742,0,0,15862,0,0,15982,0,0,16102,0,0,16222,0,0,16342,0,0,16462,0,0,16582,0,0,16702,0,0,16822,0,0,16942,0,0,17062,0,0,0,0,0,0,0,0,0,0,0,0,0,0,0,0,0,0,0,0,0,0,0,0,0,0,0,0,0,0,0,0,0,0,0,0,0,0,0,0,0,0,0,0,0,0,0,0,0,0,0,0,0,0,
0,0,0,0,0,0,0,0,0,0,0,0,0,0,0,0,0,0,0,0,0,0,0,0,0,0,0,0,0,0,0,0,0,0,0,0,0,0,0,0,0,0,0,0,0,0,0,0,0,0,0,0,0,0,0,0,0,0,0,0,0,0,0,0,0,0,0,0,0,0,0,0,0,0,0,0,0,0,0,0,0,0,0,0,0,0,0,0,0,0,0,0,0,0,0,0,0,0,0,0,0,0,0,0,0,0,0,0,0,0,0,0,0,0,0,0,0,0,0,0,0,0,0,0,0,0,0,0,
0,0,0,0,0,0,0,0,0,0,0,0,0,0,0,0,0,0,0,0,0,0,0,0,0,0,0,0,0,0,0,0,0,0,0,0,0,0,0,0,0,0,0,0,0,0,0,0,0,0,0,0,0,0,0,0,0,0,0,0,0,0,0,0,0,0,0,0,0,0,0,0,0,0,0,0,0,0,0,0,0,0,0,0,0,0,0,0,0,0,0,0,0,0,0,0,0,0,0,0,0,0,0,0,0,0,0,0,0,0,0,0,0,0,0,0,0,0,0,0,0,0,0,0,0,0,0,0,
0,0,0,0,0,0,0,0,0,0,0,0,0,0,0,0,0,0,0,0,0,0,0,0,0,0,0,0,0,0,0,0,0,0,0,0,0,0,0,0,0,0,0,0,0,0,0,0,0,0,0,0,0,0,0,0,0,0,0,0,0,0,0,0,0,0,0,0,0,0,0,0,0,0,0,0,0,0,0,0,0,0,0,0,0,0,0,0,0,0,0,0,0,0,0,0,0,0,0,0,0,0,0,0,0,0,0,0,0,0,0,0,0,0,0,0,0,0,0,0,0,0,0,0,0,0,0,0,
0,0,0,0,0,0,0,0,0,0,0,0,0,0,0,0,0,0,0,0,0,0,0,0,0,0,0,0,0,0,0,0,0,0,0,0,0,0,0,0,0,0,0,0,0,0,0,0,0,0,0,0,0,0,0,0,0,0,0,0,0,0,0,0,0,0,0,0,0,0,0,0,0,0,0,0,0,0,0,0,0,0,0,0,0,0,0,0,0,0,0,0,0,0,0,0,0,0,0,0,0,0,0,0,0,0,0,0,0,0,0,0,0,0,0,0,0,0,0,0,0,0,0,0,0,0,0,0,
0,0,0,0,0,0,0,0,0,0,0,0,0,0,0,0,0,0,0,0,0,0,0,0,0,0,0,0,0,0,0,0,0,0,0,0,0,0,0,0,0,0,0,0,0,0,0,0,0,0,0,0,0,0,0,0,0,0,0,0,0,0,0,0,0,0,0,0,0,0,0,0,0,0,0,0,0,0,0,0,0,0,0,0,0,0,0,0,0,0,0,0,0,0,0,0,0,0,0,0,0,0,0,0,0,0,0,0,0,0,0,0,0,0,0,0,0,0,0,0,0,0,0,0,0,0,0,0,
0,0,0,0,0,0,0,0,0,0,0,0,0,0,0,0,0,0,0,0,0,0,0,0,0,0,0,0,0,0,0,0,0,0,0,0,0,0,0,0,0,0,0,0,0,0,0,0,0,0,0,0,0,0,0,0,0,0,0,0,0,0,0,0,0,0,0,0,0,0,0,0,0,0,0,0,0,0,0,0,0,0,0,0,0,0,0,0,0,0,0,0,0,0,0,0,0,0,0,0,0,0,0,0,0,0,0,0,0,0,0,0,0,0,0,0,0,0,0,0,0,0,0,0,0,0,0,0,
0,0,0,0,0,0,0,0,0,0,0,0,0,0,0,0,0,0,0,0,0,0,0,0,0,0,0,0,0,0,0,0,0,0,0,0,0,0,0,0,0,0,0,0,0,0,0,0,0,0,0,0,0,0,0,0,0,0,0,0,0,0,0,0,0,0,0,0,0,0,0,0,0,0,0,0,0,0,0,0,0,0,0,0,0,0,0,0,0,0,0,0,0,0,0,0,0,0,0,0,0,0,0,0,0,0,0,0,0,0,0,0,0,0,0,0,0,0,0,0,0,0,0,0,0,0,0,0,
0,0,0,0,0,0,0,0,0,0,0,0,0,0,0,0,0,0,0,0,0,0,0,0,0,0,0,0,0,0,0,0,0,0,0,0,0,0,0,0,0,0,0,0,0,0,0,0,0,0,0,0,0,0,0,0,0,0,0,0,0,0,0,0,0,0,0,0,0,0,0,0,0,0,0,0,0,0,0,0,0,0,0,0,0,0,0,0,0,0,0,0,0,0,0,0,0,0,0,0,0,0,0,0,0,0,0,0,0,0,0,0,0,0,0,0,0,0,0,0,0,0,0,0,0,0,0,0,
0,0,0,0,17182,0,0,17302,0,0,17422,0,0,17542,0,0,17662,0,0,17782,0,0,17902,0,0,18022,0,0,18142,0,0,18262,0,0,18382,0,0,18502,0,0,18622,0,0,18742,0,0,18862,0,0,18982,0,0,19102,0,0,19222,0,0,19342,0,0,19462,0,0,19582,0,0,19702,0,0,19822,0,0,19942,0,0,0,0,0,0,0,0,0,0,0,0,0,0,0,0,0,0,0,0,0,0,0,0,0,0,0,0,0,0,0,0,0,0,0,0,0,0,0,0,0,0,0,0,0,0,0,0,0,0,0,0,0,0,
0,0,0,0,0,0,0,0,0,0,0,0,0,0,0,0,0,0,0,0,0,0,0,0,0,0,0,0,0,0,0,0,0,0,0,0,0,0,0,0,0,0,0,0,0,0,0,0,0,0,0,0,0,0,0,0,0,0,0,0,0,0,0,0,0,0,0,0,0,0,0,0,0,0,0,0,0,0,0,0,0,0,0,0,0,0,0,0,0,0,0,0,0,0,0,0,0,0,0,0,0,0,0,0,0,0,0,0,0,0,0,0,0,0,0,0,0,0,0,0,0,0,0,0,0,0,0,0,
0,0,0,0,0,0,0,0,0,0,0,0,0,0,0,0,0,0,0,0,0,0,0,0,0,0,0,0,0,0,0,0,0,0,0,0,0,0,0,0,0,0,0,0,0,0,0,0,0,0,0,0,0,0,0,0,0,0,0,0,0,0,0,0,0,0,0,0,0,0,0,0,0,0,0,0,0,0,0,0,0,0,0,0,0,0,0,0,0,0,0,0,0,0,0,0,0,0,0,0,0,0,0,0,0,0,0,0,0,0,0,0,0,0,0,0,0,0,0,0,0,0,0,0,0,0,0,0,
0,0,0,0,0,0,0,0,0,0,0,0,0,0,0,0,0,0,0,0,0,0,0,0,0,0,0,0,0,0,0,0,0,0,0,0,0,0,0,0,0,0,0,0,0,0,0,0,0,0,0,0,0,0,0,0,0,0,0,0,0,0,0,0,0,0,0,0,0,0,0,0,0,0,0,0,0,0,0,0,0,0,0,0,0,0,0,0,0,0,0,0,0,0,0,0,0,0,0,0,0,0,0,0,0,0,0,0,0,0,0,0,0,0,0,0,0,0,0,0,0,0,0,0,0,0,0,0,
0,0,0,0,0,0,0,0,0,0,0,0,0,0,0,0,0,0,0,0,0,0,0,0,0,0,0,0,0,0,0,0,0,0,0,0,0,0,0,0,0,0,0,0,0,0,0,0,0,0,0,0,0,0,0,0,0,0,0,0,0,0,0,0,0,0,0,0,0,0,0,0,0,0,0,0,0,0,0,0,0,0,0,0,0,0,0,0,0,0,0,0,0,0,0,0,0,0,0,0,0,0,0,0,0,0,0,0,0,0,0,0,0,0,0,0,0,0,0,0,0,0,0,0,0,0,0,0,
0,0,0,0,0,0,0,0,0,0,0,0,0,0,0,0,0,0,0,0,0,0,0,0,0,0,0,0,0,0,0,0,0,0,0,0,0,0,0,0,0,0,0,0,0,0,0,0,0,0,0,0,0,0,0,0,0,0,0,0,0,0,0,0,0,0,0,0,0,0,0,0,0,0,0,0,0,0,0,0,0,0,0,0,0,0,0,0,0,0,0,0,0,0,0,0,0,0,0,0,0,0,0,0,0,0,0,0,0,0,0,0,0,0,0,0,0,0,0,0,0,0,0,0,0,0,0,0,
0,0,0,0,0,0,0,0,0,0,0,0,0,0,0,0,0,0,0,0,0,0,0,0,0,0,0,0,0,0,0,0,0,0,0,0,0,0,0,0,0,0,0,0,0,0,0,0,0,0,0,0,0,0,0,0,0,0,0,0,0,0,0,0,0,0,0,0,0,0,0,0,0,0,0,0,0,0,0,0,0,0,0,0,0,0,0,0,0,0,0,0,0,0,0,0,0,0,0,0,0,0,0,0,0,0,0,0,0,0,0,0,0,0,0,0,0,0,0,0,0,0,0,0,0,0,0,0,
0,0,0,0,0,0,0,0,0,0,0,0,0,0,0,0,0,0,0,0,0,0,0,0,0,0,0,0,0,0,0,0,0,0,0,0,0,0,0,0,0,0,0,0,0,0,0,0,0,0,0,0,0,0,0,0,0,0,0,0,0,0,0,0,0,0,0,0,0,0,0,0,0,0,0,0,0,0,0,0,0,0,0,0,0,0,0,0,0,0,0,0,0,0,0,0,0,0,0,0,0,0,0,0,0,0,0,0,0,0,0,0,0,0,0,0,0,0,0,0,0,0,0,0,0,0,0,0,
0,0,0,0,0,0,0,0,0,0,0,0,0,0,0,0,0,0,0,0,0,0,0,0,0,0,0,0,0,0,0,0,0,0,0,0,0,0,0,0,0,0,0,0,0,0,0,0,0,0,0,0,0,0,0,0,0,0,0,0,0,0,0,0,0,0,0,0,0,0,0,0,0,0,0,0,0,0,0,0,0,0,0,0,0,0,0,0,0,0,0,0,0,0,0,0,0,0,0,0,0,0,0,0,0,0,0,0,0,0,0,0,0,0,0,0,0,0,0,0,0,0,0,0,0,0,0,0,
0,0,0,0,20062,0,0,20182,0,0,20302,0,0,20422,0,0,20542,0,0,20662,0,0,20782,0,0,20902,0,0,21022,0,0,21142,0,0,21262,0,0,21382,0,0,21502,0,0,21622,0,0,21742,0,0,21862,0,0,21982,0,0,22102,0,0,22222,0,0,22342,0,0,22462,0,0,22582,0,0,22702,0,0,22822,0,0,0,0,0,0,0,0,0,0,0,0,0,0,0,0,0,0,0,0,0,0,0,0,0,0,0,0,0,0,0,0,0,0,0,0,0,0,0,0,0,0,0,0,0,0,0,0,0,0,0,0,0,0,
0,0,0,0,0,0,0,0,0,0,0,0,0,0,0,0,0,0,0,0,0,0,0,0,0,0,0,0,0,0,0,0,0,0,0,0,0,0,0,0,0,0,0,0,0,0,0,0,0,0,0,0,0,0,0,0,0,0,0,0,0,0,0,0,0,0,0,0,0,0,0,0,0,0,0,0,0,0,0,0,0,0,0,0,0,0,0,0,0,0,0,0,0,0,0,0,0,0,0,0,0,0,0,0,0,0,0,0,0,0,0,0,0,0,0,0,0,0,0,0,0,0,0,0,0,0,0,0,
0,0,0,0,0,0,0,0,0,0,0,0,0,0,0,0,0,0,0,0,0,0,0,0,0,0,0,0,0,0,0,0,0,0,0,0,0,0,0,0,0,0,0,0,0,0,0,0,0,0,0,0,0,0,0,0,0,0,0,0,0,0,0,0,0,0,0,0,0,0,0,0,0,0,0,0,0,0,0,0,0,0,0,0,0,0,0,0,0,0,0,0,0,0,0,0,0,0,0,0,0,0,0,0,0,0,0,0,0,0,0,0,0,0,0,0,0,0,0,0,0,0,0,0,0,0,0,0,
0,0,0,0,0,0,0,0,0,0,0,0,0,0,0,0,0,0,0,0,0,0,0,0,0,0,0,0,0,0,0,0,0,0,0,0,0,0,0,0,0,0,0,0,0,0,0,0,0,0,0,0,0,0,0,0,0,0,0,0,0,0,0,0,0,0,0,0,0,0,0,0,0,0,0,0,0,0,0,0,0,0,0,0,0,0,0,0,0,0,0,0,0,0,0,0,0,0,0,0,0,0,0,0,0,0,0,0,0,0,0,0,0,0,0,0,0,0,0,0,0,0,0,0,0,0,0,0,
0,0,0,0,0,0,0,0,0,0,0,0,0,0,0,0,0,0,0,0,0,0,0,0,0,0,0,0,0,0,0,0,0,0,0,0,0,0,0,0,0,0,0,0,0,0,0,0,0,0,0,0,0,0,0,0,0,0,0,0,0,0,0,0,0,0,0,0,0,0,0,0,0,0,0,0,0,0,0,0,0,0,0,0,0,0,0,0,0,0,0,0,0,0,0,0,0,0,0,0,0,0,0,0,0,0,0,0,0,0,0,0,0,0,0,0,0,0,0,0,0,0,0,0,0,0,0,0,
0,0,0,0,0,0,0,0,0,0,0,0,0,0,0,0,0,0,0,0,0,0,0,0,0,0,0,0,0,0,0,0,0,0,0,0,0,0,0,0,0,0,0,0,0,0,0,0,0,0,0,0,0,0,0,0,0,0,0,0,0,0,0,0,0,0,0,0,0,0,0,0,0,0,0,0,0,0,0,0,0,0,0,0,0,0,0,0,0,0,0,0,0,0,0,0,0,0,0,0,0,0,0,0,0,0,0,0,0,0,0,0,0,0,0,0,0,0,0,0,0,0,0,0,0,0,0,0,
0,0,0,0,0,0,0,0,0,0,0,0,0,0,0,0,0,0,0,0,0,0,0,0,0,0,0,0,0,0,0,0,0,0,0,0,0,0,0,0,0,0,0,0,0,0,0,0,0,0,0,0,0,0,0,0,0,0,0,0,0,0,0,0,0,0,0,0,0,0,0,0,0,0,0,0,0,0,0,0,0,0,0,0,0,0,0,0,0,0,0,0,0,0,0,0,0,0,0,0,0,0,0,0,0,0,0,0,0,0,0,0,0,0,0,0,0,0,0,0,0,0,0,0,0,0,0,0,
0,0,0,0,0,0,0,0,0,0,0,0,0,0,0,0,0,0,0,0,0,0,0,0,0,0,0,0,0,0,0,0,0,0,0,0,0,0,0,0,0,0,0,0,0,0,0,0,0,0,0,0,0,0,0,0,0,0,0,0,0,0,0,0,0,0,0,0,0,0,0,0,0,0,0,0,0,0,0,0,0,0,0,0,0,0,0,0,0,0,0,0,0,0,0,0,0,0,0,0,0,0,0,0,0,0,0,0,0,0,0,0,0,0,0,0,0,0,0,0,0,0,0,0,0,0,0,0,
0,0,0,0,0,0,0,0,0,0,0,0,0,0,0,0,0,0,0,0,0,0,0,0,0,0,0,0,0,0,0,0,0,0,0,0,0,0,0,0,0,0,0,0,0,0,0,0,0,0,0,0,0,0,0,0,0,0,0,0,0,0,0,0,0,0,0,0,0,0,0,0,0,0,0,0,0,0,0,0,0,0,0,0,0,0,0,0,0,0,0,0,0,0,0,0,0,0,0,0,0,0,0,0,0,0,0,0,0,0,0,0,0,0,0,0,0,0,0,0,0,0,0,0,0,0,0,0,
0,0,0,0,0,0,0,0,0,0,0,0,0,0,0,0,0,0,0,0,0,0,0,0,0,0,0,0,0,0,0,0,0,0,0,0,0,0,0,0,0,0,0,0,0,0,0,0,0,0,0,0,0,0,0,0,0,0,0,0,0,0,0,0,0,0,0,0,0,0,0,0,0,0,0,0,0,0,0,0,0,0,0,0,0,0,0,0,0,0,0,0,0,0,0,0,0,0,0,0,0,0,0,0,0,0,0,0,0,0,0,0,0,0,0,0,0,0,0,0,0,0,0,0,0,0,0,0
</data>
 </layer>
 <objectgroup id="4" name="Spawns">
  <object id="2135" name="Gallery spawn 1" x="320" y="320">
   <point/>
  </object>
  <object id="2136" name="Gallery spawn 2" x="448" y="320">
   <point/>
  </object>
  <object id="2137" name="Gallery spawn 3" x="576" y="320">
   <point/>
  </object>
  <object id="2138" name="Gallery spawn 4" x="704" y="320">
   <point/>
  </object>
  <object id="2139" name="Gallery spawn 5" x="832" y="320">
   <point/>
  </object>
  <object id="2140" name="Gallery spawn 6" x="960" y="320">
   <point/>
  </object>
  <object id="2141" name="Gallery spawn 7" x="1088" y="320">
   <point/>
  </object>
  <object id="2142" name="Gallery spawn 8" x="1216" y="320">
   <point/>
  </object>
  <object id="2143" name="Gallery spawn 9" x="1344" y="320">
   <point/>
  </object>
  <object id="2144" name="Gallery spawn 10" x="1472" y="320">
   <point/>
  </object>
  <object id="2145" name="Gallery spawn 11" x="320" y="448">
   <point/>
  </object>
  <object id="2146" name="Gallery spawn 12" x="448" y="448">
   <point/>
  </object>
  <object id="2147" name="Gallery spawn 13" x="576" y="448">
   <point/>
  </object>
  <object id="2148" name="Gallery spawn 14" x="704" y="448">
   <point/>
  </object>
  <object id="2149" name="Gallery spawn 15" x="832" y="448">
   <point/>
  </object>
  <object id="2150" name="Gallery spawn 16" x="960" y="448">
   <point/>
  </object>
  <object id="2151" name="Gallery spawn 17" x="1088" y="448">
   <point/>
  </object>
  <object id="2152" name="Gallery spawn 18" x="1216" y="448">
   <point/>
  </object>
  <object id="2153" name="Gallery spawn 19" x="1344" y="448">
   <point/>
  </object>
  <object id="2154" name="Gallery spawn 20" x="1472" y="448">
   <point/>
  </object>
 </objectgroup>
</map>
